(Exported by FreeCAD)
(Post Processor: grbl_G81_post)
(Output Time:2022-04-18 12:12:00.850255)
(begin preamble)
G17 G90
G21
(begin operation: T1: 3,1mm 17mm 2 flute002)
(Path: T1: 3,1mm 17mm 2 flute002)
(T1: 3,1mm 17mm 2 flute002)
(begin toolchange)
(M6 T1.0)
M3 S1000.000
(finish operation: T1: 3,1mm 17mm 2 flute002)
(begin operation: Helix001)
(Path: Helix001)
(Helix001)
(helix cut operation)
G0 Z3.000
G0 X11.450 Y20.000
G0 Z3.000
G1 Z0.000 F40.00
G2 X8.550 Y20.000 Z-0.500 I-1.450 J0.000 F70.00
G2 X11.450 Y20.000 Z-1.000 I1.450 J0.000 F70.00
G2 X8.550 Y20.000 Z-1.500 I-1.450 J0.000 F70.00
G2 X11.450 Y20.000 Z-2.000 I1.450 J0.000 F70.00
G2 X8.550 Y20.000 Z-2.500 I-1.450 J0.000 F70.00
G2 X11.450 Y20.000 Z-3.000 I1.450 J0.000 F70.00
G2 X8.550 Y20.000 Z-3.500 I-1.450 J0.000 F70.00
G2 X11.450 Y20.000 Z-4.000 I1.450 J0.000 F70.00
G2 X8.550 Y20.000 Z-4.000 I-1.450 J0.000 F70.00
G2 X11.450 Y20.000 Z-4.000 I1.450 J0.000 F70.00
G0 Z3.000
G0 X31.450 Y20.000
G0 Z3.000
G1 Z0.000 F40.00
G2 X28.550 Y20.000 Z-0.500 I-1.450 J0.000 F70.00
G2 X31.450 Y20.000 Z-1.000 I1.450 J0.000 F70.00
G2 X28.550 Y20.000 Z-1.500 I-1.450 J0.000 F70.00
G2 X31.450 Y20.000 Z-2.000 I1.450 J0.000 F70.00
G2 X28.550 Y20.000 Z-2.500 I-1.450 J0.000 F70.00
G2 X31.450 Y20.000 Z-3.000 I1.450 J0.000 F70.00
G2 X28.550 Y20.000 Z-3.500 I-1.450 J0.000 F70.00
G2 X31.450 Y20.000 Z-4.000 I1.450 J0.000 F70.00
G2 X28.550 Y20.000 Z-4.000 I-1.450 J0.000 F70.00
G2 X31.450 Y20.000 Z-4.000 I1.450 J0.000 F70.00
G0 Z3.000
G0 Z3.000
(finish operation: Helix001)
(begin operation: Pocket_Shape)
(Path: Pocket_Shape)
(Pocket_Shape)
G0 Z3.000
G0 X110.950 Y29.950
G1 X110.950 Y29.950 Z-1.000 F40.00
G1 X110.950 Y21.050 Z-1.000 F70.00
G1 X104.050 Y21.050 Z-1.000 F70.00
G1 X104.050 Y29.950 Z-1.000 F70.00
G1 X110.950 Y29.950 Z-1.000 F70.00
G0 X110.950 Y29.950 Z3.000
G0 X106.698 Y29.950 Z3.000
G0 X106.698 Y29.950 Z2.000
G1 X106.698 Y29.950 Z-1.000 F40.00
G1 X104.050 Y29.950 Z-1.000 F70.00
G1 X104.050 Y27.302 Z-1.000 F70.00
G1 X106.698 Y29.950 Z-1.000 F70.00
G1 X110.950 Y29.950 Z-1.000 F70.00
G1 X110.950 Y29.818 Z-1.000 F70.00
G1 X104.050 Y22.918 Z-1.000 F70.00
G1 X104.050 Y21.050 Z-1.000 F70.00
G1 X106.566 Y21.050 Z-1.000 F70.00
G1 X110.950 Y25.434 Z-1.000 F70.00
G1 X110.950 Y21.050 Z-1.000 F70.00
G1 X110.950 Y21.050 Z-2.000 F40.00
G1 X110.950 Y25.434 Z-2.000 F70.00
G1 X106.566 Y21.050 Z-2.000 F70.00
G1 X104.050 Y21.050 Z-2.000 F70.00
G1 X104.050 Y22.918 Z-2.000 F70.00
G1 X110.950 Y29.818 Z-2.000 F70.00
G1 X110.950 Y29.950 Z-2.000 F70.00
G1 X106.698 Y29.950 Z-2.000 F70.00
G1 X104.050 Y27.302 Z-2.000 F70.00
G1 X104.050 Y29.950 Z-2.000 F70.00
G1 X106.698 Y29.950 Z-2.000 F70.00
G0 X106.698 Y29.950 Z3.000
G0 X106.698 Y29.950 Z3.000
G0 X106.698 Y29.950 Z1.000
G1 X106.698 Y29.950 Z-2.000 F40.00
G1 X110.950 Y29.950 Z-2.000 F70.00
G1 X110.950 Y21.050 Z-2.000 F70.00
G1 X104.050 Y21.050 Z-2.000 F70.00
G1 X104.050 Y29.950 Z-2.000 F70.00
G1 X106.698 Y29.950 Z-2.000 F70.00
G1 X106.698 Y29.950 Z-3.000 F40.00
G1 X110.950 Y29.950 Z-3.000 F70.00
G1 X110.950 Y21.050 Z-3.000 F70.00
G1 X104.050 Y21.050 Z-3.000 F70.00
G1 X104.050 Y29.950 Z-3.000 F70.00
G1 X106.698 Y29.950 Z-3.000 F70.00
G0 X106.698 Y29.950 Z3.000
G0 X106.698 Y29.950 Z3.000
G0 X106.698 Y29.950 Z0.000
G1 X106.698 Y29.950 Z-3.000 F40.00
G1 X104.050 Y29.950 Z-3.000 F70.00
G1 X104.050 Y27.302 Z-3.000 F70.00
G1 X106.698 Y29.950 Z-3.000 F70.00
G1 X110.950 Y29.950 Z-3.000 F70.00
G1 X110.950 Y29.818 Z-3.000 F70.00
G1 X104.050 Y22.918 Z-3.000 F70.00
G1 X104.050 Y21.050 Z-3.000 F70.00
G1 X106.566 Y21.050 Z-3.000 F70.00
G1 X110.950 Y25.434 Z-3.000 F70.00
G1 X110.950 Y21.050 Z-3.000 F70.00
G1 X110.950 Y21.050 Z-4.000 F40.00
G1 X110.950 Y25.434 Z-4.000 F70.00
G1 X106.566 Y21.050 Z-4.000 F70.00
G1 X104.050 Y21.050 Z-4.000 F70.00
G1 X104.050 Y22.918 Z-4.000 F70.00
G1 X110.950 Y29.818 Z-4.000 F70.00
G1 X110.950 Y29.950 Z-4.000 F70.00
G1 X106.698 Y29.950 Z-4.000 F70.00
G1 X104.050 Y27.302 Z-4.000 F70.00
G1 X104.050 Y29.950 Z-4.000 F70.00
G1 X106.698 Y29.950 Z-4.000 F70.00
G0 X106.698 Y29.950 Z3.000
G0 X106.698 Y29.950 Z3.000
G0 X106.698 Y29.950 Z-1.000
G1 X106.698 Y29.950 Z-4.000 F40.00
G1 X110.950 Y29.950 Z-4.000 F70.00
G1 X110.950 Y21.050 Z-4.000 F70.00
G1 X104.050 Y21.050 Z-4.000 F70.00
G1 X104.050 Y29.950 Z-4.000 F70.00
G1 X106.698 Y29.950 Z-4.000 F70.00
G0 Z3.000
(finish operation: Pocket_Shape)
(begin operation: TagDressup003)
(Path: TagDressup003)
G0 Z3.000
G0 X123.096 Y77.096 Z3.000
G1 X123.096 Y77.096 Z-1.000 F40.00
G2 X123.550 Y76.000 Z-1.000 I-1.096 J-1.096 K0.000 F70.00
G1 X123.550 Y0.000 Z-1.000 F70.00
G2 X122.000 Y-1.550 Z-1.000 I-1.550 J-0.000 K0.000 F70.00
G1 X0.000 Y-1.550 Z-1.000 F70.00
G2 X-1.550 Y-0.000 Z-1.000 I-0.000 J1.550 K0.000 F70.00
G1 X-1.550 Y76.000 Z-1.000 F70.00
G2 X0.000 Y77.550 Z-1.000 I1.550 J0.000 K0.000 F70.00
G1 X122.000 Y77.550 Z-1.000 F70.00
G2 X123.096 Y77.096 Z-1.000 I0.000 J-1.550 K0.000 F70.00
G1 X123.096 Y77.096 Z-2.000 F40.00
G2 X123.550 Y76.000 Z-2.000 I-1.096 J-1.096 K0.000 F70.00
G1 X123.550 Y0.000 Z-2.000 F70.00
G2 X122.000 Y-1.550 Z-2.000 I-1.550 J-0.000 K0.000 F70.00
G1 X94.025 Y-1.550 Z-2.000 F70.00
G1 X93.525 Y-1.550 Z-1.500 F55.00
G1 X89.475 Y-1.550 Z-1.500 F70.00
G1 X88.975 Y-1.550 Z-2.000 F55.00
G1 X33.025 Y-1.550 Z-2.000 F70.00
G1 X32.525 Y-1.550 Z-1.500 F55.00
G1 X28.475 Y-1.550 Z-1.500 F70.00
G1 X27.975 Y-1.550 Z-2.000 F55.00
G1 X0.000 Y-1.550 Z-2.000 F70.00
G2 X-1.550 Y-0.000 Z-2.000 I-0.000 J1.550 K0.000 F70.00
G1 X-1.550 Y76.000 Z-2.000 F70.00
G2 X0.000 Y77.550 Z-2.000 I1.550 J0.000 K0.000 F70.00
G1 X27.975 Y77.550 Z-2.000 F70.00
G1 X28.475 Y77.550 Z-1.500 F55.00
G1 X32.525 Y77.550 Z-1.500 F70.00
G1 X33.025 Y77.550 Z-2.000 F55.00
G1 X88.975 Y77.550 Z-2.000 F70.00
G1 X89.475 Y77.550 Z-1.500 F55.00
G1 X93.525 Y77.550 Z-1.500 F70.00
G1 X94.025 Y77.550 Z-2.000 F55.00
G1 X122.000 Y77.550 Z-2.000 F70.00
G2 X123.096 Y77.096 Z-2.000 I0.000 J-1.550 K0.000 F70.00
G1 X123.096 Y77.096 Z-3.000 F40.00
G2 X123.550 Y76.000 Z-3.000 I-1.096 J-1.096 K0.000 F70.00
G1 X123.550 Y0.000 Z-3.000 F70.00
G2 X122.000 Y-1.550 Z-3.000 I-1.550 J-0.000 K0.000 F70.00
G1 X95.025 Y-1.550 Z-3.000 F70.00
G1 X93.525 Y-1.550 Z-1.500 F55.00
G1 X89.475 Y-1.550 Z-1.500 F70.00
G1 X87.975 Y-1.550 Z-3.000 F55.00
G1 X34.025 Y-1.550 Z-3.000 F70.00
G1 X32.525 Y-1.550 Z-1.500 F55.00
G1 X28.475 Y-1.550 Z-1.500 F70.00
G1 X26.975 Y-1.550 Z-3.000 F55.00
G1 X0.000 Y-1.550 Z-3.000 F70.00
G2 X-1.550 Y-0.000 Z-3.000 I-0.000 J1.550 K0.000 F70.00
G1 X-1.550 Y76.000 Z-3.000 F70.00
G2 X0.000 Y77.550 Z-3.000 I1.550 J0.000 K0.000 F70.00
G1 X26.975 Y77.550 Z-3.000 F70.00
G1 X28.475 Y77.550 Z-1.500 F55.00
G1 X32.525 Y77.550 Z-1.500 F70.00
G1 X34.025 Y77.550 Z-3.000 F55.00
G1 X87.975 Y77.550 Z-3.000 F70.00
G1 X89.475 Y77.550 Z-1.500 F55.00
G1 X93.525 Y77.550 Z-1.500 F70.00
G1 X95.025 Y77.550 Z-3.000 F55.00
G1 X122.000 Y77.550 Z-3.000 F70.00
G2 X123.096 Y77.096 Z-3.000 I0.000 J-1.550 K0.000 F70.00
G1 X123.096 Y77.096 Z-4.000 F40.00
G2 X123.550 Y76.000 Z-4.000 I-1.096 J-1.096 K0.000 F70.00
G1 X123.550 Y0.000 Z-4.000 F70.00
G2 X122.000 Y-1.550 Z-4.000 I-1.550 J-0.000 K0.000 F70.00
G1 X96.025 Y-1.550 Z-4.000 F70.00
G1 X93.525 Y-1.550 Z-1.500 F55.00
G1 X89.475 Y-1.550 Z-1.500 F70.00
G1 X86.975 Y-1.550 Z-4.000 F55.00
G1 X35.025 Y-1.550 Z-4.000 F70.00
G1 X32.525 Y-1.550 Z-1.500 F55.00
G1 X28.475 Y-1.550 Z-1.500 F70.00
G1 X25.975 Y-1.550 Z-4.000 F55.00
G1 X0.000 Y-1.550 Z-4.000 F70.00
G2 X-1.550 Y-0.000 Z-4.000 I-0.000 J1.550 K0.000 F70.00
G1 X-1.550 Y76.000 Z-4.000 F70.00
G2 X0.000 Y77.550 Z-4.000 I1.550 J0.000 K0.000 F70.00
G1 X25.975 Y77.550 Z-4.000 F70.00
G1 X28.475 Y77.550 Z-1.500 F55.00
G1 X32.525 Y77.550 Z-1.500 F70.00
G1 X35.025 Y77.550 Z-4.000 F55.00
G1 X86.975 Y77.550 Z-4.000 F70.00
G1 X89.475 Y77.550 Z-1.500 F55.00
G1 X93.525 Y77.550 Z-1.500 F70.00
G1 X96.025 Y77.550 Z-4.000 F55.00
G1 X122.000 Y77.550 Z-4.000 F70.00
G2 X123.096 Y77.096 Z-4.000 I0.000 J-1.550 K0.000 F70.00
G0 X123.096 Y77.096 Z3.000
(finish operation: TagDressup003)
(begin postamble)
M5
G17 G90
M2
