(Exported by FreeCAD)
(Post Processor: grbl_post)
(Output Time:2022-04-17 16:11:02.639244)
(begin preamble)
G17 G90
G21
(begin operation: T1: 3,1mm 17mm 2 flute)
(Path: T1: 3,1mm 17mm 2 flute)
(T1: 3,1mm 17mm 2 flute)
(begin toolchange)
; M6 T1
M3 S10000.0000
(finish operation: T1: 3,1mm 17mm 2 flute)
(begin operation: Helix)
(Path: Helix)
(Helix)
(helix cut operation)
G0 Z5.0000
G0 X112.0500 Y15.0000
G0 Z3.0000
G1 Z0.0000 F40.00
G2 X107.9500 Y15.0000 Z-0.5000 I-2.0500 J0.0000 F70.20
G2 X112.0500 Y15.0000 Z-1.0000 I2.0500 J0.0000 F70.20
G2 X107.9500 Y15.0000 Z-1.5000 I-2.0500 J0.0000 F70.20
G2 X112.0500 Y15.0000 Z-2.0000 I2.0500 J0.0000 F70.20
G2 X107.9500 Y15.0000 Z-2.5000 I-2.0500 J0.0000 F70.20
G2 X112.0500 Y15.0000 Z-3.0000 I2.0500 J0.0000 F70.20
G2 X107.9500 Y15.0000 Z-3.5000 I-2.0500 J0.0000 F70.20
G2 X112.0500 Y15.0000 Z-4.0000 I2.0500 J0.0000 F70.20
G2 X107.9500 Y15.0000 Z-4.0000 I-2.0500 J0.0000 F70.20
G2 X112.0500 Y15.0000 Z-4.0000 I2.0500 J0.0000 F70.20
G0 Z3.0000
G0 Z5.0000
(finish operation: Helix)
(begin operation: TagDressup001)
(Path: TagDressup001)
G0 Z5.0000
G0 X99.9500 Y63.4500 Z5.0000
G0 X99.9500 Y63.4500 Z3.0000
G1 X99.9500 Y63.4500 Z-1.0000 F40.00
G1 X99.9500 Y41.5500 Z-1.0000 F70.20
G1 X31.5500 Y41.5500 Z-1.0000 F70.20
G1 X31.5500 Y63.4500 Z-1.0000 F70.20
G1 X99.9500 Y63.4500 Z-1.0000 F70.20
G1 X99.9500 Y63.4500 Z-2.0000 F40.00
G1 X99.9500 Y41.5500 Z-2.0000 F70.20
G1 X31.5500 Y41.5500 Z-2.0000 F70.20
G1 X31.5500 Y63.4500 Z-2.0000 F70.20
G1 X99.9500 Y63.4500 Z-2.0000 F70.20
G1 X99.9500 Y63.4500 Z-3.0000 F40.00
G1 X99.9500 Y41.5500 Z-3.0000 F70.20
G1 X86.3850 Y41.5500 Z-3.0000 F70.20
G1 X85.8850 Y41.5500 Z-2.5000 F55.10
G1 X79.8150 Y41.5500 Z-2.5000 F70.20
G1 X79.3150 Y41.5500 Z-3.0000 F55.10
G1 X52.1850 Y41.5500 Z-3.0000 F70.20
G1 X51.6850 Y41.5500 Z-2.5000 F55.10
G1 X45.6150 Y41.5500 Z-2.5000 F70.20
G1 X45.1150 Y41.5500 Z-3.0000 F55.10
G1 X31.5500 Y41.5500 Z-3.0000 F70.20
G1 X31.5500 Y63.4500 Z-3.0000 F70.20
G1 X45.1150 Y63.4500 Z-3.0000 F70.20
G1 X45.6150 Y63.4500 Z-2.5000 F55.10
G1 X51.6850 Y63.4500 Z-2.5000 F70.20
G1 X52.1850 Y63.4500 Z-3.0000 F55.10
G1 X79.3150 Y63.4500 Z-3.0000 F70.20
G1 X79.8150 Y63.4500 Z-2.5000 F55.10
G1 X85.8850 Y63.4500 Z-2.5000 F70.20
G1 X86.3850 Y63.4500 Z-3.0000 F55.10
G1 X99.9500 Y63.4500 Z-3.0000 F70.20
G1 X99.9500 Y63.4500 Z-4.0000 F40.00
G1 X99.9500 Y41.5500 Z-4.0000 F70.20
G1 X87.3850 Y41.5500 Z-4.0000 F70.20
G1 X85.8850 Y41.5500 Z-2.5000 F55.10
G1 X79.8150 Y41.5500 Z-2.5000 F70.20
G1 X78.3150 Y41.5500 Z-4.0000 F55.10
G1 X53.1850 Y41.5500 Z-4.0000 F70.20
G1 X51.6850 Y41.5500 Z-2.5000 F55.10
G1 X45.6150 Y41.5500 Z-2.5000 F70.20
G1 X44.1150 Y41.5500 Z-4.0000 F55.10
G1 X31.5500 Y41.5500 Z-4.0000 F70.20
G1 X31.5500 Y63.4500 Z-4.0000 F70.20
G1 X44.1150 Y63.4500 Z-4.0000 F70.20
G1 X45.6150 Y63.4500 Z-2.5000 F55.10
G1 X51.6850 Y63.4500 Z-2.5000 F70.20
G1 X53.1850 Y63.4500 Z-4.0000 F55.10
G1 X78.3150 Y63.4500 Z-4.0000 F70.20
G1 X79.8150 Y63.4500 Z-2.5000 F55.10
G1 X85.8850 Y63.4500 Z-2.5000 F70.20
G1 X87.3850 Y63.4500 Z-4.0000 F55.10
G1 X99.9500 Y63.4500 Z-4.0000 F70.20
G0 X99.9500 Y63.4500 Z5.0000
(finish operation: TagDressup001)
(begin operation: TagDressup)
(Path: TagDressup)
G0 Z5.0000
G0 X131.0960 Y77.0960 Z5.0000
G0 X131.0960 Y77.0960 Z3.0000
G1 X131.0960 Y77.0960 Z-1.0000 F40.00
G2 X131.5500 Y76.0000 Z-1.0000 I-1.0960 J-1.0960 F70.20
G1 X131.5500 Y0.0000 Z-1.0000 F70.20
G2 X130.0000 Y-1.5500 Z-1.0000 I-1.5500 J-0.0000 F70.20
G1 X0.0000 Y-1.5500 Z-1.0000 F70.20
G2 X-1.5500 Y-0.0000 Z-1.0000 I-0.0000 J1.5500 F70.20
G1 X-1.5500 Y76.0000 Z-1.0000 F70.20
G2 X0.0000 Y77.5500 Z-1.0000 I1.5500 J0.0000 F70.20
G1 X130.0000 Y77.5500 Z-1.0000 F70.20
G2 X131.0960 Y77.0960 Z-1.0000 I0.0000 J-1.5500 F70.20
G1 X131.0960 Y77.0960 Z-2.0000 F40.00
G2 X131.5500 Y76.0000 Z-2.0000 I-1.0960 J-1.0960 F70.20
G1 X131.5500 Y0.0000 Z-2.0000 F70.20
G2 X130.0000 Y-1.5500 Z-2.0000 I-1.5500 J-0.0000 F70.20
G1 X0.0000 Y-1.5500 Z-2.0000 F70.20
G2 X-1.5500 Y-0.0000 Z-2.0000 I-0.0000 J1.5500 F70.20
G1 X-1.5500 Y76.0000 Z-2.0000 F70.20
G2 X0.0000 Y77.5500 Z-2.0000 I1.5500 J0.0000 F70.20
G1 X130.0000 Y77.5500 Z-2.0000 F70.20
G2 X131.0960 Y77.0960 Z-2.0000 I0.0000 J-1.5500 F70.20
G1 X131.0960 Y77.0960 Z-3.0000 F40.00
G2 X131.5500 Y76.0000 Z-3.0000 I-1.0960 J-1.0960 F70.20
G1 X131.5500 Y0.0000 Z-3.0000 F70.20
G2 X130.0000 Y-1.5500 Z-3.0000 I-1.5500 J-0.0000 F70.20
G1 X0.0000 Y-1.5500 Z-3.0000 F70.20
G2 X-1.5500 Y-0.0000 Z-3.0000 I-0.0000 J1.5500 F70.20
G1 X-1.5500 Y76.0000 Z-3.0000 F70.20
G2 X0.0000 Y77.5500 Z-3.0000 I1.5500 J0.0000 F70.20
G1 X130.0000 Y77.5500 Z-3.0000 F70.20
G2 X131.0960 Y77.0960 Z-3.0000 I0.0000 J-1.5500 F70.20
G1 X131.0960 Y77.0960 Z-4.0000 F40.00
G2 X131.5500 Y76.0000 Z-4.0000 I-1.0960 J-1.0960 F70.20
G1 X131.5500 Y0.0000 Z-4.0000 F70.20
G2 X130.0000 Y-1.5500 Z-4.0000 I-1.5500 J-0.0000 F70.20
G1 X102.0400 Y-1.5500 Z-4.0000 F70.20
G1 X101.0400 Y-1.5500 Z-3.0000 F55.10
G1 X93.9600 Y-1.5500 Z-3.0000 F70.20
G1 X92.9600 Y-1.5500 Z-4.0000 F55.10
G1 X37.0400 Y-1.5500 Z-4.0000 F70.20
G1 X36.0400 Y-1.5500 Z-3.0000 F55.10
G1 X28.9600 Y-1.5500 Z-3.0000 F70.20
G1 X27.9600 Y-1.5500 Z-4.0000 F55.10
G1 X0.0000 Y-1.5500 Z-4.0000 F70.20
G2 X-1.5500 Y-0.0000 Z-4.0000 I-0.0000 J1.5500 F70.20
G1 X-1.5500 Y76.0000 Z-4.0000 F70.20
G2 X0.0000 Y77.5500 Z-4.0000 I1.5500 J0.0000 F70.20
G1 X27.9600 Y77.5500 Z-4.0000 F70.20
G1 X28.9600 Y77.5500 Z-3.0000 F55.10
G1 X36.0400 Y77.5500 Z-3.0000 F70.20
G1 X37.0400 Y77.5500 Z-4.0000 F55.10
G1 X92.9600 Y77.5500 Z-4.0000 F70.20
G1 X93.9600 Y77.5500 Z-3.0000 F55.10
G1 X101.0400 Y77.5500 Z-3.0000 F70.20
G1 X102.0400 Y77.5500 Z-4.0000 F55.10
G1 X130.0000 Y77.5500 Z-4.0000 F70.20
G2 X131.0960 Y77.0960 Z-4.0000 I0.0000 J-1.5500 F70.20
G0 X131.0960 Y77.0960 Z5.0000
(finish operation: TagDressup)
(begin postamble)
M5
G17 G90
; M2
