(Exported by FreeCAD)
(Post Processor: grbl_G81_post)
(Output Time:2022-04-17 19:09:28.920959)
(begin preamble)
G17 G90
G21
(begin operation: T1: 3,1mm 17mm 2 flute001)
(Path: T1: 3,1mm 17mm 2 flute001)
(T1: 3,1mm 17mm 2 flute001)
(begin toolchange)
(M6 T1.0)
M3 S1000.000
(finish operation: T1: 3,1mm 17mm 2 flute001)
(begin operation: MillFace)
(Path: MillFace)
(MillFace)
G0 Z3.000
G0 X69.056 Y57.056
G1 X69.056 Y57.056 Z-0.800 F40.00
G2 X50.000 Y11.051 Z-0.800 I-19.056 J-19.056 K0.000 F70.00
G2 X23.051 Y38.000 Z-0.800 I0.000 J26.949 K0.000 F70.00
G2 X50.000 Y64.949 Z-0.800 I26.949 J-0.000 K0.000 F70.00
G2 X69.056 Y57.056 Z-0.800 I-0.000 J-26.949 K0.000 F70.00
G0 X69.056 Y57.056 Z3.000
G0 X69.056 Y18.944 Z3.000
G0 X69.056 Y18.944 Z2.200
G1 X69.056 Y18.944 Z-0.800 F40.00
G3 X74.310 Y26.390 Z-0.800 I-18.735 J18.796 K0.000 F70.00
G1 X61.610 Y13.690 Z-0.800 F70.00
G2 X58.001 Y12.273 Z-0.800 I-10.619 J21.739 K0.000 F70.00
G1 X75.727 Y29.999 Z-0.800 F70.00
G3 X76.458 Y32.922 Z-0.800 I-19.097 J6.326 K0.000 F70.00
G1 X55.078 Y11.542 Z-0.800 F70.00
G2 X52.519 Y11.175 Z-0.800 I-3.812 J17.454 K0.000 F70.00
G1 X76.825 Y35.481 Z-0.800 F70.00
G3 X76.944 Y37.792 Z-0.800 I-21.986 J2.288 K0.000 F70.00
G1 X50.208 Y11.056 Z-0.800 F70.00
G2 X48.087 Y11.127 Z-0.800 I-0.460 J17.962 K0.000 F70.00
G1 X76.873 Y39.913 Z-0.800 F70.00
G3 X76.660 Y41.892 Z-0.800 I-18.990 J-1.040 K0.000 F70.00
G1 X46.108 Y11.340 Z-0.800 F70.00
G2 X44.251 Y11.675 Z-0.800 I1.760 J15.078 K0.000 F70.00
G1 X76.325 Y43.749 Z-0.800 F70.00
G3 X75.878 Y45.494 Z-0.800 I-16.864 J-3.401 K0.000 F70.00
G1 X42.506 Y12.122 Z-0.800 F70.00
G2 X40.852 Y12.660 Z-0.800 I4.301 J16.053 K0.000 F70.00
G1 X75.340 Y47.148 Z-0.800 F70.00
G3 X74.720 Y48.720 Z-0.800 I-15.305 J-5.133 K0.000 F70.00
G1 X39.280 Y13.280 Z-0.800 F70.00
G2 X37.786 Y13.978 Z-0.800 I5.909 J14.606 K0.000 F70.00
G1 X74.022 Y50.214 Z-0.800 F70.00
G3 X73.245 Y51.629 Z-0.800 I-13.672 J-6.593 K0.000 F70.00
G1 X36.371 Y14.755 Z-0.800 F70.00
G2 X35.026 Y15.602 Z-0.800 I7.404 J13.260 K0.000 F70.00
G1 X72.398 Y52.974 Z-0.800 F70.00
G3 X71.486 Y54.254 Z-0.800 I-12.664 J-8.066 K0.000 F70.00
G1 X33.746 Y16.514 Z-0.800 F70.00
G2 X32.531 Y17.491 Z-0.800 I8.711 J12.083 K0.000 F70.00
G1 X70.509 Y55.469 Z-0.800 F70.00
G3 X69.469 Y56.621 Z-0.800 I-11.512 J-9.345 K0.000 F70.00
G1 X31.379 Y18.531 Z-0.800 F70.00
G2 X30.289 Y19.634 Z-0.800 I9.974 J10.946 K0.000 F70.00
G1 X68.366 Y57.711 Z-0.800 F70.00
G3 X67.201 Y58.738 Z-0.800 I-10.379 J-10.603 K0.000 F70.00
G1 X29.262 Y20.799 Z-0.800 F70.00
G2 X28.299 Y22.027 Z-0.800 I11.238 J9.807 K0.000 F70.00
G1 X65.973 Y59.701 Z-0.800 F70.00
G3 X64.680 Y60.600 Z-0.800 I-9.225 J-11.885 K0.000 F70.00
G1 X27.400 Y23.320 Z-0.800 F70.00
G2 X26.574 Y24.686 Z-0.800 I12.595 J8.549 K0.000 F70.00
G1 X63.314 Y61.426 Z-0.800 F70.00
G3 X61.878 Y62.182 Z-0.800 I-7.932 J-13.322 K0.000 F70.00
G1 X25.818 Y26.122 Z-0.800 F70.00
G2 X25.135 Y27.631 Z-0.800 I14.058 J7.268 K0.000 F70.00
G1 X60.369 Y62.865 Z-0.800 F70.00
G3 X58.781 Y63.470 Z-0.800 I-6.564 J-14.841 K0.000 F70.00
G1 X24.530 Y29.219 Z-0.800 F70.00
G2 X24.009 Y30.889 Z-0.800 I15.680 J5.808 K0.000 F70.00
G1 X57.111 Y63.991 Z-0.800 F70.00
G3 X55.337 Y64.410 Z-0.800 I-4.548 J-15.294 K0.000 F70.00
G1 X23.590 Y32.663 Z-0.800 F70.00
G2 X23.282 Y34.547 Z-0.800 I17.819 J3.882 K0.000 F70.00
G1 X53.453 Y64.718 Z-0.800 F70.00
G3 X51.453 Y64.909 Z-0.800 I-2.824 J-18.994 K0.000 F70.00
G1 X23.091 Y36.547 Z-0.800 F70.00
G2 X23.069 Y38.718 Z-0.800 I20.111 J1.284 K0.000 F70.00
G1 X49.282 Y64.931 Z-0.800 F70.00
G3 X46.928 Y64.768 Z-0.800 I-0.012 J-16.968 K0.000 F70.00
G1 X23.232 Y41.072 Z-0.800 F70.00
G2 X23.661 Y43.694 Z-0.800 I17.449 J-1.513 K0.000 F70.00
G1 X44.306 Y64.339 Z-0.800 F70.00
G3 X41.260 Y63.484 Z-0.800 I3.968 J-20.006 K0.000 F70.00
G1 X24.516 Y46.740 Z-0.800 F70.00
G2 X26.190 Y50.606 Z-0.800 I23.310 J-7.798 K0.000 F70.00
G2 X37.394 Y61.810 Z-0.800 I23.687 J-12.483 K0.000 F70.00
G1 X26.190 Y50.606 Z-0.800 F70.00
G0 Z3.000
(finish operation: MillFace)
(begin operation: Drilling)
(Path: Drilling)
(Drilling)
(Begin Drilling)
G0 Z3.000
G90
(G98)
(G82 X28.891 Y21.166 Z-4.000 F40.00 R2.000 P0.500)
G0 X28.891 Y21.166
G1 Z-4.000 F40.00
G4 P0.5
G0 Z3.000
(G82 X30.525 Y25.763 Z-4.000 F40.00 R2.000 P0.500)
G0 X30.525 Y25.763
G1 Z-4.000 F40.00
G4 P0.5
G0 Z3.000
(G82 X25.674 Y26.285 Z-4.000 F40.00 R2.000 P0.500)
G0 X25.674 Y26.285
G1 Z-4.000 F40.00
G4 P0.5
G0 Z3.000
(G82 X28.291 Y30.404 Z-4.000 F40.00 R2.000 P0.500)
G0 X28.291 Y30.404
G1 Z-4.000 F40.00
G4 P0.5
G0 Z3.000
(G82 X23.677 Y31.992 Z-4.000 F40.00 R2.000 P0.500)
G0 X23.677 Y31.992
G1 Z-4.000 F40.00
G4 P0.5
G0 Z3.000
(G82 X27.145 Y35.425 Z-4.000 F40.00 R2.000 P0.500)
G0 X27.145 Y35.425
G1 Z-4.000 F40.00
G4 P0.5
G0 Z3.000
(G82 X23.000 Y38.000 Z-4.000 F40.00 R2.000 P0.500)
G0 X23.000 Y38.000
G1 Z-4.000 F40.00
G4 P0.5
G0 Z3.000
(G82 X27.145 Y40.575 Z-4.000 F40.00 R2.000 P0.500)
G0 X27.145 Y40.575
G1 Z-4.000 F40.00
G4 P0.5
G0 Z3.000
(G82 X23.677 Y44.008 Z-4.000 F40.00 R2.000 P0.500)
G0 X23.677 Y44.008
G1 Z-4.000 F40.00
G4 P0.5
G0 Z3.000
(G82 X28.291 Y45.596 Z-4.000 F40.00 R2.000 P0.500)
G0 X28.291 Y45.596
G1 Z-4.000 F40.00
G4 P0.5
G0 Z3.000
(G82 X25.674 Y49.715 Z-4.000 F40.00 R2.000 P0.500)
G0 X25.674 Y49.715
G1 Z-4.000 F40.00
G4 P0.5
G0 Z3.000
(G82 X30.525 Y50.237 Z-4.000 F40.00 R2.000 P0.500)
G0 X30.525 Y50.237
G1 Z-4.000 F40.00
G4 P0.5
G0 Z3.000
(G82 X28.891 Y54.834 Z-4.000 F40.00 R2.000 P0.500)
G0 X28.891 Y54.834
G1 Z-4.000 F40.00
G4 P0.5
G0 Z3.000
(G82 X33.737 Y54.263 Z-4.000 F40.00 R2.000 P0.500)
G0 X33.737 Y54.263
G1 Z-4.000 F40.00
G4 P0.5
G0 Z3.000
(G82 X35.145 Y49.846 Z-4.000 F40.00 R2.000 P0.500)
G0 X35.145 Y49.846
G1 Z-4.000 F40.00
G4 P0.5
G0 Z3.000
(G82 X36.035 Y44.725 Z-4.000 F40.00 R2.000 P0.500)
G0 X36.035 Y44.725
G1 Z-4.000 F40.00
G4 P0.5
G0 Z3.000
(G82 X31.476 Y42.228 Z-4.000 F40.00 R2.000 P0.500)
G0 X31.476 Y42.228
G1 Z-4.000 F40.00
G4 P0.5
G0 Z3.000
(G82 X34.500 Y38.000 Z-4.000 F40.00 R2.000 P0.500)
G0 X34.500 Y38.000
G1 Z-4.000 F40.00
G4 P0.5
G0 Z3.000
(G82 X31.476 Y33.772 Z-4.000 F40.00 R2.000 P0.500)
G0 X31.476 Y33.772
G1 Z-4.000 F40.00
G4 P0.5
G0 Z3.000
(G82 X36.035 Y31.275 Z-4.000 F40.00 R2.000 P0.500)
G0 X36.035 Y31.275
G1 Z-4.000 F40.00
G4 P0.5
G0 Z3.000
(G82 X38.301 Y35.330 Z-4.000 F40.00 R2.000 P0.500)
G0 X38.301 Y35.330
G1 Z-4.000 F40.00
G4 P0.5
G0 Z3.000
(G82 X42.688 Y39.669 Z-4.000 F40.00 R2.000 P0.500)
G0 X42.688 Y39.669
G1 Z-4.000 F40.00
G4 P0.5
G0 Z3.000
(G82 X40.618 Y45.482 Z-4.000 F40.00 R2.000 P0.500)
G0 X40.618 Y45.482
G1 Z-4.000 F40.00
G4 P0.5
G0 Z3.000
(G82 X40.336 Y50.118 Z-4.000 F40.00 R2.000 P0.500)
G0 X40.336 Y50.118
G1 Z-4.000 F40.00
G4 P0.5
G0 Z3.000
(G82 X41.756 Y55.118 Z-4.000 F40.00 R2.000 P0.500)
G0 X41.756 Y55.118
G1 Z-4.000 F40.00
G4 P0.5
G0 Z3.000
(G82 X37.763 Y57.475 Z-4.000 F40.00 R2.000 P0.500)
G0 X37.763 Y57.475
G1 Z-4.000 F40.00
G4 P0.5
G0 Z3.000
(G82 X33.166 Y59.109 Z-4.000 F40.00 R2.000 P0.500)
G0 X33.166 Y59.109
G1 Z-4.000 F40.00
G4 P0.5
G0 Z3.000
(G82 X38.285 Y62.326 Z-4.000 F40.00 R2.000 P0.500)
G0 X38.285 Y62.326
G1 Z-4.000 F40.00
G4 P0.5
G0 Z3.000
(G82 X42.404 Y59.709 Z-4.000 F40.00 R2.000 P0.500)
G0 X42.404 Y59.709
G1 Z-4.000 F40.00
G4 P0.5
G0 Z3.000
(G82 X43.992 Y64.323 Z-4.000 F40.00 R2.000 P0.500)
G0 X43.992 Y64.323
G1 Z-4.000 F40.00
G4 P0.5
G0 Z3.000
(G82 X47.425 Y60.855 Z-4.000 F40.00 R2.000 P0.500)
G0 X47.425 Y60.855
G1 Z-4.000 F40.00
G4 P0.5
G0 Z3.000
(G82 X50.000 Y57.000 Z-4.000 F40.00 R2.000 P0.500)
G0 X50.000 Y57.000
G1 Z-4.000 F40.00
G4 P0.5
G0 Z3.000
(G82 X46.551 Y53.111 Z-4.000 F40.00 R2.000 P0.500)
G0 X46.551 Y53.111
G1 Z-4.000 F40.00
G4 P0.5
G0 Z3.000
(G82 X50.000 Y50.000 Z-4.000 F40.00 R2.000 P0.500)
G0 X50.000 Y50.000
G1 Z-4.000 F40.00
G4 P0.5
G0 Z3.000
(G82 X53.449 Y53.111 Z-4.000 F40.00 R2.000 P0.500)
G0 X53.449 Y53.111
G1 Z-4.000 F40.00
G4 P0.5
G0 Z3.000
(G82 X58.244 Y55.118 Z-4.000 F40.00 R2.000 P0.500)
G0 X58.244 Y55.118
G1 Z-4.000 F40.00
G4 P0.5
G0 Z3.000
(G82 X57.596 Y59.709 Z-4.000 F40.00 R2.000 P0.500)
G0 X57.596 Y59.709
G1 Z-4.000 F40.00
G4 P0.5
G0 Z3.000
(G82 X52.575 Y60.855 Z-4.000 F40.00 R2.000 P0.500)
G0 X52.575 Y60.855
G1 Z-4.000 F40.00
G4 P0.5
G0 Z3.000
(G82 X50.000 Y65.000 Z-4.000 F40.00 R2.000 P0.500)
G0 X50.000 Y65.000
G1 Z-4.000 F40.00
G4 P0.5
G0 Z3.000
(G82 X56.008 Y64.323 Z-4.000 F40.00 R2.000 P0.500)
G0 X56.008 Y64.323
G1 Z-4.000 F40.00
G4 P0.5
G0 Z3.000
(G82 X61.715 Y62.326 Z-4.000 F40.00 R2.000 P0.500)
G0 X61.715 Y62.326
G1 Z-4.000 F40.00
G4 P0.5
G0 Z3.000
(G82 X62.237 Y57.475 Z-4.000 F40.00 R2.000 P0.500)
G0 X62.237 Y57.475
G1 Z-4.000 F40.00
G4 P0.5
G0 Z3.000
(G82 X66.834 Y59.109 Z-4.000 F40.00 R2.000 P0.500)
G0 X66.834 Y59.109
G1 Z-4.000 F40.00
G4 P0.5
G0 Z3.000
(G82 X66.263 Y54.263 Z-4.000 F40.00 R2.000 P0.500)
G0 X66.263 Y54.263
G1 Z-4.000 F40.00
G4 P0.5
G0 Z3.000
(G82 X64.855 Y49.846 Z-4.000 F40.00 R2.000 P0.500)
G0 X64.855 Y49.846
G1 Z-4.000 F40.00
G4 P0.5
G0 Z3.000
(G82 X59.664 Y50.118 Z-4.000 F40.00 R2.000 P0.500)
G0 X59.664 Y50.118
G1 Z-4.000 F40.00
G4 P0.5
G0 Z3.000
(G82 X59.382 Y45.482 Z-4.000 F40.00 R2.000 P0.500)
G0 X59.382 Y45.482
G1 Z-4.000 F40.00
G4 P0.5
G0 Z3.000
(G82 X63.965 Y44.725 Z-4.000 F40.00 R2.000 P0.500)
G0 X63.965 Y44.725
G1 Z-4.000 F40.00
G4 P0.5
G0 Z3.000
(G82 X68.524 Y42.228 Z-4.000 F40.00 R2.000 P0.500)
G0 X68.524 Y42.228
G1 Z-4.000 F40.00
G4 P0.5
G0 Z3.000
(G82 X65.500 Y38.000 Z-4.000 F40.00 R2.000 P0.500)
G0 X65.500 Y38.000
G1 Z-4.000 F40.00
G4 P0.5
G0 Z3.000
(G82 X61.699 Y35.330 Z-4.000 F40.00 R2.000 P0.500)
G0 X61.699 Y35.330
G1 Z-4.000 F40.00
G4 P0.5
G0 Z3.000
(G82 X63.965 Y31.275 Z-4.000 F40.00 R2.000 P0.500)
G0 X63.965 Y31.275
G1 Z-4.000 F40.00
G4 P0.5
G0 Z3.000
(G82 X64.855 Y26.154 Z-4.000 F40.00 R2.000 P0.500)
G0 X64.855 Y26.154
G1 Z-4.000 F40.00
G4 P0.5
G0 Z3.000
(G82 X59.664 Y25.882 Z-4.000 F40.00 R2.000 P0.500)
G0 X59.664 Y25.882
G1 Z-4.000 F40.00
G4 P0.5
G0 Z3.000
(G82 X55.207 Y27.188 Z-4.000 F40.00 R2.000 P0.500)
G0 X55.207 Y27.188
G1 Z-4.000 F40.00
G4 P0.5
G0 Z3.000
(G82 X53.449 Y22.889 Z-4.000 F40.00 R2.000 P0.500)
G0 X53.449 Y22.889
G1 Z-4.000 F40.00
G4 P0.5
G0 Z3.000
(G82 X50.000 Y19.000 Z-4.000 F40.00 R2.000 P0.500)
G0 X50.000 Y19.000
G1 Z-4.000 F40.00
G4 P0.5
G0 Z3.000
(G82 X47.425 Y15.145 Z-4.000 F40.00 R2.000 P0.500)
G0 X47.425 Y15.145
G1 Z-4.000 F40.00
G4 P0.5
G0 Z3.000
(G82 X43.992 Y11.677 Z-4.000 F40.00 R2.000 P0.500)
G0 X43.992 Y11.677
G1 Z-4.000 F40.00
G4 P0.5
G0 Z3.000
(G82 X42.404 Y16.291 Z-4.000 F40.00 R2.000 P0.500)
G0 X42.404 Y16.291
G1 Z-4.000 F40.00
G4 P0.5
G0 Z3.000
(G82 X38.285 Y13.674 Z-4.000 F40.00 R2.000 P0.500)
G0 X38.285 Y13.674
G1 Z-4.000 F40.00
G4 P0.5
G0 Z3.000
(G82 X37.763 Y18.525 Z-4.000 F40.00 R2.000 P0.500)
G0 X37.763 Y18.525
G1 Z-4.000 F40.00
G4 P0.5
G0 Z3.000
(G82 X33.166 Y16.891 Z-4.000 F40.00 R2.000 P0.500)
G0 X33.166 Y16.891
G1 Z-4.000 F40.00
G4 P0.5
G0 Z3.000
(G82 X33.737 Y21.737 Z-4.000 F40.00 R2.000 P0.500)
G0 X33.737 Y21.737
G1 Z-4.000 F40.00
G4 P0.5
G0 Z3.000
(G82 X35.145 Y26.154 Z-4.000 F40.00 R2.000 P0.500)
G0 X35.145 Y26.154
G1 Z-4.000 F40.00
G4 P0.5
G0 Z3.000
(G82 X40.336 Y25.882 Z-4.000 F40.00 R2.000 P0.500)
G0 X40.336 Y25.882
G1 Z-4.000 F40.00
G4 P0.5
G0 Z3.000
(G82 X44.793 Y27.188 Z-4.000 F40.00 R2.000 P0.500)
G0 X44.793 Y27.188
G1 Z-4.000 F40.00
G4 P0.5
G0 Z3.000
(G82 X46.551 Y22.889 Z-4.000 F40.00 R2.000 P0.500)
G0 X46.551 Y22.889
G1 Z-4.000 F40.00
G4 P0.5
G0 Z3.000
(G82 X41.756 Y20.882 Z-4.000 F40.00 R2.000 P0.500)
G0 X41.756 Y20.882
G1 Z-4.000 F40.00
G4 P0.5
G0 Z3.000
(G82 X52.575 Y15.145 Z-4.000 F40.00 R2.000 P0.500)
G0 X52.575 Y15.145
G1 Z-4.000 F40.00
G4 P0.5
G0 Z3.000
(G82 X50.000 Y11.000 Z-4.000 F40.00 R2.000 P0.500)
G0 X50.000 Y11.000
G1 Z-4.000 F40.00
G4 P0.5
G0 Z3.000
(G82 X56.008 Y11.677 Z-4.000 F40.00 R2.000 P0.500)
G0 X56.008 Y11.677
G1 Z-4.000 F40.00
G4 P0.5
G0 Z3.000
(G82 X57.596 Y16.291 Z-4.000 F40.00 R2.000 P0.500)
G0 X57.596 Y16.291
G1 Z-4.000 F40.00
G4 P0.5
G0 Z3.000
(G82 X58.244 Y20.882 Z-4.000 F40.00 R2.000 P0.500)
G0 X58.244 Y20.882
G1 Z-4.000 F40.00
G4 P0.5
G0 Z3.000
(G82 X62.237 Y18.525 Z-4.000 F40.00 R2.000 P0.500)
G0 X62.237 Y18.525
G1 Z-4.000 F40.00
G4 P0.5
G0 Z3.000
(G82 X61.715 Y13.674 Z-4.000 F40.00 R2.000 P0.500)
G0 X61.715 Y13.674
G1 Z-4.000 F40.00
G4 P0.5
G0 Z3.000
(G82 X66.834 Y16.891 Z-4.000 F40.00 R2.000 P0.500)
G0 X66.834 Y16.891
G1 Z-4.000 F40.00
G4 P0.5
G0 Z3.000
(G82 X66.263 Y21.737 Z-4.000 F40.00 R2.000 P0.500)
G0 X66.263 Y21.737
G1 Z-4.000 F40.00
G4 P0.5
G0 Z3.000
(G82 X71.109 Y21.166 Z-4.000 F40.00 R2.000 P0.500)
G0 X71.109 Y21.166
G1 Z-4.000 F40.00
G4 P0.5
G0 Z3.000
(G82 X69.475 Y25.763 Z-4.000 F40.00 R2.000 P0.500)
G0 X69.475 Y25.763
G1 Z-4.000 F40.00
G4 P0.5
G0 Z3.000
(G82 X74.326 Y26.285 Z-4.000 F40.00 R2.000 P0.500)
G0 X74.326 Y26.285
G1 Z-4.000 F40.00
G4 P0.5
G0 Z3.000
(G82 X71.709 Y30.404 Z-4.000 F40.00 R2.000 P0.500)
G0 X71.709 Y30.404
G1 Z-4.000 F40.00
G4 P0.5
G0 Z3.000
(G82 X68.524 Y33.772 Z-4.000 F40.00 R2.000 P0.500)
G0 X68.524 Y33.772
G1 Z-4.000 F40.00
G4 P0.5
G0 Z3.000
(G82 X72.855 Y35.425 Z-4.000 F40.00 R2.000 P0.500)
G0 X72.855 Y35.425
G1 Z-4.000 F40.00
G4 P0.5
G0 Z3.000
(G82 X72.855 Y40.575 Z-4.000 F40.00 R2.000 P0.500)
G0 X72.855 Y40.575
G1 Z-4.000 F40.00
G4 P0.5
G0 Z3.000
(G82 X71.709 Y45.596 Z-4.000 F40.00 R2.000 P0.500)
G0 X71.709 Y45.596
G1 Z-4.000 F40.00
G4 P0.5
G0 Z3.000
(G82 X69.475 Y50.237 Z-4.000 F40.00 R2.000 P0.500)
G0 X69.475 Y50.237
G1 Z-4.000 F40.00
G4 P0.5
G0 Z3.000
(G82 X71.109 Y54.834 Z-4.000 F40.00 R2.000 P0.500)
G0 X71.109 Y54.834
G1 Z-4.000 F40.00
G4 P0.5
G0 Z3.000
(G82 X74.326 Y49.715 Z-4.000 F40.00 R2.000 P0.500)
G0 X74.326 Y49.715
G1 Z-4.000 F40.00
G4 P0.5
G0 Z3.000
(G82 X76.323 Y44.008 Z-4.000 F40.00 R2.000 P0.500)
G0 X76.323 Y44.008
G1 Z-4.000 F40.00
G4 P0.5
G0 Z3.000
(G82 X77.000 Y38.000 Z-4.000 F40.00 R2.000 P0.500)
G0 X77.000 Y38.000
G1 Z-4.000 F40.00
G4 P0.5
G0 Z3.000
(G82 X76.323 Y31.992 Z-4.000 F40.00 R2.000 P0.500)
G0 X76.323 Y31.992
G1 Z-4.000 F40.00
G4 P0.5
G0 Z3.000
(G82 X55.864 Y33.324 Z-4.000 F40.00 R2.000 P0.500)
G0 X55.864 Y33.324
G1 Z-4.000 F40.00
G4 P0.5
G0 Z3.000
(G82 X50.000 Y30.500 Z-4.000 F40.00 R2.000 P0.500)
G0 X50.000 Y30.500
G1 Z-4.000 F40.00
G4 P0.5
G0 Z3.000
(G82 X44.136 Y33.324 Z-4.000 F40.00 R2.000 P0.500)
G0 X44.136 Y33.324
G1 Z-4.000 F40.00
G4 P0.5
G0 Z3.000
(G82 X50.000 Y38.000 Z-4.000 F40.00 R2.000 P0.500)
G0 X50.000 Y38.000
G1 Z-4.000 F40.00
G4 P0.5
G0 Z3.000
(G82 X46.746 Y44.757 Z-4.000 F40.00 R2.000 P0.500)
G0 X46.746 Y44.757
G1 Z-4.000 F40.00
G4 P0.5
G0 Z3.000
(G82 X53.254 Y44.757 Z-4.000 F40.00 R2.000 P0.500)
G0 X53.254 Y44.757
G1 Z-4.000 F40.00
G4 P0.5
G0 Z3.000
(G82 X57.312 Y39.669 Z-4.000 F40.00 R2.000 P0.500)
G0 X57.312 Y39.669
G1 Z-4.000 F40.00
G4 P0.5
G0 Z3.000
(G80)
G0 Z3.000
(finish operation: Drilling)
(begin operation: TagDressup002)
(Path: TagDressup002)
G0 Z3.000
G0 X97.096 Y77.096 Z3.000
G1 X97.096 Y77.096 Z-1.000 F40.00
G2 X97.550 Y76.000 Z-1.000 I-1.096 J-1.096 K0.000 F70.00
G1 X97.550 Y0.000 Z-1.000 F70.00
G2 X96.000 Y-1.550 Z-1.000 I-1.550 J-0.000 K0.000 F70.00
G1 X0.000 Y-1.550 Z-1.000 F70.00
G2 X-1.550 Y0.000 Z-1.000 I-0.000 J1.550 K0.000 F70.00
G1 X-1.550 Y76.000 Z-1.000 F70.00
G2 X0.000 Y77.550 Z-1.000 I1.550 J0.000 K0.000 F70.00
G1 X96.000 Y77.550 Z-1.000 F70.00
G2 X97.096 Y77.096 Z-1.000 I0.000 J-1.550 K0.000 F70.00
G1 X97.096 Y77.096 Z-2.000 F40.00
G2 X97.550 Y76.000 Z-2.000 I-1.096 J-1.096 K0.000 F70.00
G1 X97.550 Y0.000 Z-2.000 F70.00
G2 X96.000 Y-1.550 Z-2.000 I-1.550 J-0.000 K0.000 F70.00
G1 X0.000 Y-1.550 Z-2.000 F70.00
G2 X-1.550 Y0.000 Z-2.000 I-0.000 J1.550 K0.000 F70.00
G1 X-1.550 Y76.000 Z-2.000 F70.00
G2 X0.000 Y77.550 Z-2.000 I1.550 J0.000 K0.000 F70.00
G1 X96.000 Y77.550 Z-2.000 F70.00
G2 X97.096 Y77.096 Z-2.000 I0.000 J-1.550 K0.000 F70.00
G1 X97.096 Y77.096 Z-3.000 F40.00
G2 X97.550 Y76.000 Z-3.000 I-1.096 J-1.096 K0.000 F70.00
G1 X97.550 Y0.000 Z-3.000 F70.00
G2 X96.000 Y-1.550 Z-3.000 I-1.550 J-0.000 K0.000 F70.00
G1 X75.530 Y-1.550 Z-3.000 F70.00
G1 X74.530 Y-1.550 Z-2.000 F55.00
G1 X69.470 Y-1.550 Z-2.000 F70.00
G1 X68.470 Y-1.550 Z-3.000 F55.00
G1 X27.530 Y-1.550 Z-3.000 F70.00
G1 X26.530 Y-1.550 Z-2.000 F55.00
G1 X21.470 Y-1.550 Z-2.000 F70.00
G1 X20.470 Y-1.550 Z-3.000 F55.00
G1 X0.000 Y-1.550 Z-3.000 F70.00
G2 X-1.550 Y0.000 Z-3.000 I-0.000 J1.550 K0.000 F70.00
G1 X-1.550 Y76.000 Z-3.000 F70.00
G2 X0.000 Y77.550 Z-3.000 I1.550 J0.000 K0.000 F70.00
G1 X20.470 Y77.550 Z-3.000 F70.00
G1 X21.470 Y77.550 Z-2.000 F55.00
G1 X26.530 Y77.550 Z-2.000 F70.00
G1 X27.530 Y77.550 Z-3.000 F55.00
G1 X68.470 Y77.550 Z-3.000 F70.00
G1 X69.470 Y77.550 Z-2.000 F55.00
G1 X74.530 Y77.550 Z-2.000 F70.00
G1 X75.530 Y77.550 Z-3.000 F55.00
G1 X96.000 Y77.550 Z-3.000 F70.00
G2 X97.096 Y77.096 Z-3.000 I0.000 J-1.550 K0.000 F70.00
G1 X97.096 Y77.096 Z-4.000 F40.00
G2 X97.550 Y76.000 Z-4.000 I-1.096 J-1.096 K0.000 F70.00
G1 X97.550 Y0.000 Z-4.000 F70.00
G2 X96.000 Y-1.550 Z-4.000 I-1.550 J-0.000 K0.000 F70.00
G1 X76.530 Y-1.550 Z-4.000 F70.00
G1 X74.530 Y-1.550 Z-2.000 F55.00
G1 X69.470 Y-1.550 Z-2.000 F70.00
G1 X67.470 Y-1.550 Z-4.000 F55.00
G1 X28.530 Y-1.550 Z-4.000 F70.00
G1 X26.530 Y-1.550 Z-2.000 F55.00
G1 X21.470 Y-1.550 Z-2.000 F70.00
G1 X19.470 Y-1.550 Z-4.000 F55.00
G1 X0.000 Y-1.550 Z-4.000 F70.00
G2 X-1.550 Y0.000 Z-4.000 I-0.000 J1.550 K0.000 F70.00
G1 X-1.550 Y76.000 Z-4.000 F70.00
G2 X0.000 Y77.550 Z-4.000 I1.550 J0.000 K0.000 F70.00
G1 X19.470 Y77.550 Z-4.000 F70.00
G1 X21.470 Y77.550 Z-2.000 F55.00
G1 X26.530 Y77.550 Z-2.000 F70.00
G1 X28.530 Y77.550 Z-4.000 F55.00
G1 X67.470 Y77.550 Z-4.000 F70.00
G1 X69.470 Y77.550 Z-2.000 F55.00
G1 X74.530 Y77.550 Z-2.000 F70.00
G1 X76.530 Y77.550 Z-4.000 F55.00
G1 X96.000 Y77.550 Z-4.000 F70.00
G2 X97.096 Y77.096 Z-4.000 I0.000 J-1.550 K0.000 F70.00
G0 X97.096 Y77.096 Z3.000
(finish operation: TagDressup002)
(begin postamble)
M5
G17 G90
M2
