(G-CODE GENERATED BY FLATCAM v8.994 - www.flatcam.org - Version Date: 2020/11/7)

(Name: AlarmClock-B_Cu.gbr_iso_combined_cnc)
(Type: G-code from Geometry)
(Units: MM)

(Created on Neděle, 27 března 2022 at 14:46)

(This preprocessor is the default preprocessor used by FlatCAM.)
(It is made to work with MACH3 compatible motion controllers.)

(TOOL DIAMETER: 0.3 mm)
(Feedrate_XY: 200.0 mm/min)
(Feedrate_Z: 100.0 mm/min)
(Feedrate rapids 1500.0 mm/min)

(Z_Cut: -0.1026 mm)
(Z_Move: 2.0 mm)
(Z Start: None mm)
(Z End: 5.0 mm)
(X,Y End: None mm)
(Steps per circle: 64)
(Preprocessor Geometry: default)

(X range:  -34.8878 ...   37.9853  mm)
(Y range:  -42.1404 ...   39.4403  mm)

(Spindle Speed: 10000.0 RPM)
G21
G90
G94

G01 F200.00

M5
G00 Z15.0000
G00 X0.0000 Y0.0000
T2
M6    
(MSG, Change to Tool Dia = 0.3000)
M0
G00 Z15.0000

M03 S10000.0
G4 P1.0
G01 F200.00
G00 X-5.0726 Y0.9498
G01 F100.00
G01 Z-0.1026
G01 F200.00
G01 X-5.0874 Y0.9498
G01 X-5.1731 Y0.9454
G01 X-5.2653 Y0.9317
G01 X-5.3558 Y0.9091
G01 X-5.4435 Y0.8777
G01 X-5.5278 Y0.8378
G01 X-5.6078 Y0.7899
G01 X-5.6827 Y0.7344
G01 X-5.7518 Y0.6718
G01 X-5.8144 Y0.6027
G01 X-5.8699 Y0.5278
G01 X-5.9178 Y0.4478
G01 X-5.9577 Y0.3635
G01 X-5.9891 Y0.2758
G01 X-6.0117 Y0.1853
G01 X-6.0254 Y0.0931
G01 X-6.0300 Y0.0000
G01 X-6.0254 Y-0.0931
G01 X-6.0117 Y-0.1853
G01 X-5.9891 Y-0.2758
G01 X-5.9577 Y-0.3635
G01 X-5.9178 Y-0.4478
G01 X-5.8699 Y-0.5278
G01 X-5.8144 Y-0.6027
G01 X-5.7518 Y-0.6718
G01 X-5.6827 Y-0.7344
G01 X-5.6078 Y-0.7899
G01 X-5.5278 Y-0.8378
G01 X-5.4435 Y-0.8777
G01 X-5.3558 Y-0.9091
G01 X-5.2653 Y-0.9317
G01 X-5.1731 Y-0.9454
G01 X-5.0800 Y-0.9500
G01 X-4.9869 Y-0.9454
G01 X-4.8947 Y-0.9317
G01 X-4.8042 Y-0.9091
G01 X-4.7233 Y-0.8803
G01 X-4.7131 Y-0.8762
G01 X-4.6322 Y-0.8378
G01 X-4.5584 Y-0.7938
G01 X-4.5492 Y-0.7878
G01 X-4.4831 Y-0.7389
G01 X-4.4745 Y-0.7320
G01 X-4.4109 Y-0.6743
G01 X-4.4057 Y-0.6691
G01 X-4.3885 Y-0.6503
G01 X-3.2499 Y-0.6503
G01 X-3.1935 Y-0.6477
G01 X-3.1789 Y-0.6462
G01 X-3.1231 Y-0.6378
G01 X-3.0612 Y-0.6223
G01 X-3.0011 Y-0.6008
G01 X-2.9500 Y-0.5768
G01 X-2.9402 Y-0.5717
G01 X-2.8887 Y-0.5407
G01 X-2.8432 Y-0.5072
G01 X-2.8318 Y-0.4978
G01 X-2.7901 Y-0.4598
G01 X-0.9456 Y1.3848
G01 X10.9287 Y1.3848
G01 X10.9887 Y1.3879
G01 X11.0519 Y1.3973
G01 X11.1138 Y1.4128
G01 X11.1670 Y1.4316
G01 X11.1806 Y1.4372
G01 X11.2250 Y1.4582
G01 X11.2379 Y1.4652
G01 X11.2863 Y1.4943
G01 X11.3317 Y1.5278
G01 X11.3431 Y1.5372
G01 X11.3848 Y1.5752
G01 X12.5248 Y2.7152
G01 X12.5628 Y2.7569
G01 X12.5722 Y2.7683
G01 X12.6057 Y2.8137
G01 X12.6348 Y2.8621
G01 X12.6418 Y2.8751
G01 X12.6658 Y2.9262
G01 X12.6849 Y2.9793
G01 X12.6892 Y2.9933
G01 X12.7028 Y3.0481
G01 X12.7121 Y3.1113
G01 X12.7153 Y3.1750
G01 X12.7153 Y8.6956
G01 X16.1994 Y12.1798
G01 X21.5900 Y12.1798
G01 X21.6537 Y12.1829
G01 X21.7096 Y12.1910
G01 X21.7205 Y12.1930
G01 X21.7788 Y12.2078
G01 X21.8320 Y12.2266
G01 X21.8456 Y12.2322
G01 X21.8965 Y12.2565
G01 X21.9450 Y12.2854
G01 X21.9573 Y12.2936
G01 X22.0025 Y12.3274
G01 X22.0472 Y12.3676
G01 X23.3224 Y13.6428
G01 X23.3627 Y13.6875
G01 X23.4007 Y13.7388
G01 X23.4335 Y13.7935
G01 X23.4578 Y13.8444
G01 X23.4634 Y13.8580
G01 X23.4823 Y13.9113
G01 X23.4978 Y13.9732
G01 X23.5071 Y14.0363
G01 X23.5103 Y14.1000
G01 X23.5103 Y23.8500
G01 X23.5074 Y23.9101
G01 X23.5062 Y23.9210
G01 X23.4990 Y23.9696
G01 X23.4961 Y23.9840
G01 X23.4823 Y24.0388
G01 X23.4608 Y24.0988
G01 X23.4368 Y24.1499
G01 X23.4298 Y24.1629
G01 X23.4007 Y24.2113
G01 X23.3627 Y24.2625
G01 X23.3198 Y24.3098
G01 X22.6150 Y25.0146
G01 X22.6150 Y25.5200
G01 X22.6136 Y25.5519
G01 X22.6127 Y25.5629
G01 X22.6073 Y25.5980
G01 X22.5997 Y25.6290
G01 X22.5955 Y25.6431
G01 X22.5872 Y25.6662
G01 X22.5831 Y25.6765
G01 X22.5678 Y25.7086
G01 X22.5496 Y25.7391
G01 X22.5433 Y25.7482
G01 X22.5287 Y25.7680
G01 X22.5194 Y25.7793
G01 X22.5004 Y25.8002
G01 X22.4925 Y25.8079
G01 X22.4688 Y25.8292
G01 X22.4432 Y25.8483
G01 X22.4341 Y25.8546
G01 X22.4068 Y25.8710
G01 X22.3970 Y25.8761
G01 X22.3748 Y25.8866
G01 X22.3647 Y25.8909
G01 X22.3346 Y25.9017
G01 X22.3240 Y25.9047
G01 X22.2966 Y25.9116
G01 X22.2858 Y25.9136
G01 X22.2542 Y25.9181
G01 X22.2187 Y25.9200
G01 X20.9650 Y25.9200
G01 X20.9258 Y25.9181
G01 X20.8870 Y25.9123
G01 X20.8489 Y25.9028
G01 X20.8119 Y25.8896
G01 X20.7830 Y25.8761
G01 X20.7732 Y25.8710
G01 X20.7428 Y25.8526
G01 X20.7170 Y25.8337
G01 X20.7084 Y25.8268
G01 X20.6875 Y25.8079
G01 X20.6796 Y25.8002
G01 X20.6582 Y25.7766
G01 X20.6437 Y25.7578
G01 X20.0213 Y25.7578
G01 X20.0068 Y25.7766
G01 X19.9854 Y25.8002
G01 X19.9775 Y25.8079
G01 X19.9566 Y25.8268
G01 X19.9480 Y25.8337
G01 X19.9222 Y25.8526
G01 X19.8918 Y25.8710
G01 X19.8820 Y25.8761
G01 X19.8531 Y25.8896
G01 X19.8161 Y25.9028
G01 X19.7780 Y25.9123
G01 X19.7465 Y25.9172
G01 X19.7355 Y25.9184
G01 X19.7000 Y25.9200
G01 X18.4000 Y25.9200
G01 X18.3681 Y25.9186
G01 X18.3571 Y25.9177
G01 X18.3256 Y25.9130
G01 X18.3148 Y25.9107
G01 X18.2910 Y25.9047
G01 X18.2769 Y25.9005
G01 X18.2503 Y25.8909
G01 X18.2402 Y25.8866
G01 X18.2180 Y25.8761
G01 X18.2082 Y25.8710
G01 X18.1840 Y25.8565
G01 X18.1747 Y25.8505
G01 X18.1462 Y25.8292
G01 X18.1225 Y25.8079
G01 X18.1146 Y25.8002
G01 X18.0908 Y25.7738
G01 X18.0674 Y25.7422
G01 X18.0472 Y25.7086
G01 X18.0304 Y25.6731
G01 X18.0172 Y25.6361
G01 X18.0077 Y25.5980
G01 X18.0019 Y25.5592
G01 X18.0000 Y25.5237
G01 X18.0000 Y24.6950
G01 X18.0019 Y24.6558
G01 X18.0077 Y24.6170
G01 X18.0153 Y24.5860
G01 X18.0195 Y24.5719
G01 X18.0304 Y24.5419
G01 X18.0439 Y24.5130
G01 X18.0509 Y24.5000
G01 X18.0674 Y24.4728
G01 X18.0908 Y24.4412
G01 X18.1172 Y24.4122
G01 X18.1407 Y24.3906
G01 X18.1520 Y24.3813
G01 X18.1778 Y24.3624
G01 X18.2050 Y24.3459
G01 X18.2147 Y24.3405
G01 X18.2402 Y24.3284
G01 X18.2503 Y24.3241
G01 X18.2804 Y24.3133
G01 X18.2910 Y24.3103
G01 X18.3184 Y24.3034
G01 X18.3292 Y24.3014
G01 X18.3608 Y24.2969
G01 X18.3963 Y24.2950
G01 X19.7000 Y24.2950
G01 X19.7319 Y24.2964
G01 X19.7465 Y24.2978
G01 X19.7780 Y24.3027
G01 X19.8161 Y24.3122
G01 X19.8531 Y24.3254
G01 X19.8820 Y24.3389
G01 X19.8918 Y24.3440
G01 X19.9222 Y24.3624
G01 X19.9480 Y24.3813
G01 X19.9566 Y24.3882
G01 X19.9775 Y24.4071
G01 X19.9854 Y24.4148
G01 X20.0068 Y24.4384
G01 X20.0213 Y24.4572
G01 X20.6637 Y24.4572
G01 X20.6822 Y24.4372
G01 X20.7112 Y24.4108
G01 X20.7428 Y24.3874
G01 X20.7732 Y24.3690
G01 X20.7830 Y24.3639
G01 X20.8085 Y24.3519
G01 X20.8188 Y24.3478
G01 X20.8419 Y24.3395
G01 X20.8560 Y24.3353
G01 X20.8798 Y24.3293
G01 X20.8906 Y24.3270
G01 X20.9258 Y24.3219
G01 X20.9650 Y24.3200
G01 X21.4704 Y24.3200
G01 X22.2097 Y23.5807
G01 X22.2097 Y14.3694
G01 X21.3207 Y13.4803
G01 X15.9301 Y13.4803
G01 X15.8664 Y13.4771
G01 X15.8032 Y13.4678
G01 X15.7413 Y13.4523
G01 X15.6881 Y13.4334
G01 X15.6745 Y13.4278
G01 X15.6236 Y13.4035
G01 X15.5688 Y13.3707
G01 X15.5176 Y13.3327
G01 X15.4703 Y13.2898
G01 X11.6052 Y9.4247
G01 X11.5623 Y9.3774
G01 X11.5243 Y9.3262
G01 X11.4915 Y9.2714
G01 X11.4642 Y9.2138
G01 X11.4427 Y9.1537
G01 X11.4272 Y9.0918
G01 X11.4179 Y9.0286
G01 X11.4148 Y8.9686
G01 X11.4147 Y3.4443
G01 X10.6557 Y2.6853
G01 X-1.2149 Y2.6853
G01 X-1.2786 Y2.6821
G01 X-1.3418 Y2.6728
G01 X-1.3966 Y2.6592
G01 X-1.4107 Y2.6550
G01 X-1.4569 Y2.6384
G01 X-1.4705 Y2.6328
G01 X-1.5214 Y2.6085
G01 X-1.5762 Y2.5757
G01 X-1.6274 Y2.5377
G01 X-1.6694 Y2.4999
G01 X-3.5193 Y0.6503
G01 X-4.3885 Y0.6503
G01 X-4.4057 Y0.6691
G01 X-4.4109 Y0.6743
G01 X-4.4745 Y0.7320
G01 X-4.4831 Y0.7389
G01 X-4.5492 Y0.7878
G01 X-4.5584 Y0.7938
G01 X-4.6322 Y0.8378
G01 X-4.7131 Y0.8762
G01 X-4.7233 Y0.8803
G01 X-4.8042 Y0.9091
G01 X-4.8947 Y0.9317
G01 X-4.9869 Y0.9454
G01 X-5.0726 Y0.9498
G00 Z2.0000
G00 X-5.0726 Y-1.5902
G01 F100.00
G01 Z-0.1026
G01 F200.00
G01 X-5.0874 Y-1.5902
G01 X-5.1731 Y-1.5946
G01 X-5.2653 Y-1.6083
G01 X-5.3558 Y-1.6309
G01 X-5.4435 Y-1.6623
G01 X-5.5278 Y-1.7022
G01 X-5.6078 Y-1.7501
G01 X-5.6827 Y-1.8056
G01 X-5.7518 Y-1.8682
G01 X-5.8144 Y-1.9373
G01 X-5.8699 Y-2.0122
G01 X-5.9178 Y-2.0922
G01 X-5.9577 Y-2.1765
G01 X-5.9891 Y-2.2642
G01 X-6.0117 Y-2.3547
G01 X-6.0254 Y-2.4469
G01 X-6.0300 Y-2.5400
G01 X-6.0254 Y-2.6331
G01 X-6.0117 Y-2.7253
G01 X-5.9891 Y-2.8158
G01 X-5.9577 Y-2.9035
G01 X-5.9178 Y-2.9878
G01 X-5.8699 Y-3.0678
G01 X-5.8144 Y-3.1427
G01 X-5.7518 Y-3.2118
G01 X-5.6827 Y-3.2744
G01 X-5.6078 Y-3.3299
G01 X-5.5278 Y-3.3778
G01 X-5.4435 Y-3.4177
G01 X-5.3558 Y-3.4491
G01 X-5.2653 Y-3.4717
G01 X-5.1731 Y-3.4854
G01 X-5.0800 Y-3.4900
G01 X-4.9869 Y-3.4854
G01 X-4.8947 Y-3.4717
G01 X-4.8042 Y-3.4491
G01 X-4.7233 Y-3.4203
G01 X-4.7131 Y-3.4162
G01 X-4.6322 Y-3.3778
G01 X-4.5584 Y-3.3338
G01 X-4.5492 Y-3.3278
G01 X-4.4831 Y-3.2789
G01 X-4.4745 Y-3.2720
G01 X-4.4109 Y-3.2143
G01 X-4.4057 Y-3.2091
G01 X-4.3885 Y-3.1903
G01 X-3.8100 Y-3.1903
G01 X-3.7536 Y-3.1877
G01 X-3.7426 Y-3.1867
G01 X-3.6904 Y-3.1790
G01 X-3.6760 Y-3.1761
G01 X-3.6212 Y-3.1623
G01 X-3.5680 Y-3.1434
G01 X-3.5544 Y-3.1378
G01 X-3.5035 Y-3.1135
G01 X-3.4550 Y-3.0846
G01 X-3.4427 Y-3.0764
G01 X-3.3975 Y-3.0427
G01 X-3.3502 Y-2.9998
G01 X-0.3657 Y-0.0153
G01 X12.0650 Y-0.0153
G01 X12.1214 Y-0.0127
G01 X12.1360 Y-0.0112
G01 X12.1919 Y-0.0028
G01 X12.2538 Y0.0127
G01 X12.3138 Y0.0342
G01 X12.3649 Y0.0582
G01 X12.3779 Y0.0652
G01 X12.4200 Y0.0904
G01 X12.4293 Y0.0964
G01 X12.4775 Y0.1323
G01 X12.5248 Y0.1752
G01 X14.4324 Y2.0828
G01 X14.4678 Y2.1219
G01 X14.4772 Y2.1333
G01 X14.5107 Y2.1787
G01 X14.5398 Y2.2271
G01 X14.5468 Y2.2401
G01 X14.5708 Y2.2912
G01 X14.5899 Y2.3443
G01 X14.5942 Y2.3583
G01 X14.6078 Y2.4131
G01 X14.6162 Y2.4690
G01 X14.6177 Y2.4836
G01 X14.6203 Y2.5400
G01 X14.6203 Y8.6207
G01 X16.7793 Y10.7797
G01 X22.1736 Y10.7798
G01 X22.2336 Y10.7829
G01 X22.2968 Y10.7922
G01 X22.3587 Y10.8077
G01 X22.4187 Y10.8292
G01 X22.4764 Y10.8565
G01 X22.5312 Y10.8893
G01 X22.5824 Y10.9273
G01 X22.6271 Y10.9676
G01 X24.7224 Y13.0629
G01 X24.7627 Y13.1076
G01 X24.7964 Y13.1528
G01 X24.8046 Y13.1651
G01 X24.8335 Y13.2136
G01 X24.8578 Y13.2645
G01 X24.8634 Y13.2781
G01 X24.8823 Y13.3313
G01 X24.8970 Y13.3896
G01 X24.8990 Y13.4005
G01 X24.9071 Y13.4564
G01 X24.9103 Y13.5201
G01 X24.9103 Y21.4507
G01 X25.6693 Y22.2097
G01 X29.1287 Y22.2097
G01 X29.1314 Y22.2026
G01 X29.1360 Y22.1926
G01 X29.1413 Y22.1829
G01 X29.1474 Y22.1736
G01 X29.1540 Y22.1648
G01 X29.1614 Y22.1566
G01 X29.1693 Y22.1489
G01 X29.1777 Y22.1417
G01 X29.1867 Y22.1353
G01 X29.1961 Y22.1295
G01 X29.2059 Y22.1244
G01 X29.2160 Y22.1201
G01 X29.2265 Y22.1165
G01 X29.2371 Y22.1136
G01 X29.2480 Y22.1116
G01 X29.2590 Y22.1104
G01 X29.2700 Y22.1100
G01 X30.1700 Y22.1100
G01 X30.1847 Y22.1107
G01 X30.1956 Y22.1122
G01 X30.2100 Y22.1154
G01 X30.2240 Y22.1201
G01 X30.2341 Y22.1244
G01 X30.2407 Y22.1277
G01 X30.2471 Y22.1313
G01 X30.2564 Y22.1374
G01 X30.2652 Y22.1440
G01 X30.2707 Y22.1489
G01 X30.2761 Y22.1539
G01 X30.2836 Y22.1620
G01 X30.2905 Y22.1706
G01 X30.2947 Y22.1767
G01 X30.3005 Y22.1861
G01 X30.3056 Y22.1959
G01 X30.3099 Y22.2060
G01 X30.3124 Y22.2129
G01 X30.3146 Y22.2200
G01 X30.3171 Y22.2307
G01 X30.3193 Y22.2453
G01 X30.3200 Y22.2600
G01 X30.3200 Y22.6094
G01 X30.3234 Y22.6180
G01 X30.3423 Y22.6712
G01 X30.3578 Y22.7331
G01 X30.3671 Y22.7963
G01 X30.3701 Y22.8526
G01 X30.3701 Y22.8674
G01 X30.3671 Y22.9237
G01 X30.3578 Y22.9869
G01 X30.3423 Y23.0488
G01 X30.3234 Y23.1020
G01 X30.3200 Y23.1106
G01 X30.3200 Y23.4600
G01 X30.3196 Y23.4710
G01 X30.3184 Y23.4820
G01 X30.3164 Y23.4929
G01 X30.3146 Y23.5000
G01 X30.3112 Y23.5105
G01 X30.3086 Y23.5174
G01 X30.3040 Y23.5274
G01 X30.2987 Y23.5371
G01 X30.2926 Y23.5464
G01 X30.2836 Y23.5580
G01 X30.2761 Y23.5661
G01 X30.2707 Y23.5711
G01 X30.2652 Y23.5760
G01 X30.2564 Y23.5826
G01 X30.2439 Y23.5905
G01 X30.2308 Y23.5971
G01 X30.2205 Y23.6012
G01 X30.2135 Y23.6035
G01 X30.2029 Y23.6064
G01 X30.1956 Y23.6078
G01 X30.1810 Y23.6096
G01 X30.1700 Y23.6100
G01 X29.2700 Y23.6100
G01 X29.2590 Y23.6096
G01 X29.2480 Y23.6084
G01 X29.2336 Y23.6055
G01 X29.2229 Y23.6024
G01 X29.2126 Y23.5986
G01 X29.2026 Y23.5940
G01 X29.1929 Y23.5887
G01 X29.1836 Y23.5826
G01 X29.1748 Y23.5760
G01 X29.1666 Y23.5686
G01 X29.1564 Y23.5580
G01 X29.1495 Y23.5494
G01 X29.1433 Y23.5402
G01 X29.1377 Y23.5307
G01 X29.1329 Y23.5208
G01 X29.1287 Y23.5103
G01 X25.4000 Y23.5103
G01 X25.3363 Y23.5071
G01 X25.2804 Y23.4990
G01 X25.2695 Y23.4970
G01 X25.2183 Y23.4842
G01 X25.2043 Y23.4799
G01 X25.1512 Y23.4608
G01 X25.1001 Y23.4368
G01 X25.0871 Y23.4298
G01 X25.0387 Y23.4007
G01 X24.9933 Y23.3672
G01 X24.9819 Y23.3578
G01 X24.9402 Y23.3198
G01 X23.8002 Y22.1798
G01 X23.7574 Y22.1325
G01 X23.7193 Y22.0813
G01 X23.6902 Y22.0329
G01 X23.6832 Y22.0200
G01 X23.6622 Y21.9756
G01 X23.6566 Y21.9620
G01 X23.6378 Y21.9088
G01 X23.6223 Y21.8469
G01 X23.6129 Y21.7837
G01 X23.6098 Y21.7237
G01 X23.6098 Y13.7894
G01 X21.9006 Y12.0803
G01 X16.5100 Y12.0803
G01 X16.4463 Y12.0771
G01 X16.3831 Y12.0678
G01 X16.3212 Y12.0523
G01 X16.2680 Y12.0334
G01 X16.2578 Y12.0293
G01 X16.2035 Y12.0035
G01 X16.1487 Y11.9707
G01 X16.0975 Y11.9327
G01 X16.0528 Y11.8924
G01 X13.5076 Y9.3472
G01 X13.4673 Y9.3025
G01 X13.4293 Y9.2513
G01 X13.3965 Y9.1965
G01 X13.3692 Y9.1388
G01 X13.3477 Y9.0788
G01 X13.3322 Y9.0169
G01 X13.3229 Y8.9537
G01 X13.3198 Y8.8937
G01 X13.3197 Y2.8093
G01 X11.7957 Y1.2853
G01 X-0.6350 Y1.2853
G01 X-0.6987 Y1.2821
G01 X-0.7582 Y1.2734
G01 X-0.7690 Y1.2711
G01 X-0.8167 Y1.2592
G01 X-0.8307 Y1.2549
G01 X-0.8838 Y1.2358
G01 X-0.9415 Y1.2085
G01 X-0.9900 Y1.1796
G01 X-1.0023 Y1.1714
G01 X-1.0475 Y1.1377
G01 X-1.0922 Y1.0974
G01 X-4.0793 Y-1.8897
G01 X-4.3885 Y-1.8897
G01 X-4.4057 Y-1.8709
G01 X-4.4109 Y-1.8657
G01 X-4.4745 Y-1.8080
G01 X-4.4831 Y-1.8011
G01 X-4.5492 Y-1.7522
G01 X-4.5584 Y-1.7462
G01 X-4.6322 Y-1.7022
G01 X-4.7131 Y-1.6638
G01 X-4.7233 Y-1.6597
G01 X-4.8042 Y-1.6309
G01 X-4.8947 Y-1.6083
G01 X-4.9869 Y-1.5946
G01 X-5.0726 Y-1.5902
G00 Z2.0000
G00 X-5.0726 Y-4.1302
G01 F100.00
G01 Z-0.1026
G01 F200.00
G01 X-5.0874 Y-4.1302
G01 X-5.1731 Y-4.1346
G01 X-5.2653 Y-4.1483
G01 X-5.3558 Y-4.1709
G01 X-5.4435 Y-4.2023
G01 X-5.5278 Y-4.2422
G01 X-5.6078 Y-4.2901
G01 X-5.6827 Y-4.3456
G01 X-5.7518 Y-4.4082
G01 X-5.8144 Y-4.4773
G01 X-5.8699 Y-4.5522
G01 X-5.9178 Y-4.6322
G01 X-5.9577 Y-4.7165
G01 X-5.9891 Y-4.8042
G01 X-6.0117 Y-4.8947
G01 X-6.0254 Y-4.9869
G01 X-6.0300 Y-5.0800
G01 X-6.0254 Y-5.1731
G01 X-6.0117 Y-5.2653
G01 X-5.9891 Y-5.3558
G01 X-5.9577 Y-5.4435
G01 X-5.9178 Y-5.5278
G01 X-5.8699 Y-5.6078
G01 X-5.8144 Y-5.6827
G01 X-5.7518 Y-5.7518
G01 X-5.6827 Y-5.8144
G01 X-5.6078 Y-5.8699
G01 X-5.5278 Y-5.9178
G01 X-5.4435 Y-5.9577
G01 X-5.3558 Y-5.9891
G01 X-5.2653 Y-6.0117
G01 X-5.1731 Y-6.0254
G01 X-5.0800 Y-6.0300
G01 X-4.9869 Y-6.0254
G01 X-4.8947 Y-6.0117
G01 X-4.8042 Y-5.9891
G01 X-4.7233 Y-5.9603
G01 X-4.7131 Y-5.9562
G01 X-4.6322 Y-5.9178
G01 X-4.5584 Y-5.8738
G01 X-4.5492 Y-5.8678
G01 X-4.4831 Y-5.8189
G01 X-4.4745 Y-5.8120
G01 X-4.4109 Y-5.7543
G01 X-4.4057 Y-5.7491
G01 X-4.3885 Y-5.7303
G01 X-3.8100 Y-5.7303
G01 X-3.7536 Y-5.7277
G01 X-3.7426 Y-5.7267
G01 X-3.6904 Y-5.7190
G01 X-3.6760 Y-5.7161
G01 X-3.6212 Y-5.7023
G01 X-3.5680 Y-5.6834
G01 X-3.5544 Y-5.6778
G01 X-3.5035 Y-5.6535
G01 X-3.4550 Y-5.6246
G01 X-3.4457 Y-5.6186
G01 X-3.3975 Y-5.5827
G01 X-3.3502 Y-5.5398
G01 X-0.8197 Y-3.0093
G01 X-0.8070 Y-3.0161
G01 X-0.7781 Y-3.0296
G01 X-0.7481 Y-3.0405
G01 X-0.7376 Y-3.0438
G01 X-0.7030 Y-3.0523
G01 X-0.6715 Y-3.0572
G01 X-0.6605 Y-3.0584
G01 X-0.6287 Y-3.0600
G01 X0.6324 Y-3.0598
G01 X0.6605 Y-3.0584
G01 X0.6715 Y-3.0572
G01 X0.7030 Y-3.0523
G01 X0.7340 Y-3.0447
G01 X0.7446 Y-3.0417
G01 X0.7747 Y-3.0309
G01 X0.7848 Y-3.0266
G01 X0.8103 Y-3.0145
G01 X0.8200 Y-3.0091
G01 X0.8472 Y-2.9926
G01 X0.8788 Y-2.9692
G01 X0.9078 Y-2.9428
G01 X0.9294 Y-2.9193
G01 X0.9370 Y-2.9103
G01 X1.2950 Y-2.9103
G01 X1.2950 Y-3.1600
G01 X1.2966 Y-3.1955
G01 X1.2978 Y-3.2065
G01 X1.3020 Y-3.2344
G01 X1.3043 Y-3.2452
G01 X1.3103 Y-3.2690
G01 X1.3145 Y-3.2831
G01 X1.3228 Y-3.3062
G01 X1.3269 Y-3.3165
G01 X1.3389 Y-3.3420
G01 X1.3440 Y-3.3518
G01 X1.3604 Y-3.3791
G01 X1.3667 Y-3.3882
G01 X1.3858 Y-3.4138
G01 X1.4071 Y-3.4375
G01 X1.4148 Y-3.4454
G01 X1.4357 Y-3.4644
G01 X1.4470 Y-3.4737
G01 X1.4728 Y-3.4926
G01 X1.5064 Y-3.5128
G01 X1.5419 Y-3.5296
G01 X1.5719 Y-3.5405
G01 X1.5824 Y-3.5438
G01 X1.6170 Y-3.5523
G01 X1.6485 Y-3.5572
G01 X1.6631 Y-3.5586
G01 X1.6950 Y-3.5600
G01 X3.3850 Y-3.5600
G01 X3.4242 Y-3.5581
G01 X3.4630 Y-3.5523
G01 X3.5011 Y-3.5428
G01 X3.5312 Y-3.5322
G01 X3.5415 Y-3.5281
G01 X3.5736 Y-3.5128
G01 X3.6072 Y-3.4926
G01 X3.6388 Y-3.4692
G01 X3.6625 Y-3.4479
G01 X3.6704 Y-3.4402
G01 X3.6942 Y-3.4138
G01 X3.7133 Y-3.3882
G01 X3.7196 Y-3.3791
G01 X3.7341 Y-3.3550
G01 X3.7395 Y-3.3453
G01 X3.7531 Y-3.3165
G01 X3.7572 Y-3.3062
G01 X3.7678 Y-3.2761
G01 X3.7766 Y-3.2416
G01 X3.7786 Y-3.2308
G01 X3.7822 Y-3.2065
G01 X3.7836 Y-3.1919
G01 X3.7850 Y-3.1600
G01 X3.7850 Y-2.8496
G01 X5.2193 Y-1.4153
G01 X13.8307 Y-1.4153
G01 X14.7802 Y-2.3648
G01 X14.8275 Y-2.4077
G01 X14.8787 Y-2.4457
G01 X14.9271 Y-2.4748
G01 X14.9401 Y-2.4818
G01 X14.9844 Y-2.5028
G01 X14.9980 Y-2.5084
G01 X15.0512 Y-2.5273
G01 X15.1131 Y-2.5428
G01 X15.1763 Y-2.5521
G01 X15.2363 Y-2.5552
G01 X15.2474 Y-2.5551
G01 X15.2964 Y-2.5527
G01 X15.3110 Y-2.5512
G01 X15.3669 Y-2.5428
G01 X15.4252 Y-2.5283
G01 X15.4357 Y-2.5249
G01 X15.4820 Y-2.5084
G01 X15.4922 Y-2.5043
G01 X15.5465 Y-2.4785
G01 X15.5857 Y-2.4552
G01 X18.2137 Y-2.4552
G01 X18.2639 Y-2.4526
G01 X18.3101 Y-2.4459
G01 X18.3245 Y-2.4430
G01 X18.3626 Y-2.4335
G01 X18.3732 Y-2.4304
G01 X18.4206 Y-2.4133
G01 X18.4661 Y-2.3919
G01 X18.4758 Y-2.3866
G01 X18.5095 Y-2.3664
G01 X18.5187 Y-2.3604
G01 X18.5261 Y-2.3550
G01 X19.0850 Y-2.3550
G01 X19.1127 Y-2.3537
G01 X19.1333 Y-2.3510
G01 X19.1435 Y-2.3492
G01 X19.1671 Y-2.3435
G01 X19.1869 Y-2.3371
G01 X19.1966 Y-2.3335
G01 X19.2187 Y-2.3235
G01 X19.2400 Y-2.3119
G01 X19.2487 Y-2.3063
G01 X19.2658 Y-2.2944
G01 X19.2819 Y-2.2813
G01 X19.2896 Y-2.2743
G01 X19.3067 Y-2.2571
G01 X19.3201 Y-2.2412
G01 X19.3265 Y-2.2330
G01 X19.3401 Y-2.2129
G01 X19.3503 Y-2.1949
G01 X19.3551 Y-2.1856
G01 X19.3647 Y-2.1634
G01 X19.3735 Y-2.1371
G01 X19.3799 Y-2.1101
G01 X19.3837 Y-2.0827
G01 X19.3848 Y-2.0619
G01 X19.3850 Y-1.7550
G01 X19.3836 Y-1.7256
G01 X19.3799 Y-1.7001
G01 X19.3776 Y-1.6893
G01 X19.3721 Y-1.6679
G01 X19.3622 Y-1.6402
G01 X19.3513 Y-1.6168
G01 X19.3459 Y-1.6072
G01 X19.3344 Y-1.5883
G01 X19.3169 Y-1.5647
G01 X19.2997 Y-1.5455
G01 X19.2918 Y-1.5378
G01 X19.2753 Y-1.5231
G01 X19.2517 Y-1.5056
G01 X19.2296 Y-1.4922
G01 X19.2198 Y-1.4871
G01 X19.1998 Y-1.4778
G01 X19.1756 Y-1.4690
G01 X19.1507 Y-1.4624
G01 X19.1399 Y-1.4601
G01 X19.1144 Y-1.4564
G01 X19.0887 Y-1.4550
G01 X18.5261 Y-1.4550
G01 X18.5126 Y-1.4455
G01 X18.4694 Y-1.4198
G01 X18.4273 Y-1.3997
G01 X18.4171 Y-1.3953
G01 X18.3697 Y-1.3785
G01 X18.3245 Y-1.3670
G01 X18.3101 Y-1.3641
G01 X18.2639 Y-1.3574
G01 X18.2100 Y-1.3548
G01 X15.6094 Y-1.3548
G01 X14.5598 Y-0.3052
G01 X14.5153 Y-0.2647
G01 X14.5067 Y-0.2578
G01 X14.4673 Y-0.2286
G01 X14.4550 Y-0.2204
G01 X14.4065 Y-0.1915
G01 X14.3488 Y-0.1643
G01 X14.2888 Y-0.1428
G01 X14.2341 Y-0.1289
G01 X14.2196 Y-0.1260
G01 X14.1637 Y-0.1179
G01 X14.1000 Y-0.1148
G01 X4.9500 Y-0.1148
G01 X4.8863 Y-0.1179
G01 X4.8304 Y-0.1260
G01 X4.8159 Y-0.1289
G01 X4.7612 Y-0.1428
G01 X4.7012 Y-0.1643
G01 X4.6435 Y-0.1915
G01 X4.5950 Y-0.2204
G01 X4.5827 Y-0.2286
G01 X4.5433 Y-0.2578
G01 X4.5347 Y-0.2647
G01 X4.4902 Y-0.3052
G01 X3.2754 Y-1.5200
G01 X1.6876 Y-1.5202
G01 X1.6558 Y-1.5219
G01 X1.6170 Y-1.5277
G01 X1.5789 Y-1.5372
G01 X1.5488 Y-1.5478
G01 X1.5385 Y-1.5519
G01 X1.5130 Y-1.5639
G01 X1.5000 Y-1.5709
G01 X1.4728 Y-1.5874
G01 X1.4425 Y-1.6097
G01 X0.9370 Y-1.6097
G01 X0.9294 Y-1.6007
G01 X0.9078 Y-1.5772
G01 X0.8788 Y-1.5508
G01 X0.8472 Y-1.5274
G01 X0.8136 Y-1.5072
G01 X0.7781 Y-1.4904
G01 X0.7411 Y-1.4772
G01 X0.7030 Y-1.4677
G01 X0.6642 Y-1.4619
G01 X0.6250 Y-1.4600
G01 X-0.6287 Y-1.4600
G01 X-0.6569 Y-1.4614
G01 X-0.6679 Y-1.4623
G01 X-0.6994 Y-1.4670
G01 X-0.7102 Y-1.4693
G01 X-0.7411 Y-1.4772
G01 X-0.7712 Y-1.4878
G01 X-0.7815 Y-1.4919
G01 X-0.8070 Y-1.5039
G01 X-0.8200 Y-1.5109
G01 X-0.8472 Y-1.5274
G01 X-0.8788 Y-1.5508
G01 X-0.9078 Y-1.5772
G01 X-0.9294 Y-1.6007
G01 X-0.9370 Y-1.6097
G01 X-0.9937 Y-1.6098
G01 X-1.0501 Y-1.6126
G01 X-1.0610 Y-1.6138
G01 X-1.1132 Y-1.6216
G01 X-1.1240 Y-1.6239
G01 X-1.1788 Y-1.6377
G01 X-1.2388 Y-1.6592
G01 X-1.2965 Y-1.6865
G01 X-1.3513 Y-1.7193
G01 X-1.4025 Y-1.7573
G01 X-1.4472 Y-1.7976
G01 X-4.0793 Y-4.4297
G01 X-4.3885 Y-4.4297
G01 X-4.4057 Y-4.4109
G01 X-4.4109 Y-4.4057
G01 X-4.4745 Y-4.3480
G01 X-4.4831 Y-4.3411
G01 X-4.5492 Y-4.2922
G01 X-4.5584 Y-4.2862
G01 X-4.6322 Y-4.2422
G01 X-4.7131 Y-4.2038
G01 X-4.7233 Y-4.1997
G01 X-4.8042 Y-4.1709
G01 X-4.8947 Y-4.1483
G01 X-4.9869 Y-4.1346
G01 X-5.0726 Y-4.1302
G00 Z2.0000
G00 X-1.9076 Y-6.7942
G01 F100.00
G01 Z-0.1026
G01 F200.00
G01 X-3.1650 Y-6.7940
G01 X-3.2005 Y-6.7956
G01 X-3.2115 Y-6.7968
G01 X-3.2394 Y-6.8010
G01 X-3.2502 Y-6.8033
G01 X-3.2740 Y-6.8093
G01 X-3.2846 Y-6.8123
G01 X-3.3112 Y-6.8218
G01 X-3.3248 Y-6.8274
G01 X-3.3536 Y-6.8412
G01 X-3.3872 Y-6.8614
G01 X-3.4188 Y-6.8848
G01 X-3.4452 Y-6.9086
G01 X-3.4529 Y-6.9165
G01 X-3.4742 Y-6.9402
G01 X-3.4976 Y-6.9718
G01 X-3.5178 Y-7.0054
G01 X-3.5346 Y-7.0409
G01 X-3.5478 Y-7.0779
G01 X-3.5573 Y-7.1160
G01 X-3.5631 Y-7.1548
G01 X-3.5650 Y-7.1940
G01 X-3.5650 Y-7.9940
G01 X-3.5631 Y-8.0332
G01 X-3.5573 Y-8.0720
G01 X-3.5497 Y-8.1030
G01 X-3.5467 Y-8.1136
G01 X-3.5372 Y-8.1402
G01 X-3.5316 Y-8.1538
G01 X-3.5178 Y-8.1826
G01 X-3.4976 Y-8.2162
G01 X-3.4742 Y-8.2478
G01 X-3.4504 Y-8.2742
G01 X-3.4425 Y-8.2819
G01 X-3.4188 Y-8.3032
G01 X-3.3872 Y-8.3266
G01 X-3.3536 Y-8.3468
G01 X-3.3181 Y-8.3636
G01 X-3.2811 Y-8.3768
G01 X-3.2430 Y-8.3863
G01 X-3.2042 Y-8.3921
G01 X-3.1687 Y-8.3940
G01 X-1.9150 Y-8.3940
G01 X-1.8758 Y-8.3921
G01 X-1.8370 Y-8.3863
G01 X-1.7989 Y-8.3768
G01 X-1.7619 Y-8.3636
G01 X-1.7264 Y-8.3468
G01 X-1.6928 Y-8.3266
G01 X-1.6612 Y-8.3032
G01 X-1.6322 Y-8.2768
G01 X-1.6106 Y-8.2533
G01 X-1.6030 Y-8.2443
G01 X-0.9562 Y-8.2443
G01 X-0.9387 Y-8.2680
G01 X-0.9318 Y-8.2766
G01 X-0.9104 Y-8.3002
G01 X-0.9025 Y-8.3079
G01 X-0.8788 Y-8.3292
G01 X-0.8532 Y-8.3483
G01 X-0.8441 Y-8.3546
G01 X-0.8200 Y-8.3691
G01 X-0.8070 Y-8.3761
G01 X-0.7781 Y-8.3896
G01 X-0.7411 Y-8.4028
G01 X-0.7030 Y-8.4123
G01 X-0.6715 Y-8.4172
G01 X-0.6605 Y-8.4184
G01 X-0.6250 Y-8.4200
G01 X0.6287 Y-8.4200
G01 X0.6642 Y-8.4181
G01 X0.7030 Y-8.4123
G01 X0.7411 Y-8.4028
G01 X0.7712 Y-8.3922
G01 X0.7848 Y-8.3866
G01 X0.8136 Y-8.3728
G01 X0.8410 Y-8.3565
G01 X0.8532 Y-8.3483
G01 X0.8788 Y-8.3292
G01 X0.9025 Y-8.3079
G01 X0.9129 Y-8.2975
G01 X0.9342 Y-8.2738
G01 X0.9576 Y-8.2422
G01 X0.9741 Y-8.2150
G01 X0.9811 Y-8.2020
G01 X0.9946 Y-8.1731
G01 X1.0055 Y-8.1431
G01 X1.0097 Y-8.1290
G01 X1.0173 Y-8.0980
G01 X1.0231 Y-8.0592
G01 X1.0250 Y-8.0200
G01 X1.0250 Y-7.2200
G01 X1.0236 Y-7.1881
G01 X1.0222 Y-7.1735
G01 X1.0180 Y-7.1456
G01 X1.0157 Y-7.1348
G01 X1.0097 Y-7.1110
G01 X1.0067 Y-7.1004
G01 X0.9959 Y-7.0703
G01 X0.9916 Y-7.0602
G01 X0.9778 Y-7.0314
G01 X0.9576 Y-6.9978
G01 X0.9342 Y-6.9662
G01 X0.9078 Y-6.9372
G01 X0.8788 Y-6.9108
G01 X0.8472 Y-6.8874
G01 X0.8136 Y-6.8672
G01 X0.7815 Y-6.8519
G01 X0.7712 Y-6.8478
G01 X0.7411 Y-6.8372
G01 X0.7066 Y-6.8284
G01 X0.6958 Y-6.8264
G01 X0.6679 Y-6.8223
G01 X0.6503 Y-6.8211
G01 X0.6503 Y-6.1589
G01 X0.6679 Y-6.1577
G01 X0.6994 Y-6.1530
G01 X0.7102 Y-6.1507
G01 X0.7376 Y-6.1438
G01 X0.7481 Y-6.1405
G01 X0.7781 Y-6.1296
G01 X0.8103 Y-6.1145
G01 X0.8200 Y-6.1091
G01 X0.8472 Y-6.0926
G01 X0.8788 Y-6.0692
G01 X0.9078 Y-6.0428
G01 X0.9294 Y-6.0193
G01 X0.9370 Y-6.0103
G01 X1.8986 Y-6.0103
G01 X1.9213 Y-6.0209
G01 X1.9281 Y-6.0237
G01 X2.0119 Y-6.0538
G01 X2.0224 Y-6.0571
G01 X2.1160 Y-6.0804
G01 X2.2150 Y-6.0951
G01 X2.3150 Y-6.1000
G01 X2.7650 Y-6.1000
G01 X2.8576 Y-6.0956
G01 X2.8723 Y-6.0942
G01 X2.9640 Y-6.0804
G01 X3.0611 Y-6.0561
G01 X3.1553 Y-6.0224
G01 X3.2458 Y-5.9796
G01 X3.3317 Y-5.9281
G01 X3.4121 Y-5.8685
G01 X3.4862 Y-5.8012
G01 X3.5508 Y-5.7303
G01 X6.1613 Y-5.7303
G01 X6.1757 Y-5.7489
G01 X6.2425 Y-5.8225
G01 X6.3161 Y-5.8893
G01 X6.3347 Y-5.9037
G01 X6.3347 Y-6.1613
G01 X6.3218 Y-6.1710
G01 X6.3133 Y-6.1781
G01 X6.2479 Y-6.2375
G01 X6.2375 Y-6.2479
G01 X6.1733 Y-6.3189
G01 X6.1120 Y-6.4017
G01 X6.0590 Y-6.4900
G01 X6.0179 Y-6.5765
G01 X6.0123 Y-6.5901
G01 X5.9825 Y-6.6732
G01 X5.9782 Y-6.6873
G01 X5.9552 Y-6.7802
G01 X5.9401 Y-6.8821
G01 X5.9350 Y-6.9850
G01 X5.9395 Y-7.0806
G01 X5.9410 Y-7.0952
G01 X5.9539 Y-7.1826
G01 X5.9568 Y-7.1970
G01 X5.9802 Y-7.2898
G01 X6.0123 Y-7.3799
G01 X6.0164 Y-7.3902
G01 X6.0590 Y-7.4800
G01 X6.1120 Y-7.5683
G01 X6.1733 Y-7.6511
G01 X6.2375 Y-7.7221
G01 X6.2479 Y-7.7325
G01 X6.3133 Y-7.7919
G01 X6.3247 Y-7.8012
G01 X6.4017 Y-7.8580
G01 X6.4900 Y-7.9110
G01 X6.5832 Y-7.9551
G01 X6.6732 Y-7.9875
G01 X6.6873 Y-7.9918
G01 X6.7730 Y-8.0132
G01 X6.7874 Y-8.0161
G01 X6.8821 Y-8.0299
G01 X6.9850 Y-8.0350
G01 X7.0879 Y-8.0299
G01 X7.1826 Y-8.0161
G01 X7.1970 Y-8.0132
G01 X7.2898 Y-7.9898
G01 X7.3799 Y-7.9577
G01 X7.3935 Y-7.9521
G01 X7.4800 Y-7.9110
G01 X7.5621 Y-7.8620
G01 X7.5744 Y-7.8538
G01 X7.6453 Y-7.8012
G01 X7.6567 Y-7.7919
G01 X7.7275 Y-7.7275
G01 X7.7919 Y-7.6567
G01 X7.8012 Y-7.6453
G01 X7.8580 Y-7.5683
G01 X7.9110 Y-7.4800
G01 X7.9521 Y-7.3935
G01 X7.9577 Y-7.3799
G01 X7.9875 Y-7.2968
G01 X7.9908 Y-7.2863
G01 X8.0148 Y-7.1898
G01 X8.0290 Y-7.0952
G01 X8.0305 Y-7.0806
G01 X8.0350 Y-6.9850
G01 X8.0299 Y-6.8821
G01 X8.0161 Y-6.7874
G01 X8.0132 Y-6.7730
G01 X7.9898 Y-6.6802
G01 X7.9577 Y-6.5901
G01 X7.9521 Y-6.5765
G01 X7.9110 Y-6.4900
G01 X7.8580 Y-6.4017
G01 X7.7967 Y-6.3189
G01 X7.7325 Y-6.2479
G01 X7.7221 Y-6.2375
G01 X7.6567 Y-6.1781
G01 X7.6482 Y-6.1710
G01 X7.6353 Y-6.1613
G01 X7.6353 Y-5.9037
G01 X7.6539 Y-5.8893
G01 X7.7275 Y-5.8225
G01 X7.7943 Y-5.7489
G01 X7.8087 Y-5.7303
G01 X8.7893 Y-5.7303
G01 X9.8688 Y-6.8098
G01 X9.9105 Y-6.8478
G01 X9.9219 Y-6.8572
G01 X9.9674 Y-6.8907
G01 X10.0157 Y-6.9198
G01 X10.0287 Y-6.9268
G01 X10.0798 Y-6.9508
G01 X10.1329 Y-6.9699
G01 X10.1470 Y-6.9742
G01 X10.1982 Y-6.9870
G01 X10.2090 Y-6.9890
G01 X10.2649 Y-6.9971
G01 X10.3286 Y-7.0003
G01 X13.3387 Y-7.0002
G01 X13.3987 Y-6.9971
G01 X13.4619 Y-6.9878
G01 X13.5238 Y-6.9723
G01 X13.5838 Y-6.9508
G01 X13.6415 Y-6.9235
G01 X13.6963 Y-6.8907
G01 X13.7475 Y-6.8527
G01 X13.7948 Y-6.8098
G01 X14.4298 Y-6.1748
G01 X14.4727 Y-6.1275
G01 X14.5107 Y-6.0763
G01 X14.5435 Y-6.0215
G01 X14.5708 Y-5.9638
G01 X14.5923 Y-5.9038
G01 X14.6070 Y-5.8455
G01 X14.6090 Y-5.8346
G01 X14.6162 Y-5.7860
G01 X14.6177 Y-5.7714
G01 X14.6202 Y-5.7187
G01 X14.6203 Y-5.5989
G01 X14.6379 Y-5.5977
G01 X14.6694 Y-5.5930
G01 X14.6802 Y-5.5907
G01 X14.7076 Y-5.5838
G01 X14.7181 Y-5.5805
G01 X14.7481 Y-5.5696
G01 X14.7803 Y-5.5545
G01 X14.7900 Y-5.5491
G01 X14.8172 Y-5.5326
G01 X14.8488 Y-5.5092
G01 X14.8778 Y-5.4828
G01 X14.8994 Y-5.4593
G01 X14.9070 Y-5.4503
G01 X21.8700 Y-5.4503
G01 X21.9337 Y-5.4471
G01 X21.9969 Y-5.4378
G01 X22.0588 Y-5.4223
G01 X22.1120 Y-5.4034
G01 X22.1256 Y-5.3978
G01 X22.1765 Y-5.3735
G01 X22.2250 Y-5.3446
G01 X22.2373 Y-5.3364
G01 X22.2825 Y-5.3027
G01 X22.3272 Y-5.2624
G01 X25.1344 Y-2.4552
G01 X29.8297 Y-2.4552
G01 X29.8297 Y-3.5550
G01 X29.8329 Y-3.6187
G01 X29.8416 Y-3.6782
G01 X29.8439 Y-3.6890
G01 X29.8577 Y-3.7438
G01 X29.8792 Y-3.8038
G01 X29.9065 Y-3.8615
G01 X29.9373 Y-3.9132
G01 X29.9436 Y-3.9223
G01 X29.9773 Y-3.9675
G01 X30.0151 Y-4.0095
G01 X30.1350 Y-4.1296
G01 X30.1350 Y-4.4100
G01 X30.1354 Y-4.4210
G01 X30.1361 Y-4.4284
G01 X30.1379 Y-4.4393
G01 X30.1404 Y-4.4500
G01 X30.1438 Y-4.4605
G01 X30.1479 Y-4.4708
G01 X30.1510 Y-4.4774
G01 X30.1545 Y-4.4839
G01 X30.1603 Y-4.4933
G01 X30.1645 Y-4.4994
G01 X30.1714 Y-4.5080
G01 X30.1789 Y-4.5161
G01 X30.1843 Y-4.5211
G01 X30.1956 Y-4.5305
G01 X30.2048 Y-4.5367
G01 X30.2111 Y-4.5405
G01 X30.2242 Y-4.5471
G01 X30.2345 Y-4.5512
G01 X30.2415 Y-4.5535
G01 X30.2486 Y-4.5555
G01 X30.2594 Y-4.5578
G01 X30.2703 Y-4.5593
G01 X30.2776 Y-4.5598
G01 X31.1850 Y-4.5600
G01 X31.1997 Y-4.5593
G01 X31.2106 Y-4.5578
G01 X31.2214 Y-4.5555
G01 X31.2321 Y-4.5524
G01 X31.2424 Y-4.5486
G01 X31.2524 Y-4.5440
G01 X31.2621 Y-4.5387
G01 X31.2714 Y-4.5326
G01 X31.2802 Y-4.5260
G01 X31.2884 Y-4.5186
G01 X31.2961 Y-4.5107
G01 X31.3033 Y-4.5023
G01 X31.3097 Y-4.4933
G01 X31.3155 Y-4.4839
G01 X31.3206 Y-4.4741
G01 X31.3249 Y-4.4640
G01 X31.3285 Y-4.4535
G01 X31.3314 Y-4.4429
G01 X31.3328 Y-4.4356
G01 X31.3343 Y-4.4247
G01 X31.3350 Y-4.4100
G01 X31.3350 Y-4.0606
G01 X31.3384 Y-4.0520
G01 X31.3573 Y-3.9988
G01 X31.3728 Y-3.9369
G01 X31.3821 Y-3.8737
G01 X31.3851 Y-3.8174
G01 X31.3852 Y-3.8063
G01 X31.3821 Y-3.7463
G01 X31.3728 Y-3.6831
G01 X31.3573 Y-3.6212
G01 X31.3384 Y-3.5680
G01 X31.3350 Y-3.5594
G01 X31.3350 Y-3.2063
G01 X31.3343 Y-3.1953
G01 X31.3328 Y-3.1844
G01 X31.3305 Y-3.1736
G01 X31.3274 Y-3.1629
G01 X31.3221 Y-3.1492
G01 X31.3155 Y-3.1361
G01 X31.3076 Y-3.1236
G01 X31.2986 Y-3.1120
G01 X31.2884 Y-3.1014
G01 X31.2773 Y-3.0917
G01 X31.2652 Y-3.0833
G01 X31.2557 Y-3.0777
G01 X31.2458 Y-3.0729
G01 X31.2321 Y-3.0676
G01 X31.2179 Y-3.0636
G01 X31.2070 Y-3.0616
G01 X31.1997 Y-3.0607
G01 X31.1887 Y-3.0600
G01 X31.1303 Y-3.0600
G01 X31.1303 Y-2.3750
G01 X31.1692 Y-2.3731
G01 X31.2008 Y-2.3686
G01 X31.2116 Y-2.3666
G01 X31.2390 Y-2.3597
G01 X31.2531 Y-2.3555
G01 X31.2831 Y-2.3446
G01 X31.3186 Y-2.3278
G01 X31.3522 Y-2.3076
G01 X31.3780 Y-2.2887
G01 X31.3866 Y-2.2818
G01 X31.4075 Y-2.2629
G01 X31.4179 Y-2.2525
G01 X31.4392 Y-2.2288
G01 X31.4626 Y-2.1972
G01 X31.4791 Y-2.1700
G01 X31.4861 Y-2.1570
G01 X31.4996 Y-2.1281
G01 X31.5128 Y-2.0911
G01 X31.5223 Y-2.0530
G01 X31.5272 Y-2.0215
G01 X31.5286 Y-2.0069
G01 X31.5300 Y-1.9750
G01 X31.5300 Y-1.1500
G01 X31.5281 Y-1.1108
G01 X31.5230 Y-1.0756
G01 X31.5207 Y-1.0648
G01 X31.5147 Y-1.0410
G01 X31.5105 Y-1.0269
G01 X31.4996 Y-0.9969
G01 X31.4828 Y-0.9614
G01 X31.4665 Y-0.9340
G01 X31.4583 Y-0.9218
G01 X31.4392 Y-0.8962
G01 X31.4128 Y-0.8672
G01 X31.3838 Y-0.8408
G01 X31.3582 Y-0.8217
G01 X31.3460 Y-0.8135
G01 X31.3186 Y-0.7972
G01 X31.2831 Y-0.7804
G01 X31.2531 Y-0.7695
G01 X31.2390 Y-0.7653
G01 X31.2080 Y-0.7577
G01 X31.1692 Y-0.7519
G01 X31.1300 Y-0.7500
G01 X29.8263 Y-0.7500
G01 X29.7945 Y-0.7516
G01 X29.7835 Y-0.7528
G01 X29.7520 Y-0.7577
G01 X29.7210 Y-0.7653
G01 X29.7069 Y-0.7695
G01 X29.6769 Y-0.7804
G01 X29.6414 Y-0.7972
G01 X29.6140 Y-0.8135
G01 X29.6018 Y-0.8217
G01 X29.5762 Y-0.8408
G01 X29.5525 Y-0.8621
G01 X29.5421 Y-0.8725
G01 X29.5208 Y-0.8962
G01 X29.4974 Y-0.9278
G01 X29.4772 Y-0.9614
G01 X29.4604 Y-0.9969
G01 X29.4472 Y-1.0339
G01 X29.4393 Y-1.0648
G01 X29.4364 Y-1.0792
G01 X29.4319 Y-1.1108
G01 X29.4300 Y-1.1463
G01 X29.4300 Y-1.3548
G01 X25.1107 Y-1.3548
G01 X25.0715 Y-1.3315
G01 X25.0206 Y-1.3072
G01 X25.0070 Y-1.3016
G01 X24.9607 Y-1.2851
G01 X24.9467 Y-1.2808
G01 X24.8919 Y-1.2672
G01 X24.8324 Y-1.2583
G01 X24.8214 Y-1.2573
G01 X24.7650 Y-1.2547
G01 X24.7013 Y-1.2579
G01 X24.6381 Y-1.2672
G01 X24.5762 Y-1.2827
G01 X24.5162 Y-1.3042
G01 X24.4651 Y-1.3282
G01 X24.4521 Y-1.3352
G01 X24.4037 Y-1.3643
G01 X24.3583 Y-1.3978
G01 X24.3469 Y-1.4072
G01 X24.3078 Y-1.4426
G01 X21.6007 Y-4.1497
G01 X14.9070 Y-4.1497
G01 X14.8994 Y-4.1407
G01 X14.8778 Y-4.1172
G01 X14.8488 Y-4.0908
G01 X14.8172 Y-4.0674
G01 X14.7836 Y-4.0472
G01 X14.7481 Y-4.0304
G01 X14.7111 Y-4.0172
G01 X14.6730 Y-4.0077
G01 X14.6415 Y-4.0028
G01 X14.6305 Y-4.0016
G01 X14.5950 Y-4.0000
G01 X13.3450 Y-4.0000
G01 X13.3131 Y-4.0014
G01 X13.2985 Y-4.0028
G01 X13.2670 Y-4.0077
G01 X13.2360 Y-4.0153
G01 X13.2254 Y-4.0183
G01 X13.1988 Y-4.0278
G01 X13.1852 Y-4.0334
G01 X13.1564 Y-4.0472
G01 X13.1228 Y-4.0674
G01 X13.0912 Y-4.0908
G01 X13.0675 Y-4.1121
G01 X13.0571 Y-4.1225
G01 X13.0358 Y-4.1462
G01 X13.0167 Y-4.1718
G01 X13.0085 Y-4.1840
G01 X12.9922 Y-4.2114
G01 X12.9754 Y-4.2469
G01 X12.9622 Y-4.2839
G01 X12.9543 Y-4.3148
G01 X12.9514 Y-4.3292
G01 X12.9469 Y-4.3608
G01 X12.9450 Y-4.4000
G01 X12.9450 Y-5.2000
G01 X12.9469 Y-5.2392
G01 X12.9527 Y-5.2780
G01 X12.9603 Y-5.3090
G01 X12.9645 Y-5.3231
G01 X12.9754 Y-5.3531
G01 X12.9889 Y-5.3820
G01 X12.9959 Y-5.3950
G01 X13.0124 Y-5.4222
G01 X13.0358 Y-5.4538
G01 X13.0571 Y-5.4775
G01 X13.0675 Y-5.4879
G01 X13.0912 Y-5.5092
G01 X13.1168 Y-5.5283
G01 X13.1290 Y-5.5365
G01 X13.1564 Y-5.5528
G01 X13.1852 Y-5.5666
G01 X13.1947 Y-5.5707
G01 X13.0657 Y-5.6997
G01 X10.5980 Y-5.6997
G01 X9.5158 Y-4.6176
G01 X9.4712 Y-4.5773
G01 X9.4259 Y-4.5436
G01 X9.4137 Y-4.5354
G01 X9.3716 Y-4.5102
G01 X9.3586 Y-4.5032
G01 X9.3142 Y-4.4822
G01 X9.3006 Y-4.4766
G01 X9.2474 Y-4.4577
G01 X9.1927 Y-4.4439
G01 X9.1782 Y-4.4410
G01 X9.1224 Y-4.4329
G01 X9.0660 Y-4.4299
G01 X7.8087 Y-4.4297
G01 X7.7943 Y-4.4111
G01 X7.7300 Y-4.3402
G01 X7.7221 Y-4.3325
G01 X7.6539 Y-4.2707
G01 X7.6453 Y-4.2638
G01 X7.5683 Y-4.2070
G01 X7.4832 Y-4.1558
G01 X7.4734 Y-4.1507
G01 X7.3868 Y-4.1099
G01 X7.2898 Y-4.0752
G01 X7.1898 Y-4.0502
G01 X7.0952 Y-4.0360
G01 X7.0806 Y-4.0345
G01 X6.9850 Y-4.0300
G01 X6.8894 Y-4.0345
G01 X6.8748 Y-4.0360
G01 X6.7802 Y-4.0502
G01 X6.6873 Y-4.0732
G01 X6.6732 Y-4.0775
G01 X6.5832 Y-4.1099
G01 X6.4966 Y-4.1507
G01 X6.4836 Y-4.1576
G01 X6.4017 Y-4.2070
G01 X6.3247 Y-4.2638
G01 X6.3133 Y-4.2731
G01 X6.2425 Y-4.3375
G01 X6.1757 Y-4.4111
G01 X6.1613 Y-4.4297
G01 X3.5508 Y-4.4297
G01 X3.4862 Y-4.3588
G01 X3.4177 Y-4.2963
G01 X3.4063 Y-4.2870
G01 X3.3377 Y-4.2361
G01 X3.3255 Y-4.2280
G01 X3.2458 Y-4.1804
G01 X3.1553 Y-4.1376
G01 X3.0611 Y-4.1039
G01 X2.9712 Y-4.0812
G01 X2.9567 Y-4.0783
G01 X2.8650 Y-4.0649
G01 X2.7650 Y-4.0600
G01 X2.3113 Y-4.0600
G01 X2.2150 Y-4.0649
G01 X2.1196 Y-4.0789
G01 X2.1088 Y-4.0812
G01 X2.0189 Y-4.1039
G01 X1.9315 Y-4.1350
G01 X1.9179 Y-4.1406
G01 X1.8342 Y-4.1804
G01 X1.7545 Y-4.2280
G01 X1.7423 Y-4.2361
G01 X1.6679 Y-4.2915
G01 X1.5991 Y-4.3537
G01 X1.5887 Y-4.3641
G01 X1.5265 Y-4.4329
G01 X1.4711 Y-4.5073
G01 X1.4630 Y-4.5195
G01 X1.4154 Y-4.5992
G01 X1.3741 Y-4.6863
G01 X1.3653 Y-4.7097
G01 X0.9370 Y-4.7097
G01 X0.9294 Y-4.7007
G01 X0.9078 Y-4.6772
G01 X0.8788 Y-4.6508
G01 X0.8472 Y-4.6274
G01 X0.8200 Y-4.6109
G01 X0.8103 Y-4.6055
G01 X0.7848 Y-4.5934
G01 X0.7747 Y-4.5891
G01 X0.7446 Y-4.5783
G01 X0.7340 Y-4.5753
G01 X0.7030 Y-4.5677
G01 X0.6715 Y-4.5628
G01 X0.6605 Y-4.5616
G01 X0.6324 Y-4.5602
G01 X-0.6324 Y-4.5602
G01 X-0.6642 Y-4.5619
G01 X-0.6958 Y-4.5664
G01 X-0.7102 Y-4.5693
G01 X-0.7411 Y-4.5772
G01 X-0.7781 Y-4.5904
G01 X-0.8070 Y-4.6039
G01 X-0.8200 Y-4.6109
G01 X-0.8472 Y-4.6274
G01 X-0.8788 Y-4.6508
G01 X-0.9078 Y-4.6772
G01 X-0.9342 Y-4.7062
G01 X-0.9576 Y-4.7378
G01 X-0.9778 Y-4.7714
G01 X-0.9946 Y-4.8069
G01 X-1.0078 Y-4.8439
G01 X-1.0157 Y-4.8748
G01 X-1.0186 Y-4.8892
G01 X-1.0231 Y-4.9208
G01 X-1.0250 Y-4.9600
G01 X-1.0250 Y-5.7600
G01 X-1.0231 Y-5.7992
G01 X-1.0173 Y-5.8380
G01 X-1.0078 Y-5.8761
G01 X-0.9946 Y-5.9131
G01 X-0.9811 Y-5.9420
G01 X-0.9760 Y-5.9518
G01 X-0.9615 Y-5.9760
G01 X-0.9533 Y-5.9882
G01 X-0.9387 Y-6.0080
G01 X-0.9318 Y-6.0166
G01 X-0.9129 Y-6.0375
G01 X-0.9052 Y-6.0454
G01 X-0.8788 Y-6.0692
G01 X-0.8472 Y-6.0926
G01 X-0.8136 Y-6.1128
G01 X-0.7815 Y-6.1281
G01 X-0.7712 Y-6.1322
G01 X-0.7411 Y-6.1428
G01 X-0.7066 Y-6.1516
G01 X-0.6958 Y-6.1536
G01 X-0.6679 Y-6.1577
G01 X-0.6503 Y-6.1589
G01 X-0.6503 Y-6.8211
G01 X-0.6605 Y-6.8216
G01 X-0.6715 Y-6.8228
G01 X-0.6994 Y-6.8270
G01 X-0.7102 Y-6.8293
G01 X-0.7340 Y-6.8353
G01 X-0.7446 Y-6.8383
G01 X-0.7747 Y-6.8491
G01 X-0.7848 Y-6.8534
G01 X-0.8070 Y-6.8639
G01 X-0.8168 Y-6.8690
G01 X-0.8410 Y-6.8835
G01 X-0.8503 Y-6.8895
G01 X-0.8730 Y-6.9063
G01 X-0.8816 Y-6.9132
G01 X-0.9052 Y-6.9346
G01 X-0.9141 Y-6.9437
G01 X-1.6030 Y-6.9437
G01 X-1.6106 Y-6.9347
G01 X-1.6322 Y-6.9112
G01 X-1.6612 Y-6.8848
G01 X-1.6928 Y-6.8614
G01 X-1.7200 Y-6.8449
G01 X-1.7297 Y-6.8395
G01 X-1.7552 Y-6.8274
G01 X-1.7653 Y-6.8231
G01 X-1.7954 Y-6.8123
G01 X-1.8060 Y-6.8093
G01 X-1.8370 Y-6.8017
G01 X-1.8685 Y-6.7968
G01 X-1.8795 Y-6.7956
G01 X-1.9076 Y-6.7942
G00 Z2.0000
G00 X-5.3405 Y-8.5331
G01 F100.00
G01 Z-0.1026
G01 F200.00
G01 X-4.2645 Y-9.6089
G01 X-4.2281 Y-9.6418
G01 X-4.2167 Y-9.6512
G01 X-4.1713 Y-9.6847
G01 X-4.1229 Y-9.7138
G01 X-4.1099 Y-9.7208
G01 X-4.0588 Y-9.7448
G01 X-4.0023 Y-9.7651
G01 X-3.9917 Y-9.7682
G01 X-3.9440 Y-9.7801
G01 X-3.9296 Y-9.7830
G01 X-3.8737 Y-9.7911
G01 X-3.8100 Y-9.7943
G01 X-1.3967 Y-9.7943
G01 X-1.0025 Y-10.1885
G01 X-1.0088 Y-10.2074
G01 X-1.0157 Y-10.2348
G01 X-1.0180 Y-10.2456
G01 X-1.0231 Y-10.2808
G01 X-1.0250 Y-10.3163
G01 X-1.0250 Y-11.1200
G01 X-1.0231 Y-11.1592
G01 X-1.0173 Y-11.1980
G01 X-1.0078 Y-11.2361
G01 X-0.9946 Y-11.2731
G01 X-0.9778 Y-11.3086
G01 X-0.9576 Y-11.3422
G01 X-0.9342 Y-11.3738
G01 X-0.9078 Y-11.4028
G01 X-0.8788 Y-11.4292
G01 X-0.8532 Y-11.4483
G01 X-0.8410 Y-11.4565
G01 X-0.8136 Y-11.4728
G01 X-0.7781 Y-11.4896
G01 X-0.7411 Y-11.5028
G01 X-0.7102 Y-11.5107
G01 X-0.6994 Y-11.5130
G01 X-0.6715 Y-11.5172
G01 X-0.6569 Y-11.5186
G01 X-0.6250 Y-11.5200
G01 X0.6250 Y-11.5200
G01 X0.6569 Y-11.5186
G01 X0.6715 Y-11.5172
G01 X0.7030 Y-11.5123
G01 X0.7411 Y-11.5028
G01 X0.7781 Y-11.4896
G01 X0.8136 Y-11.4728
G01 X0.8472 Y-11.4526
G01 X0.8788 Y-11.4292
G01 X0.9078 Y-11.4028
G01 X0.9294 Y-11.3793
G01 X0.9370 Y-11.3703
G01 X1.9800 Y-11.3703
G01 X2.0437 Y-11.3671
G01 X2.1069 Y-11.3578
G01 X2.1617 Y-11.3442
G01 X2.1757 Y-11.3399
G01 X2.2220 Y-11.3234
G01 X2.2356 Y-11.3178
G01 X2.2865 Y-11.2935
G01 X2.3413 Y-11.2607
G01 X2.3925 Y-11.2227
G01 X2.4396 Y-11.1800
G01 X2.7724 Y-11.1798
G01 X2.8650 Y-11.1751
G01 X2.9567 Y-11.1617
G01 X2.9712 Y-11.1588
G01 X3.0611 Y-11.1361
G01 X3.1553 Y-11.1024
G01 X3.2458 Y-11.0596
G01 X3.3255 Y-11.0120
G01 X3.3377 Y-11.0039
G01 X3.4063 Y-10.9530
G01 X3.4177 Y-10.9437
G01 X3.4862 Y-10.8812
G01 X3.5508 Y-10.8103
G01 X7.6200 Y-10.8103
G01 X7.6837 Y-10.8071
G01 X7.7396 Y-10.7990
G01 X7.7540 Y-10.7961
G01 X7.8017 Y-10.7842
G01 X7.8123 Y-10.7811
G01 X7.8688 Y-10.7608
G01 X7.9199 Y-10.7368
G01 X7.9329 Y-10.7298
G01 X7.9813 Y-10.7007
G01 X8.0267 Y-10.6672
G01 X8.0381 Y-10.6578
G01 X8.0772 Y-10.6224
G01 X10.1493 Y-8.5503
G01 X10.4930 Y-8.5503
G01 X10.5006 Y-8.5593
G01 X10.5222 Y-8.5828
G01 X10.5512 Y-8.6092
G01 X10.5828 Y-8.6326
G01 X10.6100 Y-8.6491
G01 X10.6197 Y-8.6545
G01 X10.6452 Y-8.6666
G01 X10.6553 Y-8.6709
G01 X10.6854 Y-8.6817
G01 X10.6960 Y-8.6847
G01 X10.7270 Y-8.6923
G01 X10.7585 Y-8.6972
G01 X10.7695 Y-8.6984
G01 X10.7976 Y-8.6998
G01 X12.0624 Y-8.6998
G01 X12.0942 Y-8.6981
G01 X12.1294 Y-8.6930
G01 X12.1402 Y-8.6907
G01 X12.1640 Y-8.6847
G01 X12.1746 Y-8.6817
G01 X12.2081 Y-8.6696
G01 X12.2370 Y-8.6561
G01 X12.2500 Y-8.6491
G01 X12.2710 Y-8.6365
G01 X12.2803 Y-8.6305
G01 X12.3088 Y-8.6092
G01 X12.3378 Y-8.5828
G01 X12.3642 Y-8.5538
G01 X12.3833 Y-8.5282
G01 X12.3896 Y-8.5191
G01 X12.4078 Y-8.4886
G01 X12.4216 Y-8.4598
G01 X12.4259 Y-8.4497
G01 X12.4355 Y-8.4231
G01 X12.4388 Y-8.4126
G01 X12.4466 Y-8.3816
G01 X12.4486 Y-8.3708
G01 X12.4531 Y-8.3392
G01 X12.4550 Y-8.3000
G01 X12.4550 Y-7.5000
G01 X12.4536 Y-7.4681
G01 X12.4522 Y-7.4535
G01 X12.4480 Y-7.4256
G01 X12.4457 Y-7.4148
G01 X12.4397 Y-7.3910
G01 X12.4367 Y-7.3804
G01 X12.4259 Y-7.3503
G01 X12.4216 Y-7.3402
G01 X12.4078 Y-7.3114
G01 X12.3876 Y-7.2778
G01 X12.3642 Y-7.2462
G01 X12.3378 Y-7.2172
G01 X12.3088 Y-7.1908
G01 X12.2772 Y-7.1674
G01 X12.2436 Y-7.1472
G01 X12.2148 Y-7.1334
G01 X12.2047 Y-7.1291
G01 X12.1746 Y-7.1183
G01 X12.1640 Y-7.1153
G01 X12.1402 Y-7.1093
G01 X12.1294 Y-7.1070
G01 X12.1015 Y-7.1028
G01 X12.0869 Y-7.1014
G01 X12.0550 Y-7.1000
G01 X10.8050 Y-7.1000
G01 X10.7695 Y-7.1016
G01 X10.7585 Y-7.1028
G01 X10.7270 Y-7.1077
G01 X10.6889 Y-7.1172
G01 X10.6519 Y-7.1304
G01 X10.6164 Y-7.1472
G01 X10.5828 Y-7.1674
G01 X10.5512 Y-7.1908
G01 X10.5222 Y-7.2172
G01 X10.5006 Y-7.2407
G01 X10.4930 Y-7.2497
G01 X9.8800 Y-7.2497
G01 X9.8236 Y-7.2523
G01 X9.8090 Y-7.2538
G01 X9.7604 Y-7.2610
G01 X9.7460 Y-7.2639
G01 X9.6912 Y-7.2777
G01 X9.6312 Y-7.2992
G01 X9.5735 Y-7.3265
G01 X9.5187 Y-7.3593
G01 X9.4675 Y-7.3973
G01 X9.4228 Y-7.4376
G01 X7.3507 Y-9.5097
G01 X3.5508 Y-9.5097
G01 X3.4862 Y-9.4388
G01 X3.4177 Y-9.3763
G01 X3.4063 Y-9.3670
G01 X3.3317 Y-9.3119
G01 X3.2458 Y-9.2604
G01 X3.1621 Y-9.2206
G01 X3.1485 Y-9.2150
G01 X3.0681 Y-9.1862
G01 X3.0576 Y-9.1829
G01 X2.9712 Y-9.1612
G01 X2.9567 Y-9.1583
G01 X2.8650 Y-9.1449
G01 X2.7724 Y-9.1402
G01 X2.3150 Y-9.1400
G01 X2.2150 Y-9.1449
G01 X2.1160 Y-9.1596
G01 X2.0260 Y-9.1820
G01 X2.0119 Y-9.1862
G01 X1.9315 Y-9.2150
G01 X1.9179 Y-9.2206
G01 X1.8342 Y-9.2604
G01 X1.7483 Y-9.3119
G01 X1.6679 Y-9.3715
G01 X1.5938 Y-9.4388
G01 X1.5265 Y-9.5129
G01 X1.4669 Y-9.5933
G01 X1.4154 Y-9.6792
G01 X1.3756 Y-9.7629
G01 X1.3700 Y-9.7765
G01 X1.3389 Y-9.8639
G01 X1.3162 Y-9.9538
G01 X1.3133 Y-9.9683
G01 X1.3008 Y-10.0527
G01 X1.2993 Y-10.0697
G01 X0.9370 Y-10.0697
G01 X0.9294 Y-10.0607
G01 X0.9078 Y-10.0372
G01 X0.8843 Y-10.0156
G01 X0.8730 Y-10.0063
G01 X0.8472 Y-9.9874
G01 X0.8168 Y-9.9690
G01 X0.8070 Y-9.9639
G01 X0.7848 Y-9.9534
G01 X0.7747 Y-9.9491
G01 X0.7411 Y-9.9372
G01 X0.7102 Y-9.9293
G01 X0.6994 Y-9.9270
G01 X0.6679 Y-9.9223
G01 X0.6569 Y-9.9214
G01 X0.6287 Y-9.9200
G01 X0.5468 Y-9.9200
G01 X0.5386 Y-9.9071
G01 X0.5027 Y-9.8588
G01 X0.4598 Y-9.8116
G01 X-0.6702 Y-8.6816
G01 X-0.7148 Y-8.6413
G01 X-0.7601 Y-8.6076
G01 X-0.7723 Y-8.5994
G01 X-0.8208 Y-8.5705
G01 X-0.8718 Y-8.5462
G01 X-0.8854 Y-8.5406
G01 X-0.9351 Y-8.5229
G01 X-0.9457 Y-8.5198
G01 X-0.9933 Y-8.5079
G01 X-1.0078 Y-8.5050
G01 X-1.0636 Y-8.4969
G01 X-1.1274 Y-8.4937
G01 X-3.5407 Y-8.4937
G01 X-4.1643 Y-7.8701
G01 X-4.1483 Y-7.8053
G01 X-4.1355 Y-7.7204
G01 X-4.1340 Y-7.7058
G01 X-4.1302 Y-7.6274
G01 X-4.1302 Y-7.6126
G01 X-4.1346 Y-7.5269
G01 X-4.1483 Y-7.4347
G01 X-4.1709 Y-7.3442
G01 X-4.1997 Y-7.2633
G01 X-4.2053 Y-7.2497
G01 X-4.2389 Y-7.1787
G01 X-4.2458 Y-7.1658
G01 X-4.2901 Y-7.0922
G01 X-4.3411 Y-7.0231
G01 X-4.3504 Y-7.0118
G01 X-4.4082 Y-6.9482
G01 X-4.4718 Y-6.8904
G01 X-4.4831 Y-6.8811
G01 X-4.5462 Y-6.8343
G01 X-4.5584 Y-6.8262
G01 X-4.6322 Y-6.7822
G01 X-4.7165 Y-6.7423
G01 X-4.8042 Y-6.7109
G01 X-4.8911 Y-6.6890
G01 X-4.9019 Y-6.6870
G01 X-4.9869 Y-6.6746
G01 X-5.0800 Y-6.6700
G01 X-5.1731 Y-6.6746
G01 X-5.2653 Y-6.6883
G01 X-5.3558 Y-6.7109
G01 X-5.4435 Y-6.7423
G01 X-5.5278 Y-6.7822
G01 X-5.6078 Y-6.8301
G01 X-5.6827 Y-6.8856
G01 X-5.7518 Y-6.9482
G01 X-5.8144 Y-7.0173
G01 X-5.8699 Y-7.0922
G01 X-5.9178 Y-7.1722
G01 X-5.9577 Y-7.2565
G01 X-5.9891 Y-7.3442
G01 X-6.0101 Y-7.4275
G01 X-6.0130 Y-7.4419
G01 X-6.0254 Y-7.5269
G01 X-6.0300 Y-7.6200
G01 X-6.0254 Y-7.7131
G01 X-6.0117 Y-7.8053
G01 X-5.9891 Y-7.8958
G01 X-5.9577 Y-7.9835
G01 X-5.9178 Y-8.0678
G01 X-5.8738 Y-8.1416
G01 X-5.8657 Y-8.1538
G01 X-5.8144 Y-8.2227
G01 X-5.7518 Y-8.2918
G01 X-5.6827 Y-8.3544
G01 X-5.6138 Y-8.4057
G01 X-5.6016 Y-8.4138
G01 X-5.5278 Y-8.4578
G01 X-5.4503 Y-8.4947
G01 X-5.4367 Y-8.5003
G01 X-5.3628 Y-8.5268
G01 X-5.3522 Y-8.5301
G01 X-5.3405 Y-8.5331
G00 Z2.0000
G00 X2.3150 Y-6.6000
G01 F100.00
G01 Z-0.1026
G01 F200.00
G01 X2.2150 Y-6.6049
G01 X2.1233 Y-6.6183
G01 X2.1088 Y-6.6212
G01 X2.0189 Y-6.6439
G01 X1.9247 Y-6.6776
G01 X1.8408 Y-6.7171
G01 X1.8278 Y-6.7241
G01 X1.7545 Y-6.7680
G01 X1.7423 Y-6.7761
G01 X1.6679 Y-6.8315
G01 X1.5938 Y-6.8988
G01 X1.5265 Y-6.9729
G01 X1.4711 Y-7.0473
G01 X1.4630 Y-7.0595
G01 X1.4191 Y-7.1328
G01 X1.4121 Y-7.1458
G01 X1.3726 Y-7.2297
G01 X1.3389 Y-7.3239
G01 X1.3162 Y-7.4138
G01 X1.3133 Y-7.4283
G01 X1.2999 Y-7.5200
G01 X1.2950 Y-7.6200
G01 X1.2999 Y-7.7200
G01 X1.3133 Y-7.8117
G01 X1.3162 Y-7.8262
G01 X1.3370 Y-7.9090
G01 X1.3412 Y-7.9231
G01 X1.3726 Y-8.0103
G01 X1.4154 Y-8.1008
G01 X1.4669 Y-8.1867
G01 X1.5220 Y-8.2613
G01 X1.5313 Y-8.2727
G01 X1.5887 Y-8.3359
G01 X1.5991 Y-8.3463
G01 X1.6679 Y-8.4085
G01 X1.7453 Y-8.4660
G01 X1.7545 Y-8.4720
G01 X1.8342 Y-8.5196
G01 X1.9247 Y-8.5624
G01 X2.0189 Y-8.5961
G01 X2.1088 Y-8.6188
G01 X2.1233 Y-8.6217
G01 X2.2150 Y-8.6351
G01 X2.3113 Y-8.6400
G01 X2.7650 Y-8.6400
G01 X2.8650 Y-8.6351
G01 X2.9640 Y-8.6204
G01 X3.0611 Y-8.5961
G01 X3.1553 Y-8.5624
G01 X3.2458 Y-8.5196
G01 X3.3317 Y-8.4681
G01 X3.4121 Y-8.4085
G01 X3.4862 Y-8.3412
G01 X3.5508 Y-8.2703
G01 X3.8207 Y-8.2703
G01 X4.0550 Y-8.5046
G01 X4.0550 Y-9.0137
G01 X4.0569 Y-9.0492
G01 X4.0614 Y-9.0808
G01 X4.0634 Y-9.0916
G01 X4.0712 Y-9.1226
G01 X4.0745 Y-9.1331
G01 X4.0854 Y-9.1631
G01 X4.1022 Y-9.1986
G01 X4.1224 Y-9.2322
G01 X4.1413 Y-9.2580
G01 X4.1506 Y-9.2693
G01 X4.1696 Y-9.2902
G01 X4.1775 Y-9.2979
G01 X4.2012 Y-9.3192
G01 X4.2268 Y-9.3383
G01 X4.2359 Y-9.3446
G01 X4.2632 Y-9.3610
G01 X4.2730 Y-9.3661
G01 X4.2985 Y-9.3781
G01 X4.3088 Y-9.3822
G01 X4.3389 Y-9.3928
G01 X4.3770 Y-9.4023
G01 X4.4158 Y-9.4081
G01 X4.4513 Y-9.4100
G01 X5.7050 Y-9.4100
G01 X5.7405 Y-9.4084
G01 X5.7515 Y-9.4072
G01 X5.7830 Y-9.4023
G01 X5.8211 Y-9.3928
G01 X5.8581 Y-9.3796
G01 X5.8870 Y-9.3661
G01 X5.9000 Y-9.3591
G01 X5.9241 Y-9.3446
G01 X5.9332 Y-9.3383
G01 X5.9588 Y-9.3192
G01 X5.9825 Y-9.2979
G01 X5.9904 Y-9.2902
G01 X6.0118 Y-9.2666
G01 X6.0187 Y-9.2580
G01 X6.0355 Y-9.2353
G01 X6.0415 Y-9.2260
G01 X6.0578 Y-9.1986
G01 X6.0716 Y-9.1698
G01 X6.0772 Y-9.1562
G01 X6.0878 Y-9.1261
G01 X6.0966 Y-9.0916
G01 X6.0986 Y-9.0808
G01 X6.1022 Y-9.0565
G01 X6.1034 Y-9.0455
G01 X6.1050 Y-9.0100
G01 X6.1050 Y-8.2100
G01 X6.1034 Y-8.1745
G01 X6.1022 Y-8.1635
G01 X6.0973 Y-8.1320
G01 X6.0878 Y-8.0939
G01 X6.0746 Y-8.0569
G01 X6.0611 Y-8.0280
G01 X6.0541 Y-8.0150
G01 X6.0396 Y-7.9909
G01 X6.0333 Y-7.9818
G01 X6.0142 Y-7.9562
G01 X5.9929 Y-7.9325
G01 X5.9852 Y-7.9246
G01 X5.9616 Y-7.9032
G01 X5.9530 Y-7.8963
G01 X5.9303 Y-7.8795
G01 X5.9210 Y-7.8735
G01 X5.8936 Y-7.8572
G01 X5.8648 Y-7.8434
G01 X5.8512 Y-7.8378
G01 X5.8211 Y-7.8272
G01 X5.7902 Y-7.8193
G01 X5.7758 Y-7.8164
G01 X5.7442 Y-7.8119
G01 X5.7050 Y-7.8100
G01 X5.1996 Y-7.8100
G01 X4.5498 Y-7.1602
G01 X4.5081 Y-7.1222
G01 X4.4967 Y-7.1128
G01 X4.4513 Y-7.0793
G01 X4.3965 Y-7.0465
G01 X4.3388 Y-7.0192
G01 X4.2857 Y-7.0001
G01 X4.2717 Y-6.9958
G01 X4.2240 Y-6.9839
G01 X4.2096 Y-6.9810
G01 X4.1537 Y-6.9729
G01 X4.0974 Y-6.9699
G01 X3.5508 Y-6.9697
G01 X3.4862 Y-6.8988
G01 X3.4177 Y-6.8363
G01 X3.4063 Y-6.8270
G01 X3.3317 Y-6.7719
G01 X3.2458 Y-6.7204
G01 X3.1621 Y-6.6806
G01 X3.1485 Y-6.6750
G01 X3.0611 Y-6.6439
G01 X2.9640 Y-6.6196
G01 X2.8723 Y-6.6058
G01 X2.8576 Y-6.6044
G01 X2.7650 Y-6.6000
G01 X2.3150 Y-6.6000
G00 Z2.0000
G00 X10.7976 Y-5.5998
G01 F100.00
G01 Z-0.1026
G01 F200.00
G01 X12.0550 Y-5.6000
G01 X12.0905 Y-5.5984
G01 X12.1015 Y-5.5972
G01 X12.1294 Y-5.5930
G01 X12.1402 Y-5.5907
G01 X12.1640 Y-5.5847
G01 X12.1746 Y-5.5817
G01 X12.2012 Y-5.5722
G01 X12.2148 Y-5.5666
G01 X12.2436 Y-5.5528
G01 X12.2772 Y-5.5326
G01 X12.3088 Y-5.5092
G01 X12.3352 Y-5.4854
G01 X12.3429 Y-5.4775
G01 X12.3642 Y-5.4538
G01 X12.3876 Y-5.4222
G01 X12.4078 Y-5.3886
G01 X12.4246 Y-5.3531
G01 X12.4378 Y-5.3161
G01 X12.4473 Y-5.2780
G01 X12.4531 Y-5.2392
G01 X12.4550 Y-5.2037
G01 X12.4550 Y-4.4000
G01 X12.4531 Y-4.3608
G01 X12.4486 Y-4.3292
G01 X12.4457 Y-4.3148
G01 X12.4378 Y-4.2839
G01 X12.4246 Y-4.2469
G01 X12.4078 Y-4.2114
G01 X12.3915 Y-4.1840
G01 X12.3833 Y-4.1718
G01 X12.3665 Y-4.1491
G01 X12.3595 Y-4.1408
G01 X12.6744 Y-3.8253
G01 X13.9774 Y-3.8251
G01 X14.0337 Y-3.8221
G01 X14.0896 Y-3.8140
G01 X14.1040 Y-3.8111
G01 X14.1517 Y-3.7992
G01 X14.1657 Y-3.7949
G01 X14.2188 Y-3.7758
G01 X14.2627 Y-3.7552
G01 X18.1800 Y-3.7552
G01 X18.2266 Y-3.7531
G01 X18.2376 Y-3.7522
G01 X18.2873 Y-3.7446
G01 X18.3326 Y-3.7335
G01 X18.3467 Y-3.7292
G01 X18.3905 Y-3.7133
G01 X18.4394 Y-3.6902
G01 X18.4794 Y-3.6664
G01 X18.4887 Y-3.6604
G01 X18.5232 Y-3.6348
G01 X18.5352 Y-3.6250
G01 X19.0850 Y-3.6250
G01 X19.1107 Y-3.6239
G01 X19.1363 Y-3.6205
G01 X19.1471 Y-3.6185
G01 X19.1721 Y-3.6121
G01 X19.1929 Y-3.6048
G01 X19.2032 Y-3.6007
G01 X19.2264 Y-3.5896
G01 X19.2455 Y-3.5784
G01 X19.2547 Y-3.5724
G01 X19.2724 Y-3.5592
G01 X19.2781 Y-3.5545
G01 X19.2945 Y-3.5397
G01 X19.2997 Y-3.5345
G01 X19.3145 Y-3.5181
G01 X19.3192 Y-3.5124
G01 X19.3324 Y-3.4947
G01 X19.3364 Y-3.4886
G01 X19.3478 Y-3.4696
G01 X19.3513 Y-3.4632
G01 X19.3607 Y-3.4432
G01 X19.3635 Y-3.4364
G01 X19.3710 Y-3.4156
G01 X19.3731 Y-3.4085
G01 X19.3785 Y-3.3871
G01 X19.3799 Y-3.3799
G01 X19.3836 Y-3.3544
G01 X19.3850 Y-3.3287
G01 X19.3850 Y-3.0213
G01 X19.3836 Y-2.9956
G01 X19.3805 Y-2.9737
G01 X19.3785 Y-2.9629
G01 X19.3721 Y-2.9379
G01 X19.3648 Y-2.9171
G01 X19.3607 Y-2.9068
G01 X19.3513 Y-2.8868
G01 X19.3459 Y-2.8772
G01 X19.3344 Y-2.8583
G01 X19.3214 Y-2.8405
G01 X19.3145 Y-2.8319
G01 X19.2971 Y-2.8129
G01 X19.2781 Y-2.7955
G01 X19.2695 Y-2.7886
G01 X19.2517 Y-2.7756
G01 X19.2328 Y-2.7641
G01 X19.2232 Y-2.7587
G01 X19.1998 Y-2.7478
G01 X19.1791 Y-2.7402
G01 X19.1685 Y-2.7369
G01 X19.1435 Y-2.7308
G01 X19.1217 Y-2.7273
G01 X19.1107 Y-2.7261
G01 X19.0887 Y-2.7250
G01 X18.5261 Y-2.7250
G01 X18.5126 Y-2.7155
G01 X18.4694 Y-2.6898
G01 X18.4273 Y-2.6697
G01 X18.4137 Y-2.6640
G01 X18.3697 Y-2.6485
G01 X18.3209 Y-2.6361
G01 X18.3101 Y-2.6341
G01 X18.2712 Y-2.6284
G01 X18.2566 Y-2.6269
G01 X18.2100 Y-2.6248
G01 X18.1634 Y-2.6269
G01 X18.1524 Y-2.6279
G01 X18.1099 Y-2.6341
G01 X18.0991 Y-2.6361
G01 X18.0538 Y-2.6475
G01 X18.0321 Y-2.6548
G01 X14.3592 Y-2.6548
G01 X14.3373 Y-2.6386
G01 X14.3282 Y-2.6323
G01 X14.2829 Y-2.6052
G01 X14.2733 Y-2.5998
G01 X14.2188 Y-2.5742
G01 X14.1623 Y-2.5539
G01 X14.1517 Y-2.5508
G01 X14.1040 Y-2.5389
G01 X14.0896 Y-2.5360
G01 X14.0337 Y-2.5279
G01 X13.9774 Y-2.5249
G01 X12.4013 Y-2.5248
G01 X12.3413 Y-2.5279
G01 X12.2854 Y-2.5360
G01 X12.2710 Y-2.5389
G01 X12.2162 Y-2.5527
G01 X12.1562 Y-2.5742
G01 X12.1051 Y-2.5982
G01 X12.0921 Y-2.6052
G01 X12.0437 Y-2.6343
G01 X11.9983 Y-2.6678
G01 X11.9869 Y-2.6772
G01 X11.9505 Y-2.7101
G01 X10.9702 Y-3.6902
G01 X10.9322 Y-3.7319
G01 X10.9228 Y-3.7433
G01 X10.8893 Y-3.7887
G01 X10.8583 Y-3.8402
G01 X10.8532 Y-3.8501
G01 X10.8322 Y-3.8944
G01 X10.8279 Y-3.9046
G01 X10.8077 Y-3.9612
G01 X10.7978 Y-4.0002
G01 X10.7658 Y-4.0019
G01 X10.7342 Y-4.0064
G01 X10.7198 Y-4.0093
G01 X10.6889 Y-4.0172
G01 X10.6519 Y-4.0304
G01 X10.6230 Y-4.0439
G01 X10.6100 Y-4.0509
G01 X10.5828 Y-4.0674
G01 X10.5512 Y-4.0908
G01 X10.5275 Y-4.1121
G01 X10.5171 Y-4.1225
G01 X10.4958 Y-4.1462
G01 X10.4767 Y-4.1718
G01 X10.4685 Y-4.1840
G01 X10.4522 Y-4.2114
G01 X10.4384 Y-4.2402
G01 X10.4341 Y-4.2503
G01 X10.4233 Y-4.2804
G01 X10.4203 Y-4.2910
G01 X10.4134 Y-4.3184
G01 X10.4114 Y-4.3292
G01 X10.4069 Y-4.3608
G01 X10.4050 Y-4.3963
G01 X10.4050 Y-5.2037
G01 X10.4066 Y-5.2355
G01 X10.4078 Y-5.2465
G01 X10.4127 Y-5.2780
G01 X10.4212 Y-5.3126
G01 X10.4245 Y-5.3231
G01 X10.4328 Y-5.3462
G01 X10.4384 Y-5.3598
G01 X10.4522 Y-5.3886
G01 X10.4724 Y-5.4222
G01 X10.4958 Y-5.4538
G01 X10.5171 Y-5.4775
G01 X10.5275 Y-5.4879
G01 X10.5457 Y-5.5044
G01 X10.5541 Y-5.5115
G01 X10.5828 Y-5.5326
G01 X10.6132 Y-5.5510
G01 X10.6230 Y-5.5561
G01 X10.6452 Y-5.5666
G01 X10.6588 Y-5.5722
G01 X10.6889 Y-5.5828
G01 X10.7270 Y-5.5923
G01 X10.7658 Y-5.5981
G01 X10.7976 Y-5.5998
G00 Z2.0000
G00 X13.3197 Y-8.6989
G01 F100.00
G01 Z-0.1026
G01 F200.00
G01 X13.3197 Y-9.0811
G01 X13.3021 Y-9.0823
G01 X13.2742 Y-9.0864
G01 X13.2634 Y-9.0884
G01 X13.2289 Y-9.0972
G01 X13.1988 Y-9.1078
G01 X13.1885 Y-9.1119
G01 X13.1564 Y-9.1272
G01 X13.1228 Y-9.1474
G01 X13.0912 Y-9.1708
G01 X13.0648 Y-9.1946
G01 X13.0571 Y-9.2025
G01 X13.0382 Y-9.2234
G01 X13.0313 Y-9.2320
G01 X13.0167 Y-9.2518
G01 X13.0085 Y-9.2640
G01 X12.9940 Y-9.2882
G01 X12.9889 Y-9.2980
G01 X12.9784 Y-9.3202
G01 X12.9741 Y-9.3303
G01 X12.9645 Y-9.3569
G01 X12.9612 Y-9.3674
G01 X12.9527 Y-9.4020
G01 X12.9478 Y-9.4335
G01 X12.9466 Y-9.4445
G01 X12.9450 Y-9.4800
G01 X12.9450 Y-10.2800
G01 X12.9469 Y-10.3192
G01 X12.9527 Y-10.3580
G01 X12.9603 Y-10.3890
G01 X12.9645 Y-10.4031
G01 X12.9754 Y-10.4331
G01 X12.9889 Y-10.4620
G01 X12.9959 Y-10.4750
G01 X13.0124 Y-10.5022
G01 X13.0358 Y-10.5338
G01 X13.0622 Y-10.5628
G01 X13.0857 Y-10.5844
G01 X13.0970 Y-10.5937
G01 X13.1228 Y-10.6126
G01 X13.1500 Y-10.6291
G01 X13.1597 Y-10.6345
G01 X13.1885 Y-10.6481
G01 X13.1988 Y-10.6522
G01 X13.2289 Y-10.6628
G01 X13.2670 Y-10.6723
G01 X13.3058 Y-10.6781
G01 X13.3413 Y-10.6800
G01 X14.5950 Y-10.6800
G01 X14.6269 Y-10.6786
G01 X14.6415 Y-10.6772
G01 X14.6730 Y-10.6723
G01 X14.7111 Y-10.6628
G01 X14.7481 Y-10.6496
G01 X14.7836 Y-10.6328
G01 X14.8172 Y-10.6126
G01 X14.8488 Y-10.5892
G01 X14.8778 Y-10.5628
G01 X14.8994 Y-10.5393
G01 X14.9070 Y-10.5303
G01 X15.5730 Y-10.5303
G01 X15.5806 Y-10.5393
G01 X15.6022 Y-10.5628
G01 X15.6312 Y-10.5892
G01 X15.6628 Y-10.6126
G01 X15.6964 Y-10.6328
G01 X15.7319 Y-10.6496
G01 X15.7689 Y-10.6628
G01 X15.8070 Y-10.6723
G01 X15.8458 Y-10.6781
G01 X15.8850 Y-10.6800
G01 X17.1387 Y-10.6800
G01 X17.1669 Y-10.6786
G01 X17.1779 Y-10.6777
G01 X17.2094 Y-10.6730
G01 X17.2202 Y-10.6707
G01 X17.2511 Y-10.6628
G01 X17.2812 Y-10.6522
G01 X17.2915 Y-10.6481
G01 X17.3170 Y-10.6361
G01 X17.3300 Y-10.6291
G01 X17.3572 Y-10.6126
G01 X17.3888 Y-10.5892
G01 X17.4178 Y-10.5628
G01 X17.4394 Y-10.5393
G01 X17.4470 Y-10.5303
G01 X18.0880 Y-10.5303
G01 X18.0956 Y-10.5393
G01 X18.1172 Y-10.5628
G01 X18.1462 Y-10.5892
G01 X18.1778 Y-10.6126
G01 X18.2114 Y-10.6328
G01 X18.2469 Y-10.6496
G01 X18.2839 Y-10.6628
G01 X18.3220 Y-10.6723
G01 X18.3608 Y-10.6781
G01 X18.4000 Y-10.6800
G01 X19.7037 Y-10.6800
G01 X19.7319 Y-10.6786
G01 X19.7429 Y-10.6777
G01 X19.7744 Y-10.6730
G01 X19.7852 Y-10.6707
G01 X19.8161 Y-10.6628
G01 X19.8462 Y-10.6522
G01 X19.8565 Y-10.6481
G01 X19.8853 Y-10.6345
G01 X19.8950 Y-10.6291
G01 X19.9222 Y-10.6126
G01 X19.9480 Y-10.5937
G01 X19.9566 Y-10.5868
G01 X19.9775 Y-10.5679
G01 X19.9854 Y-10.5602
G01 X20.0068 Y-10.5366
G01 X20.0213 Y-10.5178
G01 X21.2097 Y-10.5178
G01 X21.2098 Y-11.7537
G01 X21.2129 Y-11.8137
G01 X21.2222 Y-11.8769
G01 X21.2377 Y-11.9388
G01 X21.2566 Y-11.9920
G01 X21.2600 Y-12.0006
G01 X21.2600 Y-12.1537
G01 X21.2607 Y-12.1647
G01 X21.2616 Y-12.1720
G01 X21.2636 Y-12.1829
G01 X21.2665 Y-12.1935
G01 X21.2701 Y-12.2040
G01 X21.2729 Y-12.2108
G01 X21.2795 Y-12.2239
G01 X21.2833 Y-12.2302
G01 X21.2895 Y-12.2394
G01 X21.2989 Y-12.2507
G01 X21.3066 Y-12.2586
G01 X21.3120 Y-12.2636
G01 X21.3236 Y-12.2726
G01 X21.3329 Y-12.2787
G01 X21.3393 Y-12.2823
G01 X21.3492 Y-12.2871
G01 X21.3560 Y-12.2899
G01 X21.3665 Y-12.2935
G01 X21.3771 Y-12.2964
G01 X21.3880 Y-12.2984
G01 X21.3990 Y-12.2996
G01 X21.4100 Y-12.3000
G01 X21.5140 Y-12.3000
G01 X21.5535 Y-12.3235
G01 X21.6044 Y-12.3478
G01 X21.6180 Y-12.3534
G01 X21.6643 Y-12.3699
G01 X21.6783 Y-12.3742
G01 X21.7331 Y-12.3878
G01 X21.7890 Y-12.3962
G01 X21.8036 Y-12.3977
G01 X21.8526 Y-12.4001
G01 X21.8674 Y-12.4001
G01 X21.9237 Y-12.3971
G01 X21.9832 Y-12.3884
G01 X21.9940 Y-12.3861
G01 X22.0488 Y-12.3723
G01 X22.1054 Y-12.3521
G01 X22.1156 Y-12.3478
G01 X22.1633 Y-12.3252
G01 X22.1729 Y-12.3198
G01 X22.2060 Y-12.3000
G01 X22.3174 Y-12.2998
G01 X22.3284 Y-12.2989
G01 X22.3356 Y-12.2978
G01 X22.3464 Y-12.2955
G01 X22.3535 Y-12.2935
G01 X22.3674 Y-12.2886
G01 X22.3741 Y-12.2856
G01 X22.3839 Y-12.2805
G01 X22.3902 Y-12.2767
G01 X22.3994 Y-12.2705
G01 X22.4052 Y-12.2660
G01 X22.4134 Y-12.2586
G01 X22.4236 Y-12.2480
G01 X22.4283 Y-12.2423
G01 X22.4347 Y-12.2333
G01 X22.4387 Y-12.2271
G01 X22.4440 Y-12.2174
G01 X22.4499 Y-12.2040
G01 X22.4535 Y-12.1935
G01 X22.4564 Y-12.1829
G01 X22.4589 Y-12.1684
G01 X22.4598 Y-12.1574
G01 X22.4600 Y-12.0006
G01 X22.4634 Y-11.9920
G01 X22.4823 Y-11.9388
G01 X22.4978 Y-11.8769
G01 X22.5071 Y-11.8137
G01 X22.5102 Y-11.7537
G01 X22.5103 Y-10.5178
G01 X26.1082 Y-10.5178
G01 X32.5602 Y-16.9698
G01 X32.6019 Y-17.0078
G01 X32.6133 Y-17.0172
G01 X32.6587 Y-17.0507
G01 X32.7071 Y-17.0798
G01 X32.7201 Y-17.0868
G01 X32.7712 Y-17.1108
G01 X32.8312 Y-17.1323
G01 X32.8860 Y-17.1461
G01 X32.9004 Y-17.1490
G01 X32.9490 Y-17.1562
G01 X32.9636 Y-17.1577
G01 X33.0200 Y-17.1603
G01 X35.2907 Y-17.1603
G01 X36.1797 Y-18.0493
G01 X36.1797 Y-22.5907
G01 X35.2907 Y-23.4797
G01 X19.4880 Y-23.4797
G01 X18.4303 Y-22.4220
G01 X18.4302 Y-18.7763
G01 X18.4271 Y-18.7163
G01 X18.4178 Y-18.6531
G01 X18.4023 Y-18.5912
G01 X18.3834 Y-18.5380
G01 X18.3778 Y-18.5244
G01 X18.3535 Y-18.4735
G01 X18.3246 Y-18.4250
G01 X18.3164 Y-18.4127
G01 X18.2850 Y-18.3704
G01 X18.2778 Y-18.3619
G01 X18.2424 Y-18.3228
G01 X18.1547 Y-18.2351
G01 X18.1500 Y-18.2193
G01 X18.1308 Y-18.1662
G01 X18.1035 Y-18.1085
G01 X18.0746 Y-18.0600
G01 X18.0686 Y-18.0507
G01 X18.0350 Y-18.0054
G01 X18.0279 Y-17.9969
G01 X18.0102 Y-17.9775
G01 X18.0062 Y-17.9645
G01 X18.0006 Y-17.9509
G01 X17.9955 Y-17.9411
G01 X17.9876 Y-17.9286
G01 X17.9810 Y-17.9198
G01 X17.9736 Y-17.9116
G01 X17.9684 Y-17.9064
G01 X17.9602 Y-17.8990
G01 X17.9514 Y-17.8924
G01 X17.9421 Y-17.8863
G01 X17.9324 Y-17.8810
G01 X17.9258 Y-17.8779
G01 X17.9155 Y-17.8738
G01 X17.9014 Y-17.8695
G01 X17.8906 Y-17.8672
G01 X17.8768 Y-17.8655
G01 X17.8365 Y-17.8415
G01 X17.7822 Y-17.8157
G01 X17.7720 Y-17.8116
G01 X17.7258 Y-17.7951
G01 X17.7152 Y-17.7917
G01 X17.6569 Y-17.7772
G01 X17.6011 Y-17.7688
G01 X17.5864 Y-17.7673
G01 X17.5300 Y-17.7647
G01 X17.4736 Y-17.7673
G01 X17.4590 Y-17.7688
G01 X17.4032 Y-17.7772
G01 X17.3448 Y-17.7917
G01 X17.3343 Y-17.7951
G01 X17.2880 Y-17.8116
G01 X17.2778 Y-17.8157
G01 X17.2235 Y-17.8415
G01 X17.1840 Y-17.8650
G01 X16.9613 Y-17.8650
G01 X16.9466 Y-17.8661
G01 X16.9357 Y-17.8679
G01 X16.9215 Y-17.8715
G01 X16.9110 Y-17.8751
G01 X16.9009 Y-17.8794
G01 X16.8911 Y-17.8845
G01 X16.8817 Y-17.8903
G01 X16.8727 Y-17.8967
G01 X16.8643 Y-17.9039
G01 X16.8564 Y-17.9116
G01 X16.8514 Y-17.9170
G01 X16.8445 Y-17.9256
G01 X16.8383 Y-17.9348
G01 X16.8327 Y-17.9443
G01 X16.8294 Y-17.9509
G01 X16.8251 Y-17.9610
G01 X16.8215 Y-17.9715
G01 X16.8186 Y-17.9821
G01 X16.8166 Y-17.9930
G01 X16.8157 Y-18.0003
G01 X16.8150 Y-18.0150
G01 X16.8150 Y-18.8150
G01 X16.8157 Y-18.8297
G01 X16.8179 Y-18.8443
G01 X16.8215 Y-18.8585
G01 X16.8264 Y-18.8724
G01 X16.8327 Y-18.8857
G01 X16.8403 Y-18.8983
G01 X16.8490 Y-18.9102
G01 X16.8589 Y-18.9211
G01 X16.8698 Y-18.9310
G01 X16.8817 Y-18.9397
G01 X16.8879 Y-18.9437
G01 X16.8976 Y-18.9490
G01 X16.9110 Y-18.9549
G01 X16.9250 Y-18.9596
G01 X16.9321 Y-18.9614
G01 X16.9430 Y-18.9634
G01 X16.9503 Y-18.9643
G01 X16.9613 Y-18.9650
G01 X17.0475 Y-18.9650
G01 X17.0676 Y-18.9872
G01 X17.1297 Y-19.0493
G01 X17.1297 Y-22.6914
G01 X17.1323 Y-22.7478
G01 X17.1338 Y-22.7624
G01 X17.1422 Y-22.8182
G01 X17.1567 Y-22.8766
G01 X17.1601 Y-22.8871
G01 X17.1792 Y-22.9402
G01 X17.2032 Y-22.9913
G01 X17.2102 Y-23.0043
G01 X17.2393 Y-23.0526
G01 X17.2728 Y-23.0981
G01 X17.2822 Y-23.1095
G01 X17.3176 Y-23.1485
G01 X18.7588 Y-24.5898
G01 X18.8061 Y-24.6327
G01 X18.8514 Y-24.6664
G01 X18.8636 Y-24.6746
G01 X18.9121 Y-24.7035
G01 X18.9631 Y-24.7278
G01 X18.9767 Y-24.7334
G01 X19.0299 Y-24.7523
G01 X19.0918 Y-24.7678
G01 X19.1476 Y-24.7762
G01 X19.1622 Y-24.7777
G01 X19.2186 Y-24.7803
G01 X35.5600 Y-24.7803
G01 X35.6201 Y-24.7774
G01 X35.6310 Y-24.7762
G01 X35.6796 Y-24.7690
G01 X35.6940 Y-24.7661
G01 X35.7488 Y-24.7523
G01 X35.8088 Y-24.7308
G01 X35.8665 Y-24.7035
G01 X35.9150 Y-24.6746
G01 X35.9273 Y-24.6664
G01 X35.9667 Y-24.6372
G01 X35.9781 Y-24.6278
G01 X36.0198 Y-24.5898
G01 X37.2898 Y-23.3198
G01 X37.3327 Y-23.2725
G01 X37.3664 Y-23.2273
G01 X37.3746 Y-23.2150
G01 X37.4035 Y-23.1665
G01 X37.4278 Y-23.1156
G01 X37.4334 Y-23.1020
G01 X37.4523 Y-23.0488
G01 X37.4661 Y-22.9940
G01 X37.4690 Y-22.9796
G01 X37.4771 Y-22.9237
G01 X37.4802 Y-22.8637
G01 X37.4803 Y-17.7800
G01 X37.4771 Y-17.7163
G01 X37.4690 Y-17.6604
G01 X37.4661 Y-17.6460
G01 X37.4542 Y-17.5983
G01 X37.4499 Y-17.5843
G01 X37.4308 Y-17.5312
G01 X37.4035 Y-17.4735
G01 X37.3707 Y-17.4187
G01 X37.3350 Y-17.3704
G01 X37.3278 Y-17.3619
G01 X37.2898 Y-17.3202
G01 X36.0172 Y-16.0476
G01 X35.9725 Y-16.0073
G01 X35.9213 Y-15.9693
G01 X35.8665 Y-15.9365
G01 X35.8156 Y-15.9122
G01 X35.8054 Y-15.9079
G01 X35.7488 Y-15.8877
G01 X35.6869 Y-15.8722
G01 X35.6237 Y-15.8629
G01 X35.5637 Y-15.8598
G01 X33.2893 Y-15.8597
G01 X26.8373 Y-9.4077
G01 X26.7900 Y-9.3648
G01 X26.7448 Y-9.3311
G01 X26.7325 Y-9.3229
G01 X26.6840 Y-9.2940
G01 X26.6331 Y-9.2697
G01 X26.6195 Y-9.2641
G01 X26.5663 Y-9.2452
G01 X26.5115 Y-9.2314
G01 X26.4971 Y-9.2285
G01 X26.4412 Y-9.2204
G01 X26.3812 Y-9.2173
G01 X20.0213 Y-9.2172
G01 X20.0068 Y-9.1984
G01 X19.9854 Y-9.1748
G01 X19.9775 Y-9.1671
G01 X19.9566 Y-9.1482
G01 X19.9480 Y-9.1413
G01 X19.9222 Y-9.1224
G01 X19.8950 Y-9.1059
G01 X19.8853 Y-9.1005
G01 X19.8565 Y-9.0869
G01 X19.8462 Y-9.0828
G01 X19.8161 Y-9.0722
G01 X19.7852 Y-9.0643
G01 X19.7708 Y-9.0614
G01 X19.7392 Y-9.0569
G01 X19.7000 Y-9.0550
G01 X18.4000 Y-9.0550
G01 X18.3608 Y-9.0569
G01 X18.3220 Y-9.0627
G01 X18.2839 Y-9.0722
G01 X18.2469 Y-9.0854
G01 X18.2180 Y-9.0989
G01 X18.2050 Y-9.1059
G01 X18.1809 Y-9.1204
G01 X18.1718 Y-9.1267
G01 X18.1462 Y-9.1458
G01 X18.1225 Y-9.1671
G01 X18.1146 Y-9.1748
G01 X18.0932 Y-9.1984
G01 X18.0863 Y-9.2070
G01 X18.0695 Y-9.2297
G01 X17.4470 Y-9.2297
G01 X17.4394 Y-9.2207
G01 X17.4178 Y-9.1972
G01 X17.3888 Y-9.1708
G01 X17.3572 Y-9.1474
G01 X17.3236 Y-9.1272
G01 X17.2881 Y-9.1104
G01 X17.2511 Y-9.0972
G01 X17.2130 Y-9.0877
G01 X17.1815 Y-9.0828
G01 X17.1705 Y-9.0816
G01 X17.1350 Y-9.0800
G01 X15.8850 Y-9.0800
G01 X15.8458 Y-9.0819
G01 X15.8142 Y-9.0864
G01 X15.7998 Y-9.0893
G01 X15.7689 Y-9.0972
G01 X15.7388 Y-9.1078
G01 X15.7285 Y-9.1119
G01 X15.7030 Y-9.1239
G01 X15.6900 Y-9.1309
G01 X15.6628 Y-9.1474
G01 X15.6312 Y-9.1708
G01 X15.6022 Y-9.1972
G01 X15.5806 Y-9.2207
G01 X15.5730 Y-9.2297
G01 X14.9070 Y-9.2297
G01 X14.8994 Y-9.2207
G01 X14.8778 Y-9.1972
G01 X14.8488 Y-9.1708
G01 X14.8172 Y-9.1474
G01 X14.7900 Y-9.1309
G01 X14.7803 Y-9.1255
G01 X14.7481 Y-9.1104
G01 X14.7181 Y-9.0995
G01 X14.7076 Y-9.0962
G01 X14.6802 Y-9.0893
G01 X14.6694 Y-9.0870
G01 X14.6379 Y-9.0823
G01 X14.6203 Y-9.0811
G01 X14.6203 Y-8.6989
G01 X14.6379 Y-8.6977
G01 X14.6658 Y-8.6936
G01 X14.6766 Y-8.6916
G01 X14.7111 Y-8.6828
G01 X14.7447 Y-8.6709
G01 X14.7548 Y-8.6666
G01 X14.7770 Y-8.6561
G01 X14.7900 Y-8.6491
G01 X14.8172 Y-8.6326
G01 X14.8459 Y-8.6115
G01 X14.8543 Y-8.6044
G01 X14.8725 Y-8.5879
G01 X14.8829 Y-8.5775
G01 X14.9042 Y-8.5538
G01 X14.9276 Y-8.5222
G01 X14.9441 Y-8.4950
G01 X14.9511 Y-8.4820
G01 X14.9646 Y-8.4531
G01 X14.9778 Y-8.4161
G01 X14.9857 Y-8.3852
G01 X14.9886 Y-8.3708
G01 X14.9931 Y-8.3392
G01 X14.9950 Y-8.3037
G01 X14.9950 Y-7.5000
G01 X14.9936 Y-7.4681
G01 X14.9922 Y-7.4535
G01 X14.9873 Y-7.4220
G01 X14.9778 Y-7.3839
G01 X14.9646 Y-7.3469
G01 X14.9478 Y-7.3114
G01 X14.9276 Y-7.2778
G01 X14.9042 Y-7.2462
G01 X14.8778 Y-7.2172
G01 X14.8543 Y-7.1956
G01 X14.8459 Y-7.1885
G01 X14.8232 Y-7.1717
G01 X14.8110 Y-7.1635
G01 X14.7900 Y-7.1509
G01 X14.7803 Y-7.1455
G01 X14.7548 Y-7.1334
G01 X14.7447 Y-7.1291
G01 X14.7111 Y-7.1172
G01 X14.6730 Y-7.1077
G01 X14.6342 Y-7.1019
G01 X14.6024 Y-7.1002
G01 X13.3450 Y-7.1000
G01 X13.3058 Y-7.1019
G01 X13.2670 Y-7.1077
G01 X13.2289 Y-7.1172
G01 X13.1919 Y-7.1304
G01 X13.1564 Y-7.1472
G01 X13.1228 Y-7.1674
G01 X13.0912 Y-7.1908
G01 X13.0622 Y-7.2172
G01 X13.0358 Y-7.2462
G01 X13.0167 Y-7.2718
G01 X13.0085 Y-7.2840
G01 X12.9922 Y-7.3114
G01 X12.9754 Y-7.3469
G01 X12.9622 Y-7.3839
G01 X12.9543 Y-7.4148
G01 X12.9514 Y-7.4292
G01 X12.9478 Y-7.4535
G01 X12.9466 Y-7.4645
G01 X12.9450 Y-7.5000
G01 X12.9450 Y-8.3000
G01 X12.9469 Y-8.3392
G01 X12.9527 Y-8.3780
G01 X12.9622 Y-8.4161
G01 X12.9728 Y-8.4462
G01 X12.9784 Y-8.4598
G01 X12.9905 Y-8.4853
G01 X12.9959 Y-8.4950
G01 X13.0124 Y-8.5222
G01 X13.0358 Y-8.5538
G01 X13.0622 Y-8.5828
G01 X13.0884 Y-8.6068
G01 X13.0970 Y-8.6137
G01 X13.1168 Y-8.6283
G01 X13.1290 Y-8.6365
G01 X13.1500 Y-8.6491
G01 X13.1597 Y-8.6545
G01 X13.1852 Y-8.6666
G01 X13.1953 Y-8.6709
G01 X13.2289 Y-8.6828
G01 X13.2634 Y-8.6916
G01 X13.2742 Y-8.6936
G01 X13.3021 Y-8.6977
G01 X13.3197 Y-8.6989
G00 Z2.0000
G00 X10.7797 Y-13.7789
G01 F100.00
G01 Z-0.1026
G01 F200.00
G01 X10.7797 Y-19.4431
G01 X10.7604 Y-19.4483
G01 X10.7338 Y-19.4578
G01 X10.7235 Y-19.4619
G01 X10.6914 Y-19.4772
G01 X10.6609 Y-19.4954
G01 X10.6518 Y-19.5017
G01 X10.6320 Y-19.5163
G01 X10.6207 Y-19.5256
G01 X10.5972 Y-19.5472
G01 X10.5732 Y-19.5734
G01 X10.5663 Y-19.5820
G01 X10.5517 Y-19.6018
G01 X10.5435 Y-19.6140
G01 X10.5272 Y-19.6414
G01 X10.5104 Y-19.6769
G01 X10.4972 Y-19.7139
G01 X10.4893 Y-19.7448
G01 X10.4864 Y-19.7592
G01 X10.4819 Y-19.7908
G01 X10.4800 Y-19.8300
G01 X10.4800 Y-22.8300
G01 X10.4814 Y-22.8619
G01 X10.4823 Y-22.8729
G01 X10.4877 Y-22.9080
G01 X10.4962 Y-22.9426
G01 X10.4995 Y-22.9531
G01 X10.5078 Y-22.9762
G01 X10.5134 Y-22.9898
G01 X10.5272 Y-23.0186
G01 X10.5474 Y-23.0522
G01 X10.5708 Y-23.0838
G01 X10.5921 Y-23.1075
G01 X10.6025 Y-23.1179
G01 X10.6207 Y-23.1344
G01 X10.6291 Y-23.1415
G01 X10.6578 Y-23.1626
G01 X10.6882 Y-23.1810
G01 X10.6980 Y-23.1861
G01 X10.7202 Y-23.1966
G01 X10.7338 Y-23.2022
G01 X10.7639 Y-23.2128
G01 X10.7984 Y-23.2216
G01 X10.8092 Y-23.2236
G01 X10.8408 Y-23.2281
G01 X10.8800 Y-23.2300
G01 X11.9800 Y-23.2300
G01 X12.0119 Y-23.2286
G01 X12.0229 Y-23.2277
G01 X12.0580 Y-23.2223
G01 X12.0961 Y-23.2128
G01 X12.1331 Y-23.1996
G01 X12.1686 Y-23.1828
G01 X12.2022 Y-23.1626
G01 X12.2338 Y-23.1392
G01 X12.2628 Y-23.1128
G01 X12.2844 Y-23.0893
G01 X12.2915 Y-23.0809
G01 X12.3083 Y-23.0582
G01 X12.3165 Y-23.0460
G01 X12.3291 Y-23.0250
G01 X12.3345 Y-23.0153
G01 X12.3481 Y-22.9865
G01 X12.3522 Y-22.9762
G01 X12.3628 Y-22.9461
G01 X12.3723 Y-22.9080
G01 X12.3781 Y-22.8692
G01 X12.3800 Y-22.8300
G01 X12.3800 Y-19.8300
G01 X12.3781 Y-19.7908
G01 X12.3736 Y-19.7592
G01 X12.3707 Y-19.7448
G01 X12.3628 Y-19.7139
G01 X12.3496 Y-19.6769
G01 X12.3328 Y-19.6414
G01 X12.3165 Y-19.6140
G01 X12.3083 Y-19.6018
G01 X12.2937 Y-19.5820
G01 X12.2868 Y-19.5734
G01 X12.2628 Y-19.5472
G01 X12.2393 Y-19.5256
G01 X12.2280 Y-19.5163
G01 X12.2082 Y-19.5017
G01 X12.1991 Y-19.4954
G01 X12.1686 Y-19.4772
G01 X12.1365 Y-19.4619
G01 X12.1262 Y-19.4578
G01 X12.0996 Y-19.4483
G01 X12.0803 Y-19.4431
G01 X12.0803 Y-13.7789
G01 X12.0979 Y-13.7777
G01 X12.1294 Y-13.7730
G01 X12.1402 Y-13.7707
G01 X12.1676 Y-13.7638
G01 X12.1781 Y-13.7605
G01 X12.2081 Y-13.7496
G01 X12.2403 Y-13.7345
G01 X12.2500 Y-13.7291
G01 X12.2772 Y-13.7126
G01 X12.3088 Y-13.6892
G01 X12.3378 Y-13.6628
G01 X12.3594 Y-13.6393
G01 X12.3670 Y-13.6303
G01 X13.0330 Y-13.6303
G01 X13.0406 Y-13.6393
G01 X13.0622 Y-13.6628
G01 X13.0912 Y-13.6892
G01 X13.1228 Y-13.7126
G01 X13.1564 Y-13.7328
G01 X13.1919 Y-13.7496
G01 X13.2289 Y-13.7628
G01 X13.2670 Y-13.7723
G01 X13.2985 Y-13.7772
G01 X13.3131 Y-13.7786
G01 X13.3450 Y-13.7800
G01 X14.5987 Y-13.7800
G01 X14.6342 Y-13.7781
G01 X14.6730 Y-13.7723
G01 X14.7111 Y-13.7628
G01 X14.7412 Y-13.7522
G01 X14.7515 Y-13.7481
G01 X14.7803 Y-13.7345
G01 X14.7900 Y-13.7291
G01 X14.8172 Y-13.7126
G01 X14.8430 Y-13.6937
G01 X14.8543 Y-13.6844
G01 X14.8778 Y-13.6628
G01 X14.9042 Y-13.6338
G01 X14.9233 Y-13.6082
G01 X14.9315 Y-13.5960
G01 X14.9478 Y-13.5686
G01 X14.9616 Y-13.5398
G01 X14.9672 Y-13.5262
G01 X14.9778 Y-13.4961
G01 X14.9857 Y-13.4652
G01 X14.9880 Y-13.4544
G01 X14.9931 Y-13.4192
G01 X14.9950 Y-13.3800
G01 X14.9950 Y-12.5800
G01 X14.9936 Y-12.5481
G01 X14.9922 Y-12.5335
G01 X14.9873 Y-12.5020
G01 X14.9778 Y-12.4639
G01 X14.9646 Y-12.4269
G01 X14.9511 Y-12.3980
G01 X14.9441 Y-12.3850
G01 X14.9276 Y-12.3578
G01 X14.9042 Y-12.3262
G01 X14.8829 Y-12.3025
G01 X14.8725 Y-12.2921
G01 X14.8488 Y-12.2708
G01 X14.8232 Y-12.2517
G01 X14.8110 Y-12.2435
G01 X14.7836 Y-12.2272
G01 X14.7481 Y-12.2104
G01 X14.7111 Y-12.1972
G01 X14.6802 Y-12.1893
G01 X14.6658 Y-12.1864
G01 X14.6415 Y-12.1828
G01 X14.6305 Y-12.1816
G01 X14.5950 Y-12.1800
G01 X13.3450 Y-12.1800
G01 X13.3058 Y-12.1819
G01 X13.2670 Y-12.1877
G01 X13.2289 Y-12.1972
G01 X13.1919 Y-12.2104
G01 X13.1564 Y-12.2272
G01 X13.1228 Y-12.2474
G01 X13.0912 Y-12.2708
G01 X13.0622 Y-12.2972
G01 X13.0406 Y-12.3207
G01 X13.0330 Y-12.3297
G01 X12.3670 Y-12.3297
G01 X12.3594 Y-12.3207
G01 X12.3378 Y-12.2972
G01 X12.3088 Y-12.2708
G01 X12.2772 Y-12.2474
G01 X12.2436 Y-12.2272
G01 X12.2081 Y-12.2104
G01 X12.1711 Y-12.1972
G01 X12.1330 Y-12.1877
G01 X12.1015 Y-12.1828
G01 X12.0869 Y-12.1814
G01 X12.0550 Y-12.1800
G01 X10.8050 Y-12.1800
G01 X10.7731 Y-12.1814
G01 X10.7585 Y-12.1828
G01 X10.7270 Y-12.1877
G01 X10.6889 Y-12.1972
G01 X10.6588 Y-12.2078
G01 X10.6452 Y-12.2134
G01 X10.6164 Y-12.2272
G01 X10.5890 Y-12.2435
G01 X10.5768 Y-12.2517
G01 X10.5512 Y-12.2708
G01 X10.5275 Y-12.2921
G01 X10.5171 Y-12.3025
G01 X10.4958 Y-12.3262
G01 X10.4767 Y-12.3518
G01 X10.4685 Y-12.3640
G01 X10.4522 Y-12.3914
G01 X10.4384 Y-12.4202
G01 X10.4328 Y-12.4338
G01 X10.4222 Y-12.4639
G01 X10.4134 Y-12.4984
G01 X10.4114 Y-12.5092
G01 X10.4069 Y-12.5408
G01 X10.4050 Y-12.5800
G01 X10.4050 Y-13.3800
G01 X10.4064 Y-13.4119
G01 X10.4078 Y-13.4265
G01 X10.4120 Y-13.4544
G01 X10.4143 Y-13.4652
G01 X10.4203 Y-13.4890
G01 X10.4233 Y-13.4996
G01 X10.4341 Y-13.5297
G01 X10.4384 Y-13.5398
G01 X10.4522 Y-13.5686
G01 X10.4724 Y-13.6022
G01 X10.4958 Y-13.6338
G01 X10.5222 Y-13.6628
G01 X10.5512 Y-13.6892
G01 X10.5828 Y-13.7126
G01 X10.6164 Y-13.7328
G01 X10.6485 Y-13.7481
G01 X10.6588 Y-13.7522
G01 X10.6889 Y-13.7628
G01 X10.7234 Y-13.7716
G01 X10.7342 Y-13.7736
G01 X10.7621 Y-13.7777
G01 X10.7797 Y-13.7789
G00 Z2.0000
G00 X18.7649 Y-15.2476
G01 F100.00
G01 Z-0.1026
G01 F200.00
G01 X18.7648 Y-17.4687
G01 X18.7679 Y-17.5287
G01 X18.7772 Y-17.5919
G01 X18.7927 Y-17.6538
G01 X18.8116 Y-17.7070
G01 X18.8150 Y-17.7156
G01 X18.8152 Y-17.8724
G01 X18.8166 Y-17.8870
G01 X18.8186 Y-17.8979
G01 X18.8215 Y-17.9085
G01 X18.8264 Y-17.9224
G01 X18.8294 Y-17.9291
G01 X18.8345 Y-17.9389
G01 X18.8424 Y-17.9514
G01 X18.8514 Y-17.9630
G01 X18.8616 Y-17.9736
G01 X18.8727 Y-17.9833
G01 X18.8848 Y-17.9917
G01 X18.8976 Y-17.9990
G01 X18.9076 Y-18.0036
G01 X18.9145 Y-18.0062
G01 X18.9250 Y-18.0096
G01 X18.9357 Y-18.0121
G01 X18.9466 Y-18.0139
G01 X18.9576 Y-18.0148
G01 X19.0690 Y-18.0150
G01 X19.1085 Y-18.0385
G01 X19.1594 Y-18.0628
G01 X19.1730 Y-18.0684
G01 X19.2227 Y-18.0861
G01 X19.2333 Y-18.0892
G01 X19.2881 Y-18.1028
G01 X19.3440 Y-18.1112
G01 X19.3549 Y-18.1124
G01 X19.4150 Y-18.1153
G01 X19.4714 Y-18.1127
G01 X19.4860 Y-18.1112
G01 X19.5419 Y-18.1028
G01 X19.6038 Y-18.0873
G01 X19.6638 Y-18.0658
G01 X19.7215 Y-18.0385
G01 X19.7610 Y-18.0150
G01 X19.8650 Y-18.0150
G01 X19.8760 Y-18.0146
G01 X19.8870 Y-18.0134
G01 X19.8979 Y-18.0114
G01 X19.9085 Y-18.0085
G01 X19.9224 Y-18.0036
G01 X19.9324 Y-17.9990
G01 X19.9389 Y-17.9955
G01 X19.9452 Y-17.9917
G01 X19.9544 Y-17.9855
G01 X19.9630 Y-17.9786
G01 X19.9684 Y-17.9736
G01 X19.9786 Y-17.9630
G01 X19.9855 Y-17.9544
G01 X19.9897 Y-17.9483
G01 X19.9973 Y-17.9357
G01 X20.0036 Y-17.9224
G01 X20.0074 Y-17.9121
G01 X20.0096 Y-17.9050
G01 X20.0114 Y-17.8979
G01 X20.0134 Y-17.8870
G01 X20.0143 Y-17.8797
G01 X20.0150 Y-17.8687
G01 X20.0150 Y-17.7156
G01 X20.0184 Y-17.7070
G01 X20.0373 Y-17.6538
G01 X20.0528 Y-17.5919
G01 X20.0621 Y-17.5287
G01 X20.0652 Y-17.4687
G01 X20.0653 Y-15.3776
G01 X20.0678 Y-15.3669
G01 X20.0690 Y-15.3596
G01 X20.0771 Y-15.3037
G01 X20.0801 Y-15.2474
G01 X20.0802 Y-15.2363
G01 X20.0771 Y-15.1763
G01 X20.0678 Y-15.1131
G01 X20.0523 Y-15.0512
G01 X20.0334 Y-14.9980
G01 X20.0300 Y-14.9894
G01 X20.0298 Y-14.6326
G01 X20.0293 Y-14.6253
G01 X20.0278 Y-14.6144
G01 X20.0246 Y-14.6000
G01 X20.0199 Y-14.5860
G01 X20.0156 Y-14.5759
G01 X20.0123 Y-14.5693
G01 X20.0067 Y-14.5598
G01 X20.0005 Y-14.5506
G01 X19.9960 Y-14.5448
G01 X19.9886 Y-14.5366
G01 X19.9834 Y-14.5314
G01 X19.9752 Y-14.5240
G01 X19.9664 Y-14.5174
G01 X19.9602 Y-14.5133
G01 X19.9507 Y-14.5077
G01 X19.9408 Y-14.5029
G01 X19.9340 Y-14.5001
G01 X19.9235 Y-14.4965
G01 X19.9164 Y-14.4945
G01 X19.9056 Y-14.4922
G01 X19.8984 Y-14.4911
G01 X19.8874 Y-14.4902
G01 X18.9763 Y-14.4900
G01 X18.9690 Y-14.4904
G01 X18.9580 Y-14.4916
G01 X18.9507 Y-14.4929
G01 X18.9400 Y-14.4954
G01 X18.9329 Y-14.4976
G01 X18.9226 Y-14.5014
G01 X18.9093 Y-14.5077
G01 X18.8967 Y-14.5153
G01 X18.8877 Y-14.5217
G01 X18.8820 Y-14.5264
G01 X18.8714 Y-14.5366
G01 X18.8664 Y-14.5420
G01 X18.8595 Y-14.5506
G01 X18.8513 Y-14.5629
G01 X18.8477 Y-14.5693
G01 X18.8429 Y-14.5792
G01 X18.8376 Y-14.5929
G01 X18.8354 Y-14.6000
G01 X18.8329 Y-14.6107
G01 X18.8307 Y-14.6253
G01 X18.8300 Y-14.6400
G01 X18.8300 Y-14.9724
G01 X18.8142 Y-15.0062
G01 X18.7939 Y-15.0627
G01 X18.7908 Y-15.0733
G01 X18.7780 Y-15.1245
G01 X18.7760 Y-15.1354
G01 X18.7679 Y-15.1913
G01 X18.7649 Y-15.2476
G00 Z2.0000
G00 X20.4650 Y-16.8650
G01 F100.00
G01 Z-0.1026
G01 F200.00
G01 X20.4654 Y-16.8760
G01 X20.4672 Y-16.8906
G01 X20.4704 Y-16.9050
G01 X20.4751 Y-16.9190
G01 X20.4810 Y-16.9324
G01 X20.4883 Y-16.9452
G01 X20.4967 Y-16.9573
G01 X20.5064 Y-16.9684
G01 X20.5170 Y-16.9786
G01 X20.5286 Y-16.9876
G01 X20.5411 Y-16.9955
G01 X20.5542 Y-17.0021
G01 X20.5679 Y-17.0074
G01 X20.5821 Y-17.0114
G01 X20.5966 Y-17.0139
G01 X20.6113 Y-17.0150
G01 X22.6224 Y-17.0148
G01 X22.6334 Y-17.0139
G01 X22.6406 Y-17.0128
G01 X22.6514 Y-17.0105
G01 X22.6621 Y-17.0074
G01 X22.6724 Y-17.0036
G01 X22.6791 Y-17.0006
G01 X22.6889 Y-16.9955
G01 X22.6983 Y-16.9897
G01 X22.7044 Y-16.9855
G01 X22.7130 Y-16.9786
G01 X22.7184 Y-16.9736
G01 X22.7261 Y-16.9657
G01 X22.7333 Y-16.9573
G01 X22.7376 Y-16.9514
G01 X22.7437 Y-16.9421
G01 X22.7490 Y-16.9324
G01 X22.7521 Y-16.9258
G01 X22.7562 Y-16.9155
G01 X22.7596 Y-16.9050
G01 X22.7614 Y-16.8979
G01 X22.7639 Y-16.8834
G01 X22.7648 Y-16.8724
G01 X22.7650 Y-16.8650
G01 X22.7650 Y-15.3650
G01 X22.7646 Y-15.3540
G01 X22.7634 Y-15.3430
G01 X22.7621 Y-15.3357
G01 X22.7596 Y-15.3250
G01 X22.7574 Y-15.3179
G01 X22.7536 Y-15.3076
G01 X22.7490 Y-15.2976
G01 X22.7437 Y-15.2879
G01 X22.7397 Y-15.2817
G01 X22.7333 Y-15.2727
G01 X22.7261 Y-15.2643
G01 X22.7184 Y-15.2564
G01 X22.7102 Y-15.2490
G01 X22.7044 Y-15.2445
G01 X22.6952 Y-15.2383
G01 X22.6857 Y-15.2327
G01 X22.6791 Y-15.2294
G01 X22.6690 Y-15.2251
G01 X22.6585 Y-15.2215
G01 X22.6479 Y-15.2186
G01 X22.6334 Y-15.2161
G01 X22.6224 Y-15.2152
G01 X22.6150 Y-15.2150
G01 X22.2653 Y-15.2150
G01 X22.2653 Y-14.2000
G01 X22.3137 Y-14.2000
G01 X22.3284 Y-14.1989
G01 X22.3393 Y-14.1971
G01 X22.3500 Y-14.1946
G01 X22.3605 Y-14.1912
G01 X22.3741 Y-14.1856
G01 X22.3839 Y-14.1805
G01 X22.3964 Y-14.1726
G01 X22.4080 Y-14.1636
G01 X22.4161 Y-14.1561
G01 X22.4260 Y-14.1452
G01 X22.4326 Y-14.1364
G01 X22.4387 Y-14.1271
G01 X22.4440 Y-14.1174
G01 X22.4499 Y-14.1040
G01 X22.4546 Y-14.0900
G01 X22.4578 Y-14.0756
G01 X22.4596 Y-14.0610
G01 X22.4600 Y-14.0500
G01 X22.4600 Y-13.9006
G01 X22.4634 Y-13.8920
G01 X22.4823 Y-13.8388
G01 X22.4961 Y-13.7840
G01 X22.4990 Y-13.7696
G01 X22.5062 Y-13.7210
G01 X22.5077 Y-13.7064
G01 X22.5101 Y-13.6574
G01 X22.5101 Y-13.6426
G01 X22.5071 Y-13.5863
G01 X22.4990 Y-13.5304
G01 X22.4961 Y-13.5160
G01 X22.4823 Y-13.4612
G01 X22.4634 Y-13.4080
G01 X22.4600 Y-13.3994
G01 X22.4600 Y-13.2463
G01 X22.4589 Y-13.2316
G01 X22.4564 Y-13.2171
G01 X22.4524 Y-13.2029
G01 X22.4499 Y-13.1960
G01 X22.4456 Y-13.1859
G01 X22.4405 Y-13.1761
G01 X22.4367 Y-13.1698
G01 X22.4283 Y-13.1577
G01 X22.4236 Y-13.1520
G01 X22.4161 Y-13.1439
G01 X22.4052 Y-13.1340
G01 X22.3964 Y-13.1274
G01 X22.3902 Y-13.1233
G01 X22.3774 Y-13.1160
G01 X22.3640 Y-13.1101
G01 X22.3500 Y-13.1054
G01 X22.3356 Y-13.1022
G01 X22.3247 Y-13.1007
G01 X22.3100 Y-13.1000
G01 X22.2060 Y-13.1000
G01 X22.1665 Y-13.0765
G01 X22.1122 Y-13.0507
G01 X22.1020 Y-13.0466
G01 X22.0557 Y-13.0301
G01 X22.0452 Y-13.0267
G01 X21.9869 Y-13.0122
G01 X21.9310 Y-13.0038
G01 X21.9164 Y-13.0023
G01 X21.8600 Y-12.9997
G01 X21.8036 Y-13.0023
G01 X21.7890 Y-13.0038
G01 X21.7331 Y-13.0122
G01 X21.6748 Y-13.0267
G01 X21.6643 Y-13.0301
G01 X21.6180 Y-13.0466
G01 X21.6078 Y-13.0507
G01 X21.5535 Y-13.0765
G01 X21.5140 Y-13.1000
G01 X21.4026 Y-13.1002
G01 X21.3916 Y-13.1011
G01 X21.3807 Y-13.1029
G01 X21.3700 Y-13.1054
G01 X21.3595 Y-13.1088
G01 X21.3459 Y-13.1144
G01 X21.3329 Y-13.1213
G01 X21.3206 Y-13.1295
G01 X21.3120 Y-13.1364
G01 X21.3066 Y-13.1414
G01 X21.2964 Y-13.1520
G01 X21.2874 Y-13.1636
G01 X21.2795 Y-13.1761
G01 X21.2729 Y-13.1892
G01 X21.2688 Y-13.1995
G01 X21.2654 Y-13.2100
G01 X21.2622 Y-13.2244
G01 X21.2607 Y-13.2353
G01 X21.2600 Y-13.2500
G01 X21.2600 Y-13.3304
G01 X21.1526 Y-13.4378
G01 X21.1147 Y-13.4797
G01 X21.1078 Y-13.4883
G01 X21.0743 Y-13.5337
G01 X21.0452 Y-13.5821
G01 X21.0398 Y-13.5917
G01 X21.0142 Y-13.6462
G01 X20.9951 Y-13.6993
G01 X20.9908 Y-13.7133
G01 X20.9772 Y-13.7681
G01 X20.9688 Y-13.8240
G01 X20.9673 Y-13.8386
G01 X20.9649 Y-13.8876
G01 X20.9647 Y-15.2150
G01 X20.6150 Y-15.2150
G01 X20.6076 Y-15.2152
G01 X20.5966 Y-15.2161
G01 X20.5894 Y-15.2172
G01 X20.5786 Y-15.2195
G01 X20.5679 Y-15.2226
G01 X20.5576 Y-15.2264
G01 X20.5476 Y-15.2310
G01 X20.5379 Y-15.2363
G01 X20.5286 Y-15.2424
G01 X20.5198 Y-15.2490
G01 X20.5116 Y-15.2564
G01 X20.5039 Y-15.2643
G01 X20.4967 Y-15.2727
G01 X20.4903 Y-15.2817
G01 X20.4845 Y-15.2911
G01 X20.4794 Y-15.3009
G01 X20.4751 Y-15.3110
G01 X20.4715 Y-15.3215
G01 X20.4686 Y-15.3321
G01 X20.4672 Y-15.3394
G01 X20.4654 Y-15.3540
G01 X20.4650 Y-15.3650
G01 X20.4650 Y-16.8650
G00 Z2.0000
G00 X20.4650 Y-19.1650
G01 F100.00
G01 Z-0.1026
G01 F200.00
G01 X20.4654 Y-19.1760
G01 X20.4672 Y-19.1906
G01 X20.4704 Y-19.2050
G01 X20.4751 Y-19.2190
G01 X20.4810 Y-19.2324
G01 X20.4883 Y-19.2452
G01 X20.4967 Y-19.2573
G01 X20.5064 Y-19.2684
G01 X20.5170 Y-19.2786
G01 X20.5256 Y-19.2855
G01 X20.5379 Y-19.2937
G01 X20.5509 Y-19.3006
G01 X20.5645 Y-19.3062
G01 X20.5786 Y-19.3105
G01 X20.5930 Y-19.3134
G01 X20.6040 Y-19.3146
G01 X20.6150 Y-19.3150
G01 X22.6187 Y-19.3150
G01 X22.6260 Y-19.3146
G01 X22.6370 Y-19.3134
G01 X22.6443 Y-19.3121
G01 X22.6550 Y-19.3096
G01 X22.6621 Y-19.3074
G01 X22.6724 Y-19.3036
G01 X22.6791 Y-19.3006
G01 X22.6889 Y-19.2955
G01 X22.6952 Y-19.2917
G01 X22.7044 Y-19.2855
G01 X22.7102 Y-19.2810
G01 X22.7184 Y-19.2736
G01 X22.7261 Y-19.2657
G01 X22.7333 Y-19.2573
G01 X22.7397 Y-19.2483
G01 X22.7437 Y-19.2421
G01 X22.7506 Y-19.2291
G01 X22.7562 Y-19.2155
G01 X22.7596 Y-19.2050
G01 X22.7614 Y-19.1979
G01 X22.7639 Y-19.1834
G01 X22.7648 Y-19.1724
G01 X22.7650 Y-19.1650
G01 X22.7650 Y-19.0653
G01 X26.7650 Y-19.0653
G01 X26.7652 Y-20.3224
G01 X26.7661 Y-20.3334
G01 X26.7672 Y-20.3406
G01 X26.7695 Y-20.3514
G01 X26.7715 Y-20.3585
G01 X26.7751 Y-20.3690
G01 X26.7779 Y-20.3758
G01 X26.7827 Y-20.3857
G01 X26.7863 Y-20.3921
G01 X26.7924 Y-20.4014
G01 X26.7967 Y-20.4073
G01 X26.8039 Y-20.4157
G01 X26.8089 Y-20.4211
G01 X26.8198 Y-20.4310
G01 X26.8286 Y-20.4376
G01 X26.8348 Y-20.4417
G01 X26.8443 Y-20.4473
G01 X26.8509 Y-20.4506
G01 X26.8610 Y-20.4549
G01 X26.8715 Y-20.4585
G01 X26.8821 Y-20.4614
G01 X26.8930 Y-20.4634
G01 X26.9040 Y-20.4646
G01 X26.9150 Y-20.4650
G01 X28.9224 Y-20.4648
G01 X28.9334 Y-20.4639
G01 X28.9479 Y-20.4614
G01 X28.9585 Y-20.4585
G01 X28.9724 Y-20.4536
G01 X28.9824 Y-20.4490
G01 X28.9952 Y-20.4417
G01 X29.0044 Y-20.4355
G01 X29.0130 Y-20.4286
G01 X29.0211 Y-20.4211
G01 X29.0310 Y-20.4102
G01 X29.0397 Y-20.3983
G01 X29.0455 Y-20.3889
G01 X29.0506 Y-20.3791
G01 X29.0549 Y-20.3690
G01 X29.0596 Y-20.3550
G01 X29.0621 Y-20.3443
G01 X29.0643 Y-20.3297
G01 X29.0650 Y-20.3150
G01 X29.0650 Y-19.7003
G01 X33.0463 Y-19.7003
G01 X33.0478 Y-19.7165
G01 X33.0514 Y-19.7408
G01 X33.0534 Y-19.7516
G01 X33.0622 Y-19.7861
G01 X33.0754 Y-19.8231
G01 X33.0922 Y-19.8586
G01 X33.1085 Y-19.8860
G01 X33.1167 Y-19.8982
G01 X33.1335 Y-19.9209
G01 X33.1406 Y-19.9293
G01 X33.1622 Y-19.9528
G01 X33.1912 Y-19.9792
G01 X33.2228 Y-20.0026
G01 X33.2532 Y-20.0210
G01 X33.2630 Y-20.0261
G01 X33.2885 Y-20.0381
G01 X33.2988 Y-20.0422
G01 X33.3219 Y-20.0505
G01 X33.3360 Y-20.0547
G01 X33.3634 Y-20.0616
G01 X33.3742 Y-20.0636
G01 X33.4058 Y-20.0681
G01 X33.4450 Y-20.0700
G01 X35.1350 Y-20.0700
G01 X35.1669 Y-20.0686
G01 X35.1815 Y-20.0672
G01 X35.2130 Y-20.0623
G01 X35.2511 Y-20.0528
G01 X35.2881 Y-20.0396
G01 X35.3170 Y-20.0261
G01 X35.3300 Y-20.0191
G01 X35.3572 Y-20.0026
G01 X35.3830 Y-19.9837
G01 X35.3943 Y-19.9744
G01 X35.4178 Y-19.9528
G01 X35.4394 Y-19.9293
G01 X35.4487 Y-19.9180
G01 X35.4676 Y-19.8922
G01 X35.4841 Y-19.8650
G01 X35.4911 Y-19.8520
G01 X35.5046 Y-19.8231
G01 X35.5167 Y-19.7896
G01 X35.5197 Y-19.7790
G01 X35.5257 Y-19.7552
G01 X35.5280 Y-19.7444
G01 X35.5331 Y-19.7092
G01 X35.5350 Y-19.6700
G01 X35.5350 Y-18.4300
G01 X35.5336 Y-18.3981
G01 X35.5322 Y-18.3835
G01 X35.5280 Y-18.3556
G01 X35.5257 Y-18.3448
G01 X35.5178 Y-18.3139
G01 X35.5046 Y-18.2769
G01 X35.4878 Y-18.2414
G01 X35.4715 Y-18.2140
G01 X35.4633 Y-18.2018
G01 X35.4465 Y-18.1791
G01 X35.4394 Y-18.1707
G01 X35.4178 Y-18.1472
G01 X35.3888 Y-18.1208
G01 X35.3572 Y-18.0974
G01 X35.3268 Y-18.0790
G01 X35.3170 Y-18.0739
G01 X35.2915 Y-18.0619
G01 X35.2812 Y-18.0578
G01 X35.2581 Y-18.0495
G01 X35.2440 Y-18.0453
G01 X35.2202 Y-18.0393
G01 X35.2094 Y-18.0370
G01 X35.1742 Y-18.0319
G01 X35.1350 Y-18.0300
G01 X33.4450 Y-18.0300
G01 X33.4058 Y-18.0319
G01 X33.3670 Y-18.0377
G01 X33.3289 Y-18.0472
G01 X33.2919 Y-18.0604
G01 X33.2564 Y-18.0772
G01 X33.2228 Y-18.0974
G01 X33.1912 Y-18.1208
G01 X33.1675 Y-18.1421
G01 X33.1596 Y-18.1498
G01 X33.1382 Y-18.1734
G01 X33.1313 Y-18.1820
G01 X33.1145 Y-18.2047
G01 X33.1085 Y-18.2140
G01 X33.0940 Y-18.2382
G01 X33.0889 Y-18.2480
G01 X33.0784 Y-18.2702
G01 X33.0741 Y-18.2803
G01 X33.0633 Y-18.3104
G01 X33.0603 Y-18.3210
G01 X33.0543 Y-18.3448
G01 X33.0520 Y-18.3556
G01 X33.0478 Y-18.3835
G01 X33.0463 Y-18.3997
G01 X29.0650 Y-18.3997
G01 X29.0650 Y-16.5150
G01 X29.0648 Y-16.5076
G01 X29.0639 Y-16.4966
G01 X29.0621 Y-16.4857
G01 X29.0596 Y-16.4750
G01 X29.0562 Y-16.4645
G01 X29.0521 Y-16.4542
G01 X29.0473 Y-16.4443
G01 X29.0417 Y-16.4348
G01 X29.0355 Y-16.4256
G01 X29.0286 Y-16.4170
G01 X29.0211 Y-16.4089
G01 X29.0130 Y-16.4014
G01 X29.0044 Y-16.3945
G01 X28.9952 Y-16.3883
G01 X28.9857 Y-16.3827
G01 X28.9758 Y-16.3779
G01 X28.9655 Y-16.3738
G01 X28.9550 Y-16.3704
G01 X28.9479 Y-16.3686
G01 X28.9370 Y-16.3666
G01 X28.9260 Y-16.3654
G01 X28.9187 Y-16.3650
G01 X28.5653 Y-16.3650
G01 X28.5653 Y-14.1475
G01 X28.5778 Y-14.0969
G01 X28.5867 Y-14.0374
G01 X28.5877 Y-14.0264
G01 X28.5901 Y-13.9774
G01 X28.5901 Y-13.9626
G01 X28.5871 Y-13.9063
G01 X28.5778 Y-13.8431
G01 X28.5623 Y-13.7812
G01 X28.5434 Y-13.7280
G01 X28.5378 Y-13.7144
G01 X28.5168 Y-13.6701
G01 X28.5098 Y-13.6571
G01 X28.4807 Y-13.6087
G01 X28.4427 Y-13.5575
G01 X28.3998 Y-13.5102
G01 X27.1272 Y-12.2376
G01 X27.0825 Y-12.1973
G01 X27.0373 Y-12.1636
G01 X27.0250 Y-12.1554
G01 X26.9765 Y-12.1265
G01 X26.9256 Y-12.1022
G01 X26.9120 Y-12.0966
G01 X26.8623 Y-12.0789
G01 X26.8517 Y-12.0758
G01 X26.8040 Y-12.0639
G01 X26.7896 Y-12.0610
G01 X26.7337 Y-12.0529
G01 X26.6700 Y-12.0497
G01 X23.8600 Y-12.0497
G01 X23.8036 Y-12.0523
G01 X23.7890 Y-12.0538
G01 X23.7331 Y-12.0622
G01 X23.6783 Y-12.0758
G01 X23.6677 Y-12.0789
G01 X23.6180 Y-12.0966
G01 X23.6044 Y-12.1022
G01 X23.5535 Y-12.1265
G01 X23.5140 Y-12.1500
G01 X23.4026 Y-12.1502
G01 X23.3916 Y-12.1511
G01 X23.3807 Y-12.1529
G01 X23.3700 Y-12.1554
G01 X23.3595 Y-12.1588
G01 X23.3459 Y-12.1644
G01 X23.3329 Y-12.1713
G01 X23.3267 Y-12.1753
G01 X23.3177 Y-12.1817
G01 X23.3066 Y-12.1914
G01 X23.2964 Y-12.2020
G01 X23.2917 Y-12.2077
G01 X23.2853 Y-12.2167
G01 X23.2777 Y-12.2293
G01 X23.2714 Y-12.2426
G01 X23.2676 Y-12.2529
G01 X23.2636 Y-12.2671
G01 X23.2611 Y-12.2816
G01 X23.2602 Y-12.2926
G01 X23.2600 Y-12.4494
G01 X23.2566 Y-12.4580
G01 X23.2401 Y-12.5043
G01 X23.2358 Y-12.5183
G01 X23.2222 Y-12.5731
G01 X23.2133 Y-12.6326
G01 X23.2123 Y-12.6436
G01 X23.2097 Y-12.7000
G01 X23.2123 Y-12.7564
G01 X23.2138 Y-12.7710
G01 X23.2210 Y-12.8196
G01 X23.2239 Y-12.8340
G01 X23.2377 Y-12.8888
G01 X23.2566 Y-12.9420
G01 X23.2600 Y-12.9506
G01 X23.2600 Y-13.1037
G01 X23.2607 Y-13.1147
G01 X23.2616 Y-13.1220
G01 X23.2645 Y-13.1364
G01 X23.2688 Y-13.1505
G01 X23.2744 Y-13.1641
G01 X23.2795 Y-13.1739
G01 X23.2874 Y-13.1864
G01 X23.2964 Y-13.1980
G01 X23.3066 Y-13.2086
G01 X23.3177 Y-13.2183
G01 X23.3298 Y-13.2267
G01 X23.3426 Y-13.2340
G01 X23.3526 Y-13.2386
G01 X23.3595 Y-13.2412
G01 X23.3736 Y-13.2455
G01 X23.3844 Y-13.2478
G01 X23.3916 Y-13.2489
G01 X23.3990 Y-13.2496
G01 X23.4100 Y-13.2500
G01 X23.5140 Y-13.2500
G01 X23.5535 Y-13.2735
G01 X23.6044 Y-13.2978
G01 X23.6180 Y-13.3034
G01 X23.6712 Y-13.3223
G01 X23.7260 Y-13.3361
G01 X23.7404 Y-13.3390
G01 X23.7963 Y-13.3471
G01 X23.8526 Y-13.3501
G01 X26.4007 Y-13.3503
G01 X27.2647 Y-14.2143
G01 X27.2647 Y-16.3650
G01 X26.9150 Y-16.3650
G01 X26.9003 Y-16.3657
G01 X26.8857 Y-16.3679
G01 X26.8750 Y-16.3704
G01 X26.8679 Y-16.3726
G01 X26.8610 Y-16.3751
G01 X26.8509 Y-16.3794
G01 X26.8411 Y-16.3845
G01 X26.8348 Y-16.3883
G01 X26.8256 Y-16.3945
G01 X26.8170 Y-16.4014
G01 X26.8089 Y-16.4089
G01 X26.8014 Y-16.4170
G01 X26.7967 Y-16.4227
G01 X26.7903 Y-16.4317
G01 X26.7845 Y-16.4411
G01 X26.7810 Y-16.4476
G01 X26.7764 Y-16.4576
G01 X26.7738 Y-16.4645
G01 X26.7704 Y-16.4750
G01 X26.7672 Y-16.4894
G01 X26.7657 Y-16.5003
G01 X26.7650 Y-16.5150
G01 X26.7650 Y-17.7647
G01 X22.7650 Y-17.7647
G01 X22.7650 Y-17.6650
G01 X22.7643 Y-17.6503
G01 X22.7621 Y-17.6357
G01 X22.7585 Y-17.6215
G01 X22.7536 Y-17.6076
G01 X22.7473 Y-17.5943
G01 X22.7437 Y-17.5879
G01 X22.7376 Y-17.5786
G01 X22.7310 Y-17.5698
G01 X22.7261 Y-17.5643
G01 X22.7211 Y-17.5589
G01 X22.7130 Y-17.5514
G01 X22.7073 Y-17.5467
G01 X22.6983 Y-17.5403
G01 X22.6889 Y-17.5345
G01 X22.6824 Y-17.5310
G01 X22.6690 Y-17.5251
G01 X22.6621 Y-17.5226
G01 X22.6514 Y-17.5195
G01 X22.6406 Y-17.5172
G01 X22.6334 Y-17.5161
G01 X22.6260 Y-17.5154
G01 X22.6150 Y-17.5150
G01 X20.6150 Y-17.5150
G01 X20.6003 Y-17.5157
G01 X20.5930 Y-17.5166
G01 X20.5821 Y-17.5186
G01 X20.5679 Y-17.5226
G01 X20.5576 Y-17.5264
G01 X20.5476 Y-17.5310
G01 X20.5379 Y-17.5363
G01 X20.5286 Y-17.5424
G01 X20.5198 Y-17.5490
G01 X20.5116 Y-17.5564
G01 X20.5014 Y-17.5670
G01 X20.4945 Y-17.5756
G01 X20.4883 Y-17.5848
G01 X20.4810 Y-17.5976
G01 X20.4764 Y-17.6076
G01 X20.4726 Y-17.6179
G01 X20.4686 Y-17.6321
G01 X20.4666 Y-17.6430
G01 X20.4654 Y-17.6540
G01 X20.4650 Y-17.6650
G01 X20.4650 Y-19.1650
G00 Z2.0000
G00 X18.7647 Y-20.6010
G01 F100.00
G01 Z-0.1026
G01 F200.00
G01 X18.7414 Y-20.6122
G01 X18.7109 Y-20.6304
G01 X18.7018 Y-20.6367
G01 X18.6762 Y-20.6558
G01 X18.6525 Y-20.6771
G01 X18.6421 Y-20.6875
G01 X18.6208 Y-20.7112
G01 X18.6017 Y-20.7368
G01 X18.5935 Y-20.7490
G01 X18.5772 Y-20.7764
G01 X18.5634 Y-20.8052
G01 X18.5591 Y-20.8153
G01 X18.5483 Y-20.8454
G01 X18.5453 Y-20.8560
G01 X18.5377 Y-20.8870
G01 X18.5328 Y-20.9185
G01 X18.5314 Y-20.9331
G01 X18.5300 Y-20.9650
G01 X18.5302 Y-22.2224
G01 X18.5319 Y-22.2542
G01 X18.5377 Y-22.2930
G01 X18.5472 Y-22.3311
G01 X18.5578 Y-22.3612
G01 X18.5634 Y-22.3748
G01 X18.5755 Y-22.4003
G01 X18.5809 Y-22.4100
G01 X18.5974 Y-22.4372
G01 X18.6208 Y-22.4688
G01 X18.6472 Y-22.4978
G01 X18.6707 Y-22.5194
G01 X18.6791 Y-22.5265
G01 X18.7018 Y-22.5433
G01 X18.7140 Y-22.5515
G01 X18.7414 Y-22.5678
G01 X18.7769 Y-22.5846
G01 X18.8139 Y-22.5978
G01 X18.8484 Y-22.6066
G01 X18.8592 Y-22.6086
G01 X18.8908 Y-22.6131
G01 X18.9300 Y-22.6150
G01 X19.7300 Y-22.6150
G01 X19.7619 Y-22.6136
G01 X19.7765 Y-22.6122
G01 X19.8080 Y-22.6073
G01 X19.8426 Y-22.5988
G01 X19.8531 Y-22.5955
G01 X19.8762 Y-22.5872
G01 X19.8898 Y-22.5816
G01 X19.9186 Y-22.5678
G01 X19.9522 Y-22.5476
G01 X19.9838 Y-22.5242
G01 X20.0075 Y-22.5029
G01 X20.0179 Y-22.4925
G01 X20.0344 Y-22.4743
G01 X20.0415 Y-22.4659
G01 X20.0626 Y-22.4372
G01 X20.0791 Y-22.4100
G01 X20.0861 Y-22.3970
G01 X20.0966 Y-22.3748
G01 X20.1009 Y-22.3647
G01 X20.1128 Y-22.3311
G01 X20.1216 Y-22.2966
G01 X20.1236 Y-22.2858
G01 X20.1277 Y-22.2579
G01 X20.1289 Y-22.2403
G01 X20.7400 Y-22.2403
G01 X20.8001 Y-22.2374
G01 X20.8110 Y-22.2362
G01 X20.8669 Y-22.2278
G01 X20.9288 Y-22.2123
G01 X20.9888 Y-22.1908
G01 X21.0465 Y-22.1635
G01 X21.0950 Y-22.1346
G01 X21.1073 Y-22.1264
G01 X21.1525 Y-22.0927
G01 X21.1972 Y-22.0524
G01 X21.6346 Y-21.6150
G01 X22.6150 Y-21.6150
G01 X22.6297 Y-21.6143
G01 X22.6406 Y-21.6128
G01 X22.6514 Y-21.6105
G01 X22.6621 Y-21.6074
G01 X22.6724 Y-21.6036
G01 X22.6824 Y-21.5990
G01 X22.6952 Y-21.5917
G01 X22.7044 Y-21.5855
G01 X22.7130 Y-21.5786
G01 X22.7211 Y-21.5711
G01 X22.7286 Y-21.5630
G01 X22.7355 Y-21.5544
G01 X22.7437 Y-21.5421
G01 X22.7506 Y-21.5291
G01 X22.7549 Y-21.5190
G01 X22.7585 Y-21.5085
G01 X22.7614 Y-21.4979
G01 X22.7628 Y-21.4906
G01 X22.7643 Y-21.4797
G01 X22.7650 Y-21.4650
G01 X22.7650 Y-19.9650
G01 X22.7646 Y-19.9540
G01 X22.7634 Y-19.9430
G01 X22.7614 Y-19.9321
G01 X22.7574 Y-19.9179
G01 X22.7536 Y-19.9076
G01 X22.7490 Y-19.8976
G01 X22.7437 Y-19.8879
G01 X22.7355 Y-19.8756
G01 X22.7286 Y-19.8670
G01 X22.7211 Y-19.8589
G01 X22.7130 Y-19.8514
G01 X22.7014 Y-19.8424
G01 X22.6921 Y-19.8363
G01 X22.6824 Y-19.8310
G01 X22.6724 Y-19.8264
G01 X22.6585 Y-19.8215
G01 X22.6479 Y-19.8186
G01 X22.6406 Y-19.8172
G01 X22.6297 Y-19.8157
G01 X22.6150 Y-19.8150
G01 X20.6150 Y-19.8150
G01 X20.6003 Y-19.8157
G01 X20.5930 Y-19.8166
G01 X20.5821 Y-19.8186
G01 X20.5679 Y-19.8226
G01 X20.5542 Y-19.8279
G01 X20.5443 Y-19.8327
G01 X20.5379 Y-19.8363
G01 X20.5286 Y-19.8424
G01 X20.5198 Y-19.8490
G01 X20.5116 Y-19.8564
G01 X20.5039 Y-19.8643
G01 X20.4967 Y-19.8727
G01 X20.4924 Y-19.8786
G01 X20.4863 Y-19.8879
G01 X20.4810 Y-19.8976
G01 X20.4764 Y-19.9076
G01 X20.4738 Y-19.9145
G01 X20.4704 Y-19.9250
G01 X20.4679 Y-19.9357
G01 X20.4661 Y-19.9466
G01 X20.4654 Y-19.9540
G01 X20.4650 Y-19.9650
G01 X20.4650 Y-20.9397
G01 X20.1289 Y-20.9397
G01 X20.1277 Y-20.9221
G01 X20.1230 Y-20.8906
G01 X20.1207 Y-20.8798
G01 X20.1147 Y-20.8560
G01 X20.1117 Y-20.8454
G01 X20.1009 Y-20.8153
G01 X20.0966 Y-20.8052
G01 X20.0828 Y-20.7764
G01 X20.0653 Y-20.7469
G01 X20.0652 Y-19.3613
G01 X20.0621 Y-19.3013
G01 X20.0528 Y-19.2381
G01 X20.0373 Y-19.1762
G01 X20.0184 Y-19.1230
G01 X20.0150 Y-19.1144
G01 X20.0150 Y-18.9613
G01 X20.0143 Y-18.9503
G01 X20.0134 Y-18.9430
G01 X20.0114 Y-18.9321
G01 X20.0096 Y-18.9250
G01 X20.0074 Y-18.9179
G01 X20.0036 Y-18.9076
G01 X20.0006 Y-18.9009
G01 X19.9955 Y-18.8911
G01 X19.9876 Y-18.8786
G01 X19.9810 Y-18.8698
G01 X19.9761 Y-18.8643
G01 X19.9711 Y-18.8589
G01 X19.9630 Y-18.8514
G01 X19.9514 Y-18.8424
G01 X19.9389 Y-18.8345
G01 X19.9324 Y-18.8310
G01 X19.9224 Y-18.8264
G01 X19.9121 Y-18.8226
G01 X19.9014 Y-18.8195
G01 X19.8906 Y-18.8172
G01 X19.8760 Y-18.8154
G01 X19.8650 Y-18.8150
G01 X19.7610 Y-18.8150
G01 X19.7215 Y-18.7915
G01 X19.6638 Y-18.7642
G01 X19.6038 Y-18.7427
G01 X19.5455 Y-18.7280
G01 X19.5346 Y-18.7260
G01 X19.4787 Y-18.7179
G01 X19.4150 Y-18.7147
G01 X19.3513 Y-18.7179
G01 X19.2954 Y-18.7260
G01 X19.2810 Y-18.7289
G01 X19.2262 Y-18.7427
G01 X19.1662 Y-18.7642
G01 X19.1085 Y-18.7915
G01 X19.0690 Y-18.8150
G01 X18.9650 Y-18.8150
G01 X18.9540 Y-18.8154
G01 X18.9430 Y-18.8166
G01 X18.9321 Y-18.8186
G01 X18.9215 Y-18.8215
G01 X18.9110 Y-18.8251
G01 X18.8976 Y-18.8310
G01 X18.8879 Y-18.8363
G01 X18.8817 Y-18.8403
G01 X18.8698 Y-18.8490
G01 X18.8589 Y-18.8589
G01 X18.8490 Y-18.8698
G01 X18.8403 Y-18.8817
G01 X18.8327 Y-18.8943
G01 X18.8264 Y-18.9076
G01 X18.8226 Y-18.9179
G01 X18.8186 Y-18.9321
G01 X18.8166 Y-18.9430
G01 X18.8152 Y-18.9576
G01 X18.8150 Y-19.1144
G01 X18.8116 Y-19.1230
G01 X18.7927 Y-19.1762
G01 X18.7772 Y-19.2381
G01 X18.7679 Y-19.3013
G01 X18.7648 Y-19.3613
G01 X18.7647 Y-20.6010
G00 Z2.0000
G00 X30.6687 Y-22.2403
G01 F100.00
G01 Z-0.1026
G01 F200.00
G01 X33.2792 Y-22.2403
G01 X33.3438 Y-22.3112
G01 X33.4123 Y-22.3737
G01 X33.4237 Y-22.3830
G01 X33.4923 Y-22.4339
G01 X33.5045 Y-22.4420
G01 X33.5842 Y-22.4896
G01 X33.6747 Y-22.5324
G01 X33.7689 Y-22.5661
G01 X33.8588 Y-22.5888
G01 X33.8733 Y-22.5917
G01 X33.9650 Y-22.6051
G01 X34.0650 Y-22.6100
G01 X34.5187 Y-22.6100
G01 X34.6150 Y-22.6051
G01 X34.7104 Y-22.5911
G01 X34.7212 Y-22.5888
G01 X34.8111 Y-22.5661
G01 X34.9053 Y-22.5324
G01 X34.9958 Y-22.4896
G01 X35.0817 Y-22.4381
G01 X35.1621 Y-22.3785
G01 X35.2362 Y-22.3112
G01 X35.3035 Y-22.2371
G01 X35.3631 Y-22.1567
G01 X35.4146 Y-22.0708
G01 X35.4574 Y-21.9803
G01 X35.4911 Y-21.8861
G01 X35.5154 Y-21.7890
G01 X35.5301 Y-21.6900
G01 X35.5350 Y-21.5900
G01 X35.5301 Y-21.4900
G01 X35.5161 Y-21.3946
G01 X35.5138 Y-21.3838
G01 X35.4911 Y-21.2939
G01 X35.4600 Y-21.2065
G01 X35.4544 Y-21.1929
G01 X35.4179 Y-21.1158
G01 X35.4109 Y-21.1028
G01 X35.3631 Y-21.0233
G01 X35.3035 Y-20.9429
G01 X35.2362 Y-20.8688
G01 X35.1677 Y-20.8063
G01 X35.1563 Y-20.7970
G01 X35.0877 Y-20.7461
G01 X35.0755 Y-20.7380
G01 X34.9958 Y-20.6904
G01 X34.9053 Y-20.6476
G01 X34.8111 Y-20.6139
G01 X34.7212 Y-20.5912
G01 X34.7067 Y-20.5883
G01 X34.6223 Y-20.5758
G01 X34.6113 Y-20.5746
G01 X34.5150 Y-20.5700
G01 X34.0576 Y-20.5702
G01 X33.9650 Y-20.5749
G01 X33.8733 Y-20.5883
G01 X33.8588 Y-20.5912
G01 X33.7724 Y-20.6129
G01 X33.7619 Y-20.6162
G01 X33.6815 Y-20.6450
G01 X33.6679 Y-20.6506
G01 X33.5842 Y-20.6904
G01 X33.4983 Y-20.7419
G01 X33.4237 Y-20.7970
G01 X33.4123 Y-20.8063
G01 X33.3438 Y-20.8688
G01 X33.2792 Y-20.9397
G01 X30.6687 Y-20.9397
G01 X30.6543 Y-20.9211
G01 X30.5875 Y-20.8475
G01 X30.5167 Y-20.7831
G01 X30.5053 Y-20.7738
G01 X30.4283 Y-20.7170
G01 X30.3464 Y-20.6676
G01 X30.3334 Y-20.6607
G01 X30.2468 Y-20.6199
G01 X30.1498 Y-20.5852
G01 X30.0570 Y-20.5618
G01 X30.0426 Y-20.5589
G01 X29.9479 Y-20.5451
G01 X29.8524 Y-20.5402
G01 X29.8376 Y-20.5402
G01 X29.7457 Y-20.5447
G01 X29.7348 Y-20.5460
G01 X29.6402 Y-20.5602
G01 X29.5402 Y-20.5852
G01 X29.4432 Y-20.6199
G01 X29.3500 Y-20.6640
G01 X29.2617 Y-20.7170
G01 X29.1789 Y-20.7783
G01 X29.1025 Y-20.8475
G01 X29.0333 Y-20.9239
G01 X28.9720 Y-21.0067
G01 X28.9190 Y-21.0950
G01 X28.8749 Y-21.1882
G01 X28.8402 Y-21.2852
G01 X28.8152 Y-21.3852
G01 X28.8001 Y-21.4871
G01 X28.7950 Y-21.5900
G01 X28.8001 Y-21.6929
G01 X28.8152 Y-21.7948
G01 X28.8402 Y-21.8948
G01 X28.8749 Y-21.9918
G01 X28.9190 Y-22.0850
G01 X28.9720 Y-22.1733
G01 X29.0333 Y-22.2561
G01 X29.1025 Y-22.3325
G01 X29.1789 Y-22.4017
G01 X29.2617 Y-22.4630
G01 X29.3500 Y-22.5160
G01 X29.4432 Y-22.5601
G01 X29.5402 Y-22.5948
G01 X29.6402 Y-22.6198
G01 X29.7421 Y-22.6349
G01 X29.8450 Y-22.6400
G01 X29.9479 Y-22.6349
G01 X30.0498 Y-22.6198
G01 X30.1498 Y-22.5948
G01 X30.2468 Y-22.5601
G01 X30.3400 Y-22.5160
G01 X30.4283 Y-22.4630
G01 X30.5111 Y-22.4017
G01 X30.5875 Y-22.3325
G01 X30.6543 Y-22.2589
G01 X30.6687 Y-22.2403
G00 Z2.0000
G00 X25.7815 Y-34.9097
G01 F100.00
G01 Z-0.1026
G01 F200.00
G01 X25.7643 Y-34.8909
G01 X25.7591 Y-34.8857
G01 X25.6955 Y-34.8280
G01 X25.6869 Y-34.8211
G01 X25.6208 Y-34.7722
G01 X25.6116 Y-34.7662
G01 X25.5378 Y-34.7222
G01 X25.4569 Y-34.6838
G01 X25.4467 Y-34.6797
G01 X25.3658 Y-34.6509
G01 X25.2753 Y-34.6283
G01 X25.1831 Y-34.6146
G01 X25.0937 Y-34.6100
G01 X25.0826 Y-34.6102
G01 X24.9969 Y-34.6146
G01 X24.9047 Y-34.6283
G01 X24.8142 Y-34.6509
G01 X24.7265 Y-34.6823
G01 X24.6422 Y-34.7222
G01 X24.5622 Y-34.7701
G01 X24.4873 Y-34.8256
G01 X24.4209 Y-34.8857
G01 X24.4132 Y-34.8936
G01 X24.3556 Y-34.9573
G01 X24.3001 Y-35.0322
G01 X24.2522 Y-35.1122
G01 X24.2123 Y-35.1965
G01 X24.1809 Y-35.2842
G01 X24.1583 Y-35.3747
G01 X24.1446 Y-35.4669
G01 X24.1400 Y-35.5600
G01 X24.1446 Y-35.6531
G01 X24.1583 Y-35.7453
G01 X24.1809 Y-35.8358
G01 X24.2123 Y-35.9235
G01 X24.2522 Y-36.0078
G01 X24.3001 Y-36.0878
G01 X24.3556 Y-36.1627
G01 X24.4157 Y-36.2291
G01 X24.4236 Y-36.2368
G01 X24.4873 Y-36.2944
G01 X24.5622 Y-36.3499
G01 X24.6422 Y-36.3978
G01 X24.7265 Y-36.4377
G01 X24.8142 Y-36.4691
G01 X24.9047 Y-36.4917
G01 X24.9969 Y-36.5054
G01 X25.0826 Y-36.5098
G01 X25.0937 Y-36.5100
G01 X25.1831 Y-36.5054
G01 X25.2753 Y-36.4917
G01 X25.3658 Y-36.4691
G01 X25.4467 Y-36.4403
G01 X25.4569 Y-36.4362
G01 X25.5378 Y-36.3978
G01 X25.6116 Y-36.3538
G01 X25.6208 Y-36.3478
G01 X25.6869 Y-36.2989
G01 X25.6955 Y-36.2920
G01 X25.7591 Y-36.2343
G01 X25.7643 Y-36.2291
G01 X25.7815 Y-36.2103
G01 X30.4837 Y-36.2102
G01 X30.5364 Y-36.2077
G01 X30.5510 Y-36.2062
G01 X30.6069 Y-36.1978
G01 X30.6617 Y-36.1842
G01 X30.6757 Y-36.1799
G01 X30.7288 Y-36.1608
G01 X30.7865 Y-36.1335
G01 X30.8413 Y-36.1007
G01 X30.8867 Y-36.0672
G01 X30.8981 Y-36.0578
G01 X30.9398 Y-36.0198
G01 X34.7498 Y-32.2098
G01 X34.7878 Y-32.1681
G01 X34.7972 Y-32.1567
G01 X34.8307 Y-32.1113
G01 X34.8598 Y-32.0629
G01 X34.8668 Y-32.0499
G01 X34.8908 Y-31.9988
G01 X34.9099 Y-31.9457
G01 X34.9142 Y-31.9317
G01 X34.9270 Y-31.8805
G01 X34.9290 Y-31.8696
G01 X34.9371 Y-31.8137
G01 X34.9402 Y-31.7537
G01 X34.9403 Y-31.5000
G01 X35.1350 Y-31.5000
G01 X35.1669 Y-31.4986
G01 X35.1815 Y-31.4972
G01 X35.2130 Y-31.4923
G01 X35.2440 Y-31.4847
G01 X35.2546 Y-31.4817
G01 X35.2881 Y-31.4696
G01 X35.3203 Y-31.4545
G01 X35.3300 Y-31.4491
G01 X35.3510 Y-31.4365
G01 X35.3632 Y-31.4283
G01 X35.3888 Y-31.4092
G01 X35.4178 Y-31.3828
G01 X35.4442 Y-31.3538
G01 X35.4633 Y-31.3282
G01 X35.4715 Y-31.3160
G01 X35.4841 Y-31.2950
G01 X35.4895 Y-31.2853
G01 X35.5046 Y-31.2531
G01 X35.5167 Y-31.2196
G01 X35.5197 Y-31.2090
G01 X35.5257 Y-31.1852
G01 X35.5286 Y-31.1708
G01 X35.5331 Y-31.1392
G01 X35.5350 Y-31.1037
G01 X35.5350 Y-29.8563
G01 X35.5334 Y-29.8245
G01 X35.5322 Y-29.8135
G01 X35.5273 Y-29.7820
G01 X35.5197 Y-29.7510
G01 X35.5155 Y-29.7369
G01 X35.5046 Y-29.7069
G01 X35.4878 Y-29.6714
G01 X35.4715 Y-29.6440
G01 X35.4633 Y-29.6318
G01 X35.4442 Y-29.6062
G01 X35.4229 Y-29.5825
G01 X35.4125 Y-29.5721
G01 X35.3888 Y-29.5508
G01 X35.3632 Y-29.5317
G01 X35.3510 Y-29.5235
G01 X35.3236 Y-29.5072
G01 X35.2948 Y-29.4934
G01 X35.2812 Y-29.4878
G01 X35.2511 Y-29.4772
G01 X35.2202 Y-29.4693
G01 X35.2058 Y-29.4664
G01 X35.1742 Y-29.4619
G01 X35.1424 Y-29.4602
G01 X33.4450 Y-29.4600
G01 X33.4131 Y-29.4614
G01 X33.4021 Y-29.4623
G01 X33.3706 Y-29.4670
G01 X33.3598 Y-29.4693
G01 X33.3360 Y-29.4753
G01 X33.3219 Y-29.4795
G01 X33.2953 Y-29.4891
G01 X33.2852 Y-29.4934
G01 X33.2564 Y-29.5072
G01 X33.2228 Y-29.5274
G01 X33.1912 Y-29.5508
G01 X33.1622 Y-29.5772
G01 X33.1358 Y-29.6062
G01 X33.1124 Y-29.6378
G01 X33.0922 Y-29.6714
G01 X33.0784 Y-29.7002
G01 X33.0741 Y-29.7103
G01 X33.0645 Y-29.7369
G01 X33.0603 Y-29.7510
G01 X33.0543 Y-29.7748
G01 X33.0520 Y-29.7856
G01 X33.0478 Y-29.8135
G01 X33.0466 Y-29.8245
G01 X33.0450 Y-29.8600
G01 X33.0450 Y-31.1000
G01 X33.0469 Y-31.1392
G01 X33.0514 Y-31.1708
G01 X33.0543 Y-31.1852
G01 X33.0612 Y-31.2126
G01 X33.0645 Y-31.2231
G01 X33.0754 Y-31.2531
G01 X33.0889 Y-31.2820
G01 X33.0940 Y-31.2918
G01 X33.1104 Y-31.3191
G01 X33.1167 Y-31.3282
G01 X33.1313 Y-31.3480
G01 X33.1382 Y-31.3566
G01 X33.1596 Y-31.3802
G01 X33.1675 Y-31.3879
G01 X33.1884 Y-31.4068
G01 X33.1970 Y-31.4137
G01 X33.2228 Y-31.4326
G01 X33.2532 Y-31.4510
G01 X33.2630 Y-31.4561
G01 X33.2919 Y-31.4696
G01 X33.3289 Y-31.4828
G01 X33.3670 Y-31.4923
G01 X33.4021 Y-31.4977
G01 X33.4131 Y-31.4986
G01 X33.4450 Y-31.5000
G01 X33.6204 Y-31.5000
G01 X30.2107 Y-34.9097
G01 X25.7815 Y-34.9097
G00 Z2.0000
G00 X4.1300 Y-29.4700
G01 F100.00
G01 Z-0.1026
G01 F200.00
G01 X4.1307 Y-29.4847
G01 X4.1322 Y-29.4956
G01 X4.1354 Y-29.5100
G01 X4.1401 Y-29.5240
G01 X4.1460 Y-29.5374
G01 X4.1533 Y-29.5502
G01 X4.1595 Y-29.5594
G01 X4.1689 Y-29.5707
G01 X4.1793 Y-29.5811
G01 X4.1906 Y-29.5905
G01 X4.2029 Y-29.5987
G01 X4.2159 Y-29.6056
G01 X4.2260 Y-29.6099
G01 X4.2400 Y-29.6146
G01 X4.2544 Y-29.6178
G01 X4.2690 Y-29.6196
G01 X4.2800 Y-29.6200
G01 X5.8874 Y-29.6198
G01 X5.8984 Y-29.6189
G01 X5.9056 Y-29.6178
G01 X5.9164 Y-29.6155
G01 X5.9271 Y-29.6124
G01 X5.9374 Y-29.6086
G01 X5.9474 Y-29.6040
G01 X5.9571 Y-29.5987
G01 X5.9633 Y-29.5947
G01 X5.9723 Y-29.5883
G01 X5.9807 Y-29.5811
G01 X5.9861 Y-29.5761
G01 X5.9936 Y-29.5680
G01 X6.0005 Y-29.5594
G01 X6.0067 Y-29.5502
G01 X6.0123 Y-29.5407
G01 X6.0156 Y-29.5341
G01 X6.0212 Y-29.5205
G01 X6.0246 Y-29.5100
G01 X6.0278 Y-29.4956
G01 X6.0296 Y-29.4810
G01 X6.0300 Y-29.4700
G01 X6.0300 Y-29.3203
G01 X8.0007 Y-29.3203
G01 X13.7847 Y-35.1043
G01 X13.7747 Y-35.1321
G01 X13.7714 Y-35.1426
G01 X13.7395 Y-35.2699
G01 X13.7372 Y-35.2807
G01 X13.7170 Y-35.4179
G01 X13.7102 Y-35.5526
G01 X13.7102 Y-35.5674
G01 X13.7170 Y-35.7021
G01 X13.7379 Y-35.8429
G01 X13.7724 Y-35.9809
G01 X13.8177 Y-36.1080
G01 X13.8234 Y-36.1216
G01 X13.8812 Y-36.2435
G01 X13.9544 Y-36.3656
G01 X14.0391 Y-36.4799
G01 X14.1347 Y-36.5853
G01 X14.2401 Y-36.6809
G01 X14.3544 Y-36.7656
G01 X14.4765 Y-36.8388
G01 X14.5984 Y-36.8966
G01 X14.6085 Y-36.9010
G01 X14.7391 Y-36.9476
G01 X14.8771 Y-36.9821
G01 X15.0179 Y-37.0030
G01 X15.1600 Y-37.0100
G01 X15.3021 Y-37.0030
G01 X15.4429 Y-36.9821
G01 X15.5809 Y-36.9476
G01 X15.7115 Y-36.9010
G01 X15.7216 Y-36.8966
G01 X15.8435 Y-36.8388
G01 X15.9656 Y-36.7656
G01 X16.0799 Y-36.6809
G01 X16.1827 Y-36.5879
G01 X16.1904 Y-36.5800
G01 X16.2809 Y-36.4799
G01 X16.3635 Y-36.3686
G01 X16.3696 Y-36.3594
G01 X16.4370 Y-36.2468
G01 X16.4421 Y-36.2369
G01 X16.4547 Y-36.2103
G01 X20.6400 Y-36.2103
G01 X20.6400 Y-36.3600
G01 X20.6404 Y-36.3710
G01 X20.6422 Y-36.3856
G01 X20.6454 Y-36.4000
G01 X20.6501 Y-36.4140
G01 X20.6560 Y-36.4274
G01 X20.6613 Y-36.4371
