(G-CODE GENERATED BY FLATCAM v8.994 - www.flatcam.org - Version Date: 2020/11/7)

(Name: AlarmClock.drl_mill_slot_cnc)
(Type: G-code from Geometry)
(Units: MM)

(Created on Neděle, 27 března 2022 at 15:12)

(This preprocessor is the default preprocessor used by FlatCAM.)
(It is made to work with MACH3 compatible motion controllers.)

(TOOL DIAMETER: 1.0 mm)
(Feedrate_XY: 40.0 mm/min)
(Feedrate_Z: 10.0 mm/min)
(Feedrate rapids 1500.0 mm/min)

(Z_Cut: -1.6 mm)
(Z_Move: 2.0 mm)
(Z Start: None mm)
(Z End: 10.0 mm)
(X,Y End: None mm)
(Steps per circle: 64)
(Preprocessor Geometry: default)

(X range:  -29.4651 ...  -23.7649  mm)
(Y range:  -37.7501 ...  -31.7499  mm)

(Spindle Speed: 10000.0 RPM)
G21
G90
G94

G01 F40.00

M5
G00 Z15.0000
G00 X0.0000 Y0.0000
T1
M6    
(MSG, Change to Tool Dia = 1.0000)
M0
G00 Z15.0000

M03 S10000.0
G4 P1.0
G01 F40.00
G00 X-25.7650 Y-31.7501
G01 F10.00
G01 Z-1.6000
G01 F40.00
G01 X-25.7650 Y-31.7499
G01 X-23.7649 Y-31.7500
G01 X-23.7650 Y-31.7501
G01 X-25.7650 Y-31.7501
G00 Z2.0000
G00 X-29.4651 Y-33.7500
G01 F10.00
G01 Z-1.6000
G01 F40.00
G01 X-29.4649 Y-33.7500
G01 X-29.4650 Y-35.7501
G01 X-29.4651 Y-35.7500
G01 X-29.4651 Y-33.7500
G00 Z2.0000
G00 X-25.7650 Y-37.7501
G01 F10.00
G01 Z-1.6000
G01 F40.00
G01 X-25.7650 Y-37.7499
G01 X-23.7649 Y-37.7500
G01 X-23.7650 Y-37.7501
G01 X-25.7650 Y-37.7501
G00 Z2.0000
M05
G00 Z2.0000
G00 Z10.00


