(G-CODE GENERATED BY FLATCAM v8.994 - www.flatcam.org - Version Date: 2020/11/7)

(Name: AlarmClock-encoder.drl_cnc)
(Type: G-code from Geometry)
(Units: MM)

(Created on Středa, 06 dubna 2022 at 20:50)

(This preprocessor is the default preprocessor used by FlatCAM.)
(It is made to work with MACH3 compatible motion controllers.)


(TOOLS DIAMETER: )
(Tool: 1 -> Dia: 1.0)
(Tool: 2 -> Dia: 2.0)
(Tool: 3 -> Dia: 3.2)

(FEEDRATE Z: )
(Tool: 1 -> Feedrate: 100.0)
(Tool: 2 -> Feedrate: 100.0)
(Tool: 3 -> Feedrate: 100.0)

(FEEDRATE RAPIDS: )
(Tool: 1 -> Feedrate Rapids: 1500)
(Tool: 2 -> Feedrate Rapids: 1500)
(Tool: 3 -> Feedrate Rapids: 1500)

(Z_CUT: )
(Tool: 1 -> Z_Cut: -1.7)
(Tool: 2 -> Z_Cut: -1.7)
(Tool: 3 -> Z_Cut: -1.7)

(Tools Offset: )
(Tool: 1 -> Offset Z: 0.0)

(Z_MOVE: )
(Tool: 1 -> Z_Move: 2)
(Tool: 2 -> Z_Move: 2)
(Tool: 3 -> Z_Move: 2)

(Z Toolchange: 15 mm)
(X,Y Toolchange: 0.0000, 0.0000 mm)
(Z Start: None mm)
(Z End: 5.0 mm)
(X,Y End: None mm)
(Steps per circle: 64)
(Preprocessor Excellon: default)

(X range:    2.2100 ...   25.4760  mm)
(Y range:  -21.8800 ...   -2.2100  mm)

(Spindle Speed: 10000 RPM)
G21
G90
G94

G01 F100.00

M5
G00 Z15.0000
T1
G00 X0.0000 Y0.0000                
M6
(MSG, Change to Tool Dia = 1.0000 ||| Total drills for tool T1 = 10)
M0
G00 Z15.0000

G01 F100.00
M03 S10000
G4 P1
G00 X3.8100 Y-17.7800
G01 Z-1.7000
G01 Z0
G00 Z2.0000
G00 X3.8100 Y-15.2800
G01 Z-1.7000
G01 Z0
G00 Z2.0000
G00 X3.8100 Y-12.7800
G01 Z-1.7000
G01 Z0
G00 Z2.0000
G00 X18.3100 Y-12.7800
G01 Z-1.7000
G01 Z0
G00 Z2.0000
G00 X22.8600 Y-10.1600
G01 Z-1.7000
G01 Z0
G00 Z2.0000
G00 X22.8600 Y-12.7000
G01 Z-1.7000
G01 Z0
G00 Z2.0000
G00 X22.8600 Y-15.2400
G01 Z-1.7000
G01 Z0
G00 Z2.0000
G00 X22.8600 Y-17.7800
G01 Z-1.7000
G01 Z0
G00 Z2.0000
G00 X22.8600 Y-20.3200
G01 Z-1.7000
G01 Z0
G00 Z2.0000
G00 X18.3100 Y-17.7800
G01 Z-1.7000
G01 Z0
G00 Z2.0000
M05
G00 Z5.00


