(G-CODE GENERATED BY FLATCAM v8.994 - www.flatcam.org - Version Date: 2020/11/7)

(Name: AlarmClock-encoder-B_Cu.gbr_iso_combined_cnc)
(Type: G-code from Geometry)
(Units: MM)

(Created on Středa, 06 dubna 2022 at 20:49)

(This preprocessor is the default preprocessor used by FlatCAM.)
(It is made to work with MACH3 compatible motion controllers.)

(TOOL DIAMETER: 0.3 mm)
(Feedrate_XY: 200.0 mm/min)
(Feedrate_Z: 100.0 mm/min)
(Feedrate rapids 1500.0 mm/min)

(Z_Cut: -0.1026 mm)
(Z_Move: 2.0 mm)
(Z Start: None mm)
(Z End: 5.0 mm)
(X,Y End: None mm)
(Steps per circle: 64)
(Preprocessor Geometry: default)

(X range:    2.6600 ...   26.0503  mm)
(Y range:  -23.6803 ...   -6.9697  mm)

(Spindle Speed: 10000.0 RPM)
G21
G90
G94

G01 F200.00

M5
G00 Z15.0000
G00 X0.0000 Y0.0000
T2
M6    
(MSG, Change to Tool Dia = 0.3000)
M0
G00 Z15.0000

M03 S10000.0
G4 P1.0
G01 F200.00
G00 X9.8100 Y-8.2800
G01 F100.00
G01 Z-0.1026
G01 F200.00
G01 X9.7953 Y-8.2807
G01 X9.7807 Y-8.2829
G01 X9.7665 Y-8.2865
G01 X9.7560 Y-8.2901
G01 X9.7426 Y-8.2960
G01 X9.7298 Y-8.3033
G01 X9.7177 Y-8.3117
G01 X9.7066 Y-8.3214
G01 X9.6964 Y-8.3320
G01 X9.6874 Y-8.3436
G01 X9.6795 Y-8.3561
G01 X9.6729 Y-8.3692
G01 X9.6676 Y-8.3829
G01 X9.6636 Y-8.3971
G01 X9.6611 Y-8.4116
G01 X9.6600 Y-8.4263
G01 X9.6600 Y-10.9337
G01 X9.6611 Y-10.9484
G01 X9.6636 Y-10.9629
G01 X9.6665 Y-10.9735
G01 X9.6688 Y-10.9805
G01 X9.6744 Y-10.9941
G01 X9.6813 Y-11.0071
G01 X9.6874 Y-11.0164
G01 X9.6917 Y-11.0223
G01 X9.7014 Y-11.0334
G01 X9.7120 Y-11.0436
G01 X9.7236 Y-11.0526
G01 X9.7361 Y-11.0605
G01 X9.7459 Y-11.0656
G01 X9.7595 Y-11.0712
G01 X9.7736 Y-11.0755
G01 X9.7844 Y-11.0778
G01 X9.7953 Y-11.0793
G01 X9.8100 Y-11.0800
G01 X12.8100 Y-11.0800
G01 X12.8247 Y-11.0793
G01 X12.8393 Y-11.0771
G01 X12.8535 Y-11.0735
G01 X12.8640 Y-11.0699
G01 X12.8708 Y-11.0671
G01 X12.8774 Y-11.0640
G01 X12.8871 Y-11.0587
G01 X12.8994 Y-11.0505
G01 X12.9052 Y-11.0460
G01 X12.9134 Y-11.0386
G01 X12.9236 Y-11.0280
G01 X12.9305 Y-11.0194
G01 X12.9387 Y-11.0071
G01 X12.9456 Y-10.9941
G01 X12.9499 Y-10.9840
G01 X12.9535 Y-10.9735
G01 X12.9571 Y-10.9593
G01 X12.9589 Y-10.9484
G01 X12.9600 Y-10.9337
G01 X12.9600 Y-8.4300
G01 X12.9593 Y-8.4153
G01 X12.9584 Y-8.4080
G01 X12.9564 Y-8.3971
G01 X12.9524 Y-8.3829
G01 X12.9471 Y-8.3692
G01 X12.9440 Y-8.3626
G01 X12.9387 Y-8.3529
G01 X12.9305 Y-8.3406
G01 X12.9260 Y-8.3348
G01 X12.9186 Y-8.3266
G01 X12.9080 Y-8.3164
G01 X12.8994 Y-8.3095
G01 X12.8871 Y-8.3013
G01 X12.8741 Y-8.2944
G01 X12.8640 Y-8.2901
G01 X12.8500 Y-8.2854
G01 X12.8393 Y-8.2829
G01 X12.8247 Y-8.2807
G01 X12.8100 Y-8.2800
G01 X9.8100 Y-8.2800
G00 Z2.0000
G00 X4.7580 Y-12.1297
G01 F100.00
G01 Z-0.1026
G01 F200.00
G01 X4.6990 Y-12.0504
G01 X4.6232 Y-11.9668
G01 X4.5396 Y-11.8910
G01 X4.4489 Y-11.8238
G01 X4.3521 Y-11.7658
G01 X4.2501 Y-11.7175
G01 X4.1438 Y-11.6795
G01 X4.0344 Y-11.6521
G01 X3.9227 Y-11.6355
G01 X3.8100 Y-11.6300
G01 X3.6973 Y-11.6355
G01 X3.5856 Y-11.6521
G01 X3.4762 Y-11.6795
G01 X3.3699 Y-11.7175
G01 X3.2679 Y-11.7658
G01 X3.1711 Y-11.8238
G01 X3.0804 Y-11.8910
G01 X2.9968 Y-11.9668
G01 X2.9210 Y-12.0504
G01 X2.8538 Y-12.1411
G01 X2.7958 Y-12.2379
G01 X2.7475 Y-12.3399
G01 X2.7095 Y-12.4462
G01 X2.6821 Y-12.5556
G01 X2.6655 Y-12.6673
G01 X2.6600 Y-12.7800
G01 X2.6655 Y-12.8927
G01 X2.6821 Y-13.0044
G01 X2.7095 Y-13.1138
G01 X2.7475 Y-13.2201
G01 X2.7958 Y-13.3221
G01 X2.8538 Y-13.4189
G01 X2.9210 Y-13.5096
G01 X2.9918 Y-13.5878
G01 X3.0022 Y-13.5982
G01 X3.0804 Y-13.6690
G01 X3.1651 Y-13.7320
G01 X3.1773 Y-13.7401
G01 X3.2679 Y-13.7942
G01 X3.3632 Y-13.8395
G01 X3.3768 Y-13.8451
G01 X3.4762 Y-13.8805
G01 X3.5785 Y-13.9063
G01 X3.5929 Y-13.9092
G01 X3.6973 Y-13.9245
G01 X3.8100 Y-13.9300
G01 X3.9227 Y-13.9245
G01 X4.0271 Y-13.9092
G01 X4.0415 Y-13.9063
G01 X4.1438 Y-13.8805
G01 X4.2432 Y-13.8451
G01 X4.2568 Y-13.8395
G01 X4.3521 Y-13.7942
G01 X4.4489 Y-13.7362
G01 X4.5337 Y-13.6735
G01 X4.5451 Y-13.6642
G01 X4.6178 Y-13.5982
G01 X4.6282 Y-13.5878
G01 X4.6990 Y-13.5096
G01 X4.7580 Y-13.4303
G01 X13.8900 Y-13.4303
G01 X13.9537 Y-13.4271
G01 X14.0169 Y-13.4178
G01 X14.0717 Y-13.4042
G01 X14.0857 Y-13.3999
G01 X14.1388 Y-13.3808
G01 X14.1965 Y-13.3535
G01 X14.2450 Y-13.3246
G01 X14.2573 Y-13.3164
G01 X14.3025 Y-13.2827
G01 X14.3472 Y-13.2424
G01 X19.3193 Y-8.2703
G01 X23.8607 Y-8.2703
G01 X24.7497 Y-9.1593
G01 X24.7497 Y-13.7007
G01 X23.8607 Y-14.5897
G01 X23.6189 Y-14.5897
G01 X23.5671 Y-14.5329
G01 X23.5000 Y-14.4718
G01 X23.4886 Y-14.4625
G01 X23.4156 Y-14.4085
G01 X23.3378 Y-14.3617
G01 X23.3248 Y-14.3548
G01 X23.2427 Y-14.3161
G01 X23.1503 Y-14.2831
G01 X23.0551 Y-14.2592
G01 X22.9580 Y-14.2448
G01 X22.8600 Y-14.2400
G01 X22.7693 Y-14.2443
G01 X22.7547 Y-14.2457
G01 X22.6649 Y-14.2592
G01 X22.5697 Y-14.2831
G01 X22.4773 Y-14.3161
G01 X22.3952 Y-14.3548
G01 X22.3822 Y-14.3617
G01 X22.3106 Y-14.4046
G01 X22.2984 Y-14.4128
G01 X22.2256 Y-14.4670
G01 X22.1582 Y-14.5278
G01 X22.1478 Y-14.5382
G01 X22.0870 Y-14.6056
G01 X22.0285 Y-14.6844
G01 X21.9781 Y-14.7686
G01 X21.9391 Y-14.8506
G01 X21.9335 Y-14.8642
G01 X21.9031 Y-14.9497
G01 X21.8792 Y-15.0449
G01 X21.8657 Y-15.1347
G01 X21.8643 Y-15.1493
G01 X21.8600 Y-15.2400
G01 X21.8648 Y-15.3380
G01 X21.8780 Y-15.4278
G01 X21.8808 Y-15.4423
G01 X21.9031 Y-15.5303
G01 X21.9361 Y-15.6227
G01 X21.9748 Y-15.7048
G01 X21.9817 Y-15.7178
G01 X22.0285 Y-15.7956
G01 X22.0825 Y-15.8686
G01 X22.0918 Y-15.8800
G01 X22.1529 Y-15.9471
G01 X22.2256 Y-16.0130
G01 X22.2984 Y-16.0672
G01 X22.3106 Y-16.0754
G01 X22.3886 Y-16.1219
G01 X22.4773 Y-16.1639
G01 X22.5697 Y-16.1969
G01 X22.6577 Y-16.2192
G01 X22.6722 Y-16.2220
G01 X22.7620 Y-16.2352
G01 X22.8526 Y-16.2398
G01 X22.8674 Y-16.2398
G01 X22.9580 Y-16.2352
G01 X23.0478 Y-16.2220
G01 X23.0623 Y-16.2192
G01 X23.1432 Y-16.1989
G01 X23.1573 Y-16.1946
G01 X23.2427 Y-16.1639
G01 X23.3248 Y-16.1252
G01 X23.3346 Y-16.1201
G01 X23.4156 Y-16.0715
G01 X23.4944 Y-16.0130
G01 X23.5671 Y-15.9471
G01 X23.6189 Y-15.8903
G01 X24.1300 Y-15.8903
G01 X24.1864 Y-15.8877
G01 X24.1974 Y-15.8867
G01 X24.2496 Y-15.8790
G01 X24.2640 Y-15.8761
G01 X24.3188 Y-15.8623
G01 X24.3720 Y-15.8434
G01 X24.3856 Y-15.8378
G01 X24.4365 Y-15.8135
G01 X24.4913 Y-15.7807
G01 X24.5425 Y-15.7427
G01 X24.5898 Y-15.6998
G01 X25.8624 Y-14.4272
G01 X25.9027 Y-14.3825
G01 X25.9407 Y-14.3313
G01 X25.9735 Y-14.2765
G01 X26.0008 Y-14.2188
G01 X26.0223 Y-14.1588
G01 X26.0378 Y-14.0969
G01 X26.0471 Y-14.0337
G01 X26.0503 Y-13.9700
G01 X26.0503 Y-8.8900
G01 X26.0471 Y-8.8263
G01 X26.0390 Y-8.7704
G01 X26.0361 Y-8.7560
G01 X26.0242 Y-8.7083
G01 X26.0199 Y-8.6943
G01 X26.0008 Y-8.6412
G01 X25.9735 Y-8.5835
G01 X25.9446 Y-8.5350
G01 X25.9364 Y-8.5227
G01 X25.9027 Y-8.4775
G01 X25.8624 Y-8.4328
G01 X24.5845 Y-7.1551
G01 X24.5481 Y-7.1222
G01 X24.5367 Y-7.1128
G01 X24.4913 Y-7.0793
G01 X24.4429 Y-7.0502
G01 X24.4299 Y-7.0432
G01 X24.3788 Y-7.0192
G01 X24.3257 Y-7.0001
G01 X24.3117 Y-6.9958
G01 X24.2569 Y-6.9822
G01 X24.2010 Y-6.9738
G01 X24.1864 Y-6.9723
G01 X24.1300 Y-6.9697
G01 X19.0500 Y-6.9697
G01 X18.9863 Y-6.9729
G01 X18.9304 Y-6.9810
G01 X18.9160 Y-6.9839
G01 X18.8683 Y-6.9958
G01 X18.8543 Y-7.0001
G01 X18.8012 Y-7.0192
G01 X18.7435 Y-7.0465
G01 X18.6950 Y-7.0754
G01 X18.6827 Y-7.0836
G01 X18.6375 Y-7.1173
G01 X18.5928 Y-7.1576
G01 X13.6207 Y-12.1297
G01 X4.7580 Y-12.1297
G00 Z2.0000
G00 X4.7580 Y-14.6297
G01 F100.00
G01 Z-0.1026
G01 F200.00
G01 X4.6990 Y-14.5504
G01 X4.6232 Y-14.4668
G01 X4.5396 Y-14.3910
G01 X4.4489 Y-14.3238
G01 X4.3521 Y-14.2658
G01 X4.2501 Y-14.2175
G01 X4.1438 Y-14.1795
G01 X4.0344 Y-14.1521
G01 X3.9227 Y-14.1355
G01 X3.8100 Y-14.1300
G01 X3.6973 Y-14.1355
G01 X3.5856 Y-14.1521
G01 X3.4762 Y-14.1795
G01 X3.3699 Y-14.2175
G01 X3.2679 Y-14.2658
G01 X3.1711 Y-14.3238
G01 X3.0804 Y-14.3910
G01 X2.9968 Y-14.4668
G01 X2.9210 Y-14.5504
G01 X2.8538 Y-14.6411
G01 X2.7958 Y-14.7379
G01 X2.7475 Y-14.8399
G01 X2.7095 Y-14.9462
G01 X2.6821 Y-15.0556
G01 X2.6655 Y-15.1673
G01 X2.6600 Y-15.2800
G01 X2.6655 Y-15.3927
G01 X2.6821 Y-15.5044
G01 X2.7095 Y-15.6138
G01 X2.7475 Y-15.7201
G01 X2.7958 Y-15.8221
G01 X2.8538 Y-15.9189
G01 X2.9210 Y-16.0096
G01 X2.9918 Y-16.0878
G01 X3.0022 Y-16.0982
G01 X3.0804 Y-16.1690
G01 X3.1651 Y-16.2320
G01 X3.1773 Y-16.2401
G01 X3.2679 Y-16.2942
G01 X3.3699 Y-16.3425
G01 X3.4692 Y-16.3782
G01 X3.4833 Y-16.3824
G01 X3.5856 Y-16.4079
G01 X3.6900 Y-16.4236
G01 X3.7046 Y-16.4250
G01 X3.8100 Y-16.4300
G01 X3.9154 Y-16.4250
G01 X3.9300 Y-16.4236
G01 X4.0344 Y-16.4079
G01 X4.1367 Y-16.3824
G01 X4.1508 Y-16.3782
G01 X4.2501 Y-16.3425
G01 X4.3521 Y-16.2942
G01 X4.4489 Y-16.2362
G01 X4.5337 Y-16.1735
G01 X4.5451 Y-16.1642
G01 X4.6178 Y-16.0982
G01 X4.6282 Y-16.0878
G01 X4.6990 Y-16.0096
G01 X4.7580 Y-15.9303
G01 X11.2007 Y-15.9303
G01 X16.0528 Y-20.7824
G01 X16.0975 Y-20.8227
G01 X16.1427 Y-20.8564
G01 X16.1550 Y-20.8646
G01 X16.2035 Y-20.8935
G01 X16.2612 Y-20.9208
G01 X16.3143 Y-20.9399
G01 X16.3283 Y-20.9442
G01 X16.3760 Y-20.9561
G01 X16.3868 Y-20.9584
G01 X16.4463 Y-20.9671
G01 X16.5100 Y-20.9703
G01 X19.1216 Y-20.9702
G01 X19.1817 Y-20.9671
G01 X19.2448 Y-20.9578
G01 X19.3067 Y-20.9423
G01 X19.3668 Y-20.9208
G01 X19.4244 Y-20.8935
G01 X19.4792 Y-20.8607
G01 X19.5304 Y-20.8227
G01 X19.5751 Y-20.7824
G01 X21.9273 Y-18.4303
G01 X22.1011 Y-18.4303
G01 X22.1529 Y-18.4871
G01 X22.2200 Y-18.5482
G01 X22.2314 Y-18.5575
G01 X22.3044 Y-18.6115
G01 X22.3886 Y-18.6619
G01 X22.4706 Y-18.7009
G01 X22.4842 Y-18.7065
G01 X22.5627 Y-18.7346
G01 X22.5733 Y-18.7380
G01 X22.6577 Y-18.7592
G01 X22.6722 Y-18.7620
G01 X22.7620 Y-18.7752
G01 X22.8526 Y-18.7798
G01 X22.8674 Y-18.7798
G01 X22.9580 Y-18.7752
G01 X23.0478 Y-18.7620
G01 X23.0623 Y-18.7592
G01 X23.1503 Y-18.7369
G01 X23.2358 Y-18.7065
G01 X23.2494 Y-18.7009
G01 X23.3314 Y-18.6619
G01 X23.4156 Y-18.6115
G01 X23.4886 Y-18.5575
G01 X23.5000 Y-18.5482
G01 X23.5671 Y-18.4871
G01 X23.6282 Y-18.4200
G01 X23.6375 Y-18.4086
G01 X23.6915 Y-18.3356
G01 X23.7419 Y-18.2514
G01 X23.7839 Y-18.1627
G01 X23.8146 Y-18.0773
G01 X23.8189 Y-18.0632
G01 X23.8392 Y-17.9823
G01 X23.8415 Y-17.9715
G01 X23.8543 Y-17.8853
G01 X23.8557 Y-17.8707
G01 X23.8600 Y-17.7800
G01 X23.8557 Y-17.6893
G01 X23.8543 Y-17.6747
G01 X23.8408 Y-17.5849
G01 X23.8169 Y-17.4897
G01 X23.7839 Y-17.3973
G01 X23.7452 Y-17.3152
G01 X23.7383 Y-17.3022
G01 X23.6915 Y-17.2244
G01 X23.6375 Y-17.1514
G01 X23.6282 Y-17.1400
G01 X23.5671 Y-17.0729
G01 X23.5000 Y-17.0118
G01 X23.4886 Y-17.0025
G01 X23.4156 Y-16.9485
G01 X23.3378 Y-16.9017
G01 X23.3248 Y-16.8948
G01 X23.2427 Y-16.8561
G01 X23.1503 Y-16.8231
G01 X23.0623 Y-16.8008
G01 X23.0478 Y-16.7980
G01 X22.9580 Y-16.7848
G01 X22.8674 Y-16.7802
G01 X22.8526 Y-16.7802
G01 X22.7620 Y-16.7848
G01 X22.6722 Y-16.7980
G01 X22.6577 Y-16.8008
G01 X22.5697 Y-16.8231
G01 X22.4842 Y-16.8535
G01 X22.4706 Y-16.8591
G01 X22.3952 Y-16.8948
G01 X22.3822 Y-16.9017
G01 X22.3044 Y-16.9485
G01 X22.2256 Y-17.0070
G01 X22.1529 Y-17.0729
G01 X22.1011 Y-17.1297
G01 X21.6542 Y-17.1298
G01 X21.5942 Y-17.1329
G01 X21.5347 Y-17.1416
G01 X21.5239 Y-17.1439
G01 X21.4692 Y-17.1577
G01 X21.4159 Y-17.1766
G01 X21.4023 Y-17.1822
G01 X21.3580 Y-17.2032
G01 X21.3450 Y-17.2102
G01 X21.2967 Y-17.2393
G01 X21.2512 Y-17.2728
G01 X21.2398 Y-17.2822
G01 X21.1981 Y-17.3202
G01 X18.8486 Y-19.6697
G01 X16.7793 Y-19.6697
G01 X11.9298 Y-14.8202
G01 X11.8825 Y-14.7773
G01 X11.8313 Y-14.7393
G01 X11.7765 Y-14.7065
G01 X11.7188 Y-14.6792
G01 X11.6588 Y-14.6577
G01 X11.5969 Y-14.6422
G01 X11.5337 Y-14.6329
G01 X11.4700 Y-14.6297
G01 X4.7580 Y-14.6297
G00 Z2.0000
G00 X2.8100 Y-16.6300
G01 F100.00
G01 Z-0.1026
G01 F200.00
G01 X2.7953 Y-16.6307
G01 X2.7807 Y-16.6329
G01 X2.7700 Y-16.6354
G01 X2.7560 Y-16.6401
G01 X2.7426 Y-16.6460
G01 X2.7298 Y-16.6533
G01 X2.7177 Y-16.6617
G01 X2.7066 Y-16.6714
G01 X2.6964 Y-16.6820
G01 X2.6874 Y-16.6936
G01 X2.6813 Y-16.7029
G01 X2.6744 Y-16.7159
G01 X2.6688 Y-16.7295
G01 X2.6645 Y-16.7436
G01 X2.6616 Y-16.7580
G01 X2.6602 Y-16.7726
G01 X2.6600 Y-18.7837
G01 X2.6607 Y-18.7947
G01 X2.6622 Y-18.8056
G01 X2.6645 Y-18.8164
G01 X2.6676 Y-18.8271
G01 X2.6714 Y-18.8374
G01 X2.6760 Y-18.8474
G01 X2.6813 Y-18.8571
G01 X2.6874 Y-18.8664
G01 X2.6917 Y-18.8723
G01 X2.6989 Y-18.8807
G01 X2.7093 Y-18.8911
G01 X2.7206 Y-18.9005
G01 X2.7329 Y-18.9087
G01 X2.7393 Y-18.9123
G01 X2.7492 Y-18.9171
G01 X2.7629 Y-18.9224
G01 X2.7771 Y-18.9264
G01 X2.7916 Y-18.9289
G01 X2.7990 Y-18.9296
G01 X2.8100 Y-18.9300
G01 X3.1597 Y-18.9300
G01 X3.1598 Y-19.0537
G01 X3.1629 Y-19.1137
G01 X3.1722 Y-19.1769
G01 X3.1858 Y-19.2317
G01 X3.1889 Y-19.2423
G01 X3.2066 Y-19.2920
G01 X3.2122 Y-19.3056
G01 X3.2365 Y-19.3565
G01 X3.2654 Y-19.4050
G01 X3.2736 Y-19.4173
G01 X3.3073 Y-19.4625
G01 X3.3476 Y-19.5072
G01 X7.3328 Y-23.4924
G01 X7.3775 Y-23.5327
G01 X7.4227 Y-23.5664
G01 X7.4350 Y-23.5746
G01 X7.4835 Y-23.6035
G01 X7.5344 Y-23.6278
G01 X7.5480 Y-23.6334
G01 X7.6012 Y-23.6523
G01 X7.6595 Y-23.6670
G01 X7.6704 Y-23.6690
G01 X7.7263 Y-23.6771
G01 X7.7900 Y-23.6803
G01 X20.1500 Y-23.6803
G01 X20.2137 Y-23.6771
G01 X20.2696 Y-23.6690
G01 X20.2840 Y-23.6661
G01 X20.3317 Y-23.6542
G01 X20.3457 Y-23.6499
G01 X20.3988 Y-23.6308
G01 X20.4565 Y-23.6035
G01 X20.5050 Y-23.5746
G01 X20.5173 Y-23.5664
G01 X20.5625 Y-23.5327
G01 X20.6072 Y-23.4924
G01 X22.7796 Y-21.3200
G01 X23.7100 Y-21.3200
G01 X23.7247 Y-21.3193
G01 X23.7356 Y-21.3178
G01 X23.7464 Y-21.3155
G01 X23.7571 Y-21.3124
G01 X23.7708 Y-21.3071
G01 X23.7807 Y-21.3023
G01 X23.7902 Y-21.2967
G01 X23.7994 Y-21.2905
G01 X23.8107 Y-21.2811
G01 X23.8186 Y-21.2734
G01 X23.8260 Y-21.2652
G01 X23.8326 Y-21.2564
G01 X23.8387 Y-21.2471
G01 X23.8440 Y-21.2374
G01 X23.8499 Y-21.2240
G01 X23.8535 Y-21.2135
G01 X23.8564 Y-21.2029
G01 X23.8589 Y-21.1884
G01 X23.8598 Y-21.1774
G01 X23.8600 Y-21.1700
G01 X23.8600 Y-19.4663
G01 X23.8589 Y-19.4516
G01 X23.8564 Y-19.4371
G01 X23.8524 Y-19.4229
G01 X23.8471 Y-19.4092
G01 X23.8405 Y-19.3961
G01 X23.8326 Y-19.3836
G01 X23.8260 Y-19.3748
G01 X23.8161 Y-19.3639
G01 X23.8052 Y-19.3540
G01 X23.7933 Y-19.3453
G01 X23.7807 Y-19.3377
G01 X23.7708 Y-19.3329
G01 X23.7571 Y-19.3276
G01 X23.7429 Y-19.3236
G01 X23.7284 Y-19.3211
G01 X23.7137 Y-19.3200
G01 X22.0100 Y-19.3200
G01 X21.9990 Y-19.3204
G01 X21.9844 Y-19.3222
G01 X21.9736 Y-19.3245
G01 X21.9629 Y-19.3276
G01 X21.9492 Y-19.3329
G01 X21.9393 Y-19.3377
G01 X21.9267 Y-19.3453
G01 X21.9148 Y-19.3540
G01 X21.9066 Y-19.3614
G01 X21.8989 Y-19.3693
G01 X21.8895 Y-19.3806
G01 X21.8813 Y-19.3929
G01 X21.8760 Y-19.4026
G01 X21.8714 Y-19.4126
G01 X21.8665 Y-19.4265
G01 X21.8636 Y-19.4371
G01 X21.8611 Y-19.4516
G01 X21.8604 Y-19.4590
G01 X21.8600 Y-19.4700
G01 X21.8600 Y-20.4004
G01 X19.8807 Y-22.3798
G01 X8.0593 Y-22.3798
G01 X4.6096 Y-18.9300
G01 X4.8137 Y-18.9300
G01 X4.8247 Y-18.9293
G01 X4.8356 Y-18.9278
G01 X4.8464 Y-18.9255
G01 X4.8605 Y-18.9212
G01 X4.8708 Y-18.9171
G01 X4.8807 Y-18.9123
G01 X4.8871 Y-18.9087
G01 X4.8964 Y-18.9026
G01 X4.9052 Y-18.8960
G01 X4.9134 Y-18.8886
G01 X4.9211 Y-18.8807
G01 X4.9260 Y-18.8752
G01 X4.9326 Y-18.8664
G01 X4.9387 Y-18.8571
G01 X4.9440 Y-18.8474
G01 X4.9471 Y-18.8408
G01 X4.9512 Y-18.8305
G01 X4.9546 Y-18.8200
G01 X4.9571 Y-18.8093
G01 X4.9584 Y-18.8020
G01 X4.9596 Y-18.7910
G01 X4.9600 Y-18.7800
G01 X4.9600 Y-16.7763
G01 X4.9593 Y-16.7653
G01 X4.9571 Y-16.7507
G01 X4.9546 Y-16.7400
G01 X4.9499 Y-16.7260
G01 X4.9456 Y-16.7159
G01 X4.9387 Y-16.7029
G01 X4.9305 Y-16.6906
G01 X4.9211 Y-16.6793
G01 X4.9107 Y-16.6689
G01 X4.8994 Y-16.6595
G01 X4.8871 Y-16.6513
G01 X4.8774 Y-16.6460
G01 X4.8708 Y-16.6429
G01 X4.8571 Y-16.6376
G01 X4.8429 Y-16.6336
G01 X4.8284 Y-16.6311
G01 X4.8137 Y-16.6300
G01 X2.8100 Y-16.6300
G00 Z2.0000
G00 X9.8100 Y-19.4800
G01 F100.00
G01 Z-0.1026
G01 F200.00
G01 X9.7953 Y-19.4807
G01 X9.7807 Y-19.4829
G01 X9.7700 Y-19.4854
G01 X9.7560 Y-19.4901
G01 X9.7426 Y-19.4960
G01 X9.7298 Y-19.5033
G01 X9.7177 Y-19.5117
G01 X9.7066 Y-19.5214
G01 X9.6964 Y-19.5320
G01 X9.6874 Y-19.5436
G01 X9.6795 Y-19.5561
G01 X9.6729 Y-19.5692
G01 X9.6676 Y-19.5829
G01 X9.6636 Y-19.5971
G01 X9.6611 Y-19.6116
G01 X9.6600 Y-19.6263
G01 X9.6600 Y-22.1337
G01 X9.6611 Y-22.1484
G01 X9.6636 Y-22.1629
G01 X9.6676 Y-22.1771
G01 X9.6701 Y-22.1840
G01 X9.6744 Y-22.1941
G01 X9.6813 Y-22.2071
G01 X9.6895 Y-22.2194
G01 X9.6989 Y-22.2307
G01 X9.7066 Y-22.2386
G01 X9.7120 Y-22.2436
G01 X9.7206 Y-22.2505
G01 X9.7329 Y-22.2587
G01 X9.7459 Y-22.2656
G01 X9.7595 Y-22.2712
G01 X9.7700 Y-22.2746
G01 X9.7844 Y-22.2778
G01 X9.7990 Y-22.2796
G01 X9.8100 Y-22.2800
G01 X12.8100 Y-22.2800
G01 X12.8247 Y-22.2793
G01 X12.8356 Y-22.2778
G01 X12.8429 Y-22.2764
G01 X12.8500 Y-22.2746
G01 X12.8605 Y-22.2712
G01 X12.8741 Y-22.2656
G01 X12.8871 Y-22.2587
G01 X12.8994 Y-22.2505
G01 X12.9107 Y-22.2411
G01 X12.9186 Y-22.2334
G01 X12.9236 Y-22.2280
G01 X12.9326 Y-22.2164
G01 X12.9387 Y-22.2071
G01 X12.9456 Y-22.1941
G01 X12.9499 Y-22.1840
G01 X12.9535 Y-22.1735
G01 X12.9571 Y-22.1593
G01 X12.9589 Y-22.1484
G01 X12.9600 Y-22.1337
G01 X12.9600 Y-19.6300
G01 X12.9593 Y-19.6153
G01 X12.9584 Y-19.6080
G01 X12.9564 Y-19.5971
G01 X12.9546 Y-19.5900
G01 X12.9512 Y-19.5795
G01 X12.9456 Y-19.5659
G01 X12.9387 Y-19.5529
G01 X12.9305 Y-19.5406
G01 X12.9260 Y-19.5348
G01 X12.9186 Y-19.5266
G01 X12.9080 Y-19.5164
G01 X12.8994 Y-19.5095
G01 X12.8871 Y-19.5013
G01 X12.8741 Y-19.4944
G01 X12.8605 Y-19.4888
G01 X12.8500 Y-19.4854
G01 X12.8356 Y-19.4822
G01 X12.8247 Y-19.4807
G01 X12.8100 Y-19.4800
G01 X9.8100 Y-19.4800
G00 Z2.0000
G00 X17.9527 Y-16.6877
G01 F100.00
G01 Z-0.1026
G01 F200.00
G01 X17.8699 Y-16.7175
G01 X17.7679 Y-16.7658
G01 X17.6711 Y-16.8238
G01 X17.5804 Y-16.8910
G01 X17.4968 Y-16.9668
G01 X17.4210 Y-17.0504
G01 X17.3538 Y-17.1411
G01 X17.2958 Y-17.2379
G01 X17.2475 Y-17.3399
G01 X17.2095 Y-17.4462
G01 X17.1821 Y-17.5556
G01 X17.1655 Y-17.6673
G01 X17.1600 Y-17.7800
G01 X17.1655 Y-17.8927
G01 X17.1821 Y-18.0044
G01 X17.2095 Y-18.1138
G01 X17.2475 Y-18.2201
G01 X17.2958 Y-18.3221
G01 X17.3538 Y-18.4189
G01 X17.4210 Y-18.5096
G01 X17.4968 Y-18.5932
G01 X17.5804 Y-18.6690
G01 X17.6711 Y-18.7362
G01 X17.7679 Y-18.7942
G01 X17.8699 Y-18.8425
G01 X17.9762 Y-18.8805
G01 X18.0856 Y-18.9079
G01 X18.1973 Y-18.9245
G01 X18.3100 Y-18.9300
G01 X18.4227 Y-18.9245
G01 X18.5344 Y-18.9079
G01 X18.6438 Y-18.8805
G01 X18.7501 Y-18.8425
G01 X18.8455 Y-18.7975
G01 X18.8585 Y-18.7906
G01 X18.9489 Y-18.7362
G01 X19.0337 Y-18.6735
G01 X19.0451 Y-18.6642
G01 X19.1178 Y-18.5982
G01 X19.1282 Y-18.5878
G01 X19.1990 Y-18.5096
G01 X19.2662 Y-18.4189
G01 X19.3242 Y-18.3221
G01 X19.3695 Y-18.2268
G01 X19.3738 Y-18.2167
G01 X19.4082 Y-18.1208
G01 X19.4124 Y-18.1067
G01 X19.4379 Y-18.0044
G01 X19.4536 Y-17.9000
G01 X19.4550 Y-17.8854
G01 X19.4600 Y-17.7800
G01 X19.4548 Y-17.6709
G01 X19.4536 Y-17.6600
G01 X19.4379 Y-17.5556
G01 X19.4124 Y-17.4533
G01 X19.4094 Y-17.4427
G01 X19.3751 Y-17.3468
G01 X19.3710 Y-17.3365
G01 X19.3259 Y-17.2412
G01 X19.3206 Y-17.2315
G01 X19.2934 Y-17.1862
G01 X22.7832 Y-13.6964
G01 X22.8600 Y-13.7000
G01 X22.9507 Y-13.6957
G01 X22.9653 Y-13.6943
G01 X23.0551 Y-13.6808
G01 X23.1432 Y-13.6589
G01 X23.1573 Y-13.6546
G01 X23.2427 Y-13.6239
G01 X23.3248 Y-13.5852
G01 X23.3378 Y-13.5783
G01 X23.4156 Y-13.5315
G01 X23.4886 Y-13.4775
G01 X23.5000 Y-13.4682
G01 X23.5618 Y-13.4122
G01 X23.5722 Y-13.4018
G01 X23.6330 Y-13.3344
G01 X23.6872 Y-13.2616
G01 X23.6954 Y-13.2494
G01 X23.7383 Y-13.1778
G01 X23.7452 Y-13.1648
G01 X23.7839 Y-13.0827
G01 X23.8169 Y-12.9903
G01 X23.8408 Y-12.8951
G01 X23.8543 Y-12.8053
G01 X23.8557 Y-12.7907
G01 X23.8598 Y-12.7074
G01 X23.8598 Y-12.6926
G01 X23.8552 Y-12.6020
G01 X23.8408 Y-12.5049
G01 X23.8169 Y-12.4097
G01 X23.7865 Y-12.3242
G01 X23.7809 Y-12.3106
G01 X23.7452 Y-12.2352
G01 X23.7383 Y-12.2222
G01 X23.6915 Y-12.1444
G01 X23.6330 Y-12.0656
G01 X23.5671 Y-11.9929
G01 X23.4944 Y-11.9270
G01 X23.4156 Y-11.8685
G01 X23.3314 Y-11.8181
G01 X23.2427 Y-11.7761
G01 X23.1503 Y-11.7431
G01 X23.0551 Y-11.7192
G01 X22.9580 Y-11.7048
G01 X22.8600 Y-11.7000
G01 X22.7620 Y-11.7048
G01 X22.6649 Y-11.7192
G01 X22.5697 Y-11.7431
G01 X22.4773 Y-11.7761
G01 X22.3886 Y-11.8181
G01 X22.3044 Y-11.8685
G01 X22.2256 Y-11.9270
G01 X22.1529 Y-11.9929
G01 X22.0918 Y-12.0600
G01 X22.0825 Y-12.0714
G01 X22.0285 Y-12.1444
G01 X21.9817 Y-12.2222
G01 X21.9748 Y-12.2352
G01 X21.9361 Y-12.3173
G01 X21.9031 Y-12.4097
G01 X21.8808 Y-12.4977
G01 X21.8780 Y-12.5122
G01 X21.8657 Y-12.5947
G01 X21.8643 Y-12.6093
G01 X21.8600 Y-12.7000
G01 X21.8636 Y-12.7768
G01 X17.9527 Y-16.6877
G00 Z2.0000
G00 X18.5205 Y-11.6499
G01 F100.00
G01 Z-0.1026
G01 F200.00
G01 X18.4227 Y-11.6355
G01 X18.3100 Y-11.6300
G01 X18.1973 Y-11.6355
G01 X18.0856 Y-11.6521
G01 X17.9762 Y-11.6795
G01 X17.8699 Y-11.7175
G01 X17.7679 Y-11.7658
G01 X17.6711 Y-11.8238
G01 X17.5804 Y-11.8910
G01 X17.4968 Y-11.9668
G01 X17.4210 Y-12.0504
G01 X17.3538 Y-12.1411
G01 X17.2958 Y-12.2379
G01 X17.2475 Y-12.3399
G01 X17.2095 Y-12.4462
G01 X17.1821 Y-12.5556
G01 X17.1655 Y-12.6673
G01 X17.1600 Y-12.7800
G01 X17.1655 Y-12.8927
G01 X17.1821 Y-13.0044
G01 X17.2095 Y-13.1138
G01 X17.2475 Y-13.2201
G01 X17.2958 Y-13.3221
G01 X17.3538 Y-13.4189
G01 X17.4210 Y-13.5096
G01 X17.4968 Y-13.5932
G01 X17.5804 Y-13.6690
G01 X17.6711 Y-13.7362
G01 X17.7679 Y-13.7942
G01 X17.8699 Y-13.8425
G01 X17.9762 Y-13.8805
G01 X18.0856 Y-13.9079
G01 X18.1973 Y-13.9245
G01 X18.3026 Y-13.9298
G01 X18.3174 Y-13.9298
G01 X18.4227 Y-13.9245
G01 X18.5271 Y-13.9092
G01 X18.5415 Y-13.9063
G01 X18.6438 Y-13.8805
G01 X18.7501 Y-13.8425
G01 X18.8455 Y-13.7975
G01 X18.8585 Y-13.7906
G01 X18.9489 Y-13.7362
G01 X19.0337 Y-13.6735
G01 X19.0451 Y-13.6642
G01 X19.1232 Y-13.5932
G01 X19.1942 Y-13.5151
G01 X19.2035 Y-13.5037
G01 X19.2662 Y-13.4189
G01 X19.3206 Y-13.3285
G01 X19.3275 Y-13.3155
G01 X19.3725 Y-13.2201
G01 X19.4105 Y-13.1138
G01 X19.4379 Y-13.0044
G01 X19.4536 Y-12.9000
G01 X19.4550 Y-12.8854
G01 X19.4598 Y-12.7874
G01 X19.4598 Y-12.7726
G01 X19.4545 Y-12.6673
G01 X19.4401 Y-12.5695
G01 X21.1993 Y-10.8103
G01 X22.1011 Y-10.8103
G01 X22.1529 Y-10.8671
G01 X22.2256 Y-10.9330
G01 X22.3044 Y-10.9915
G01 X22.3886 Y-11.0419
G01 X22.4773 Y-11.0839
G01 X22.5697 Y-11.1169
G01 X22.6649 Y-11.1408
G01 X22.7583 Y-11.1548
G01 X22.7693 Y-11.1557
G01 X22.8600 Y-11.1600
G01 X22.9507 Y-11.1557
G01 X22.9653 Y-11.1543
G01 X23.0551 Y-11.1408
G01 X23.1432 Y-11.1189
G01 X23.1573 Y-11.1146
G01 X23.2358 Y-11.0865
G01 X23.2494 Y-11.0809
G01 X23.3314 Y-11.0419
G01 X23.4156 Y-10.9915
G01 X23.4944 Y-10.9330
G01 X23.5618 Y-10.8722
G01 X23.5722 Y-10.8618
G01 X23.6282 Y-10.8000
G01 X23.6375 Y-10.7886
G01 X23.6915 Y-10.7156
G01 X23.7383 Y-10.6378
G01 X23.7452 Y-10.6248
G01 X23.7839 Y-10.5427
G01 X23.8169 Y-10.4503
G01 X23.8408 Y-10.3551
G01 X23.8552 Y-10.2580
G01 X23.8600 Y-10.1600
G01 X23.8552 Y-10.0620
G01 X23.8408 Y-9.9649
G01 X23.8189 Y-9.8768
G01 X23.8158 Y-9.8662
G01 X23.7839 Y-9.7773
G01 X23.7452 Y-9.6952
G01 X23.7383 Y-9.6822
G01 X23.6915 Y-9.6044
G01 X23.6375 Y-9.5314
G01 X23.6282 Y-9.5200
G01 X23.5671 Y-9.4529
G01 X23.4944 Y-9.3870
G01 X23.4216 Y-9.3328
G01 X23.4094 Y-9.3246
G01 X23.3314 Y-9.2781
G01 X23.2427 Y-9.2361
G01 X23.1503 Y-9.2031
G01 X23.0623 Y-9.1808
G01 X23.0478 Y-9.1780
G01 X22.9580 Y-9.1648
G01 X22.8600 Y-9.1600
G01 X22.7693 Y-9.1643
G01 X22.7547 Y-9.1657
G01 X22.6649 Y-9.1792
G01 X22.5768 Y-9.2011
G01 X22.5627 Y-9.2054
G01 X22.4773 Y-9.2361
G01 X22.3886 Y-9.2781
G01 X22.3106 Y-9.3246
G01 X22.2984 Y-9.3328
G01 X22.2314 Y-9.3825
G01 X22.2200 Y-9.3918
G01 X22.1529 Y-9.4529
G01 X22.1011 Y-9.5097
G01 X20.9263 Y-9.5098
G01 X20.8663 Y-9.5129
G01 X20.8104 Y-9.5210
G01 X20.7960 Y-9.5239
G01 X20.7483 Y-9.5358
G01 X20.7377 Y-9.5389
G01 X20.6880 Y-9.5566
G01 X20.6744 Y-9.5622
G01 X20.6235 Y-9.5865
G01 X20.5750 Y-9.6154
G01 X20.5627 Y-9.6236
G01 X20.5175 Y-9.6573
G01 X20.4728 Y-9.6976
G01 X18.5205 Y-11.6499
G00 Z2.0000
M05
G00 Z2.0000
G00 Z5.00


